; generated by PrusaSlicer 2.3.0+win64 on 2021-05-05 at 19:49:08 UTC

; 

; external perimeters extrusion width = 0.45mm
; perimeters extrusion width = 0.45mm
; infill extrusion width = 0.45mm
; solid infill extrusion width = 0.45mm
; top infill extrusion width = 0.40mm
; first layer extrusion width = 0.42mm

M73 P0 R32
M73 Q0 S32
M201 X1000 Y1000 Z200 E5000 ; sets maximum accelerations, mm/sec^2
M203 X200 Y200 Z12 E120 ; sets maximum feedrates, mm/sec
M204 P1250 R1250 T1250 ; sets acceleration (P, T) and retract acceleration (R), mm/sec^2
M205 X8.00 Y8.00 Z0.40 E4.50 ; sets the jerk limits, mm/sec
M205 S0 T0 ; sets the minimum extruding and travel feed rate, mm/sec
M107
;TYPE:Custom
M862.3 P "MK3S" ; printer model check
M862.1 P0.4 ; nozzle diameter check
M115 U3.9.2 ; tell printer latest fw version
G90 ; use absolute coordinates
M83 ; extruder relative mode
M104 S230 ; set extruder temp
M140 S85 ; set bed temp
M190 S85 ; wait for bed temp
M109 S230 ; wait for extruder temp
G28 W ; home all without mesh bed level
G80 ; mesh bed leveling
G1 Y-3.0 F1000.0 ; go outside print area
G92 E0.0
G1 X60.0 E9.0 F1000.0 ; intro line
G1 X100.0 E12.5 F1000.0 ; intro line
G92 E0.0
M221 S95

; Don't change E values below. Excessive value can damage the printer.

G21 ; set units to millimeters
G90 ; use absolute coordinates
M83 ; use relative distances for extrusion
M900 K0.08 ; Filament gcode LA 1.5
M900 K45 ; Filament gcode LA 1.0
;LAYER_CHANGE
;Z:0.2
;HEIGHT:0.2
;BEFORE_LAYER_CHANGE
G92 E0.0
;0.2


G1 E-1.40000 F2100.000
G1 Z0.200 F10800.000
;AFTER_LAYER_CHANGE
;0.2
G1 Z0.400
G1 X111.347 Y80.639
G1 Z0.200
G1 E1.40000 F2100.000
M204 S1000
;TYPE:Skirt
;WIDTH:0.42
G1 F1200.000
G1 X111.700 Y80.139 E0.01917
G1 X112.169 Y79.747 E0.01917
G1 X112.726 Y79.485 E0.01929
G1 X113.328 Y79.376 E0.01917
G1 X136.555 Y79.373 E0.72829
G1 X137.372 Y79.519 E0.02602
G1 X138.086 Y79.935 E0.02590
G1 X138.615 Y80.570 E0.02590
G1 X138.895 Y81.351 E0.02602
G1 X141.367 Y107.531 E0.82451
G1 X141.377 Y127.780 E0.63491
G1 X141.303 Y128.338 E0.01763
G1 X141.102 Y128.859 E0.01752
G1 X140.742 Y129.367 E0.01953
G1 X140.262 Y129.764 E0.01953
G1 X139.695 Y130.023 E0.01953
G1 X139.077 Y130.126 E0.01965
G1 X110.977 Y130.127 E0.88106
G1 X110.416 Y130.054 E0.01775
G1 X109.891 Y129.852 E0.01763
G1 X109.391 Y129.500 E0.01917
G1 X109.000 Y129.035 E0.01906
G1 X108.740 Y128.485 E0.01906
G1 X108.627 Y127.884 E0.01917
G1 X108.624 Y107.681 E0.63345
G1 X111.083 Y81.512 E0.82414
G1 X111.330 Y80.696 E0.02672
;WIPE_START
G1 F8640.000
G1 X111.700 Y80.139 E-0.15441
G1 X112.169 Y79.747 E-0.14121
G1 X112.726 Y79.485 E-0.14208
G1 X113.328 Y79.376 E-0.14121
G1 X116.581 Y79.376 E-0.75109
;WIPE_END
G1 E-0.07000 F2100.000
G1 Z0.400 F10800.000
G1 X109.087 Y100.734
G1 Z0.200
G1 E1.40000 F2100.000
G1 F1200.000
G1 X108.965 Y100.259 E0.01537
G1 X108.965 Y81.203 E0.59749
G1 X109.519 Y79.458 E0.05742
G1 X110.066 Y78.697 E0.02939
G1 X110.775 Y78.010 E0.03095
G1 X111.905 Y77.346 E0.04109
G1 X113.169 Y77.036 E0.04079
G1 X136.808 Y77.040 E0.74120
G1 X137.756 Y77.224 E0.03028
G1 X138.665 Y77.615 E0.03101
G1 X139.883 Y78.638 E0.04990
G1 X140.674 Y79.856 E0.04551
G1 X141.035 Y81.239 E0.04481
G1 X141.035 Y100.297 E0.59757
M73 P1 R32
M73 Q1 S32
G1 X140.909 Y100.678 E0.01258
G1 X140.615 Y101.570 F10800.000
G1 F1200.000
G1 X140.421 Y102.156 E0.01936
G1 X139.721 Y103.075 E0.03621
G1 X140.517 Y103.250 E0.02557
G1 X140.785 Y103.371 E0.00920
G1 X141.180 Y103.550 F10800.000
G1 F1200.000
G1 X141.397 Y103.648 E0.00744
G1 X142.602 Y104.683 E0.04981
G1 X143.330 Y105.804 E0.04191
G1 X143.700 Y107.140 E0.04347
G1 X143.713 Y128.259 E0.66218
M73 P1 R31
G1 X143.366 Y129.611 E0.04374
G1 X142.908 Y130.439 E0.02968
G1 X141.839 Y131.542 E0.04816
G1 X140.755 Y132.159 E0.03911
G1 X139.510 Y132.463 E0.04020
G1 X110.490 Y132.463 E0.90988
G1 X109.139 Y132.116 E0.04374
G1 X108.311 Y131.658 E0.02968
G1 X107.208 Y130.589 E0.04816
G1 X106.591 Y129.505 E0.03911
G1 X106.287 Y128.260 E0.04020
G1 X106.287 Y107.240 E0.65905
G1 X106.585 Y106.018 E0.03945
G1 X107.028 Y105.150 E0.03056
G1 X108.117 Y103.992 E0.04984
G1 X108.820 Y103.581 E0.02553
G1 X109.220 Y103.354 F10800.000
G1 F1200.000
G1 X110.316 Y103.060 E0.03557
G1 X109.969 Y102.692 E0.01586
G1 X109.374 Y101.718 E0.03578
G1 X109.467 Y100.724 F10800.000
G1 F1200.000
G1 X109.655 Y101.455 E0.02367
G1 X110.278 Y102.475 E0.03747
G1 X111.202 Y103.410 E0.04122
G1 X110.421 Y103.425 E0.02450
G1 X109.362 Y103.700 E0.03429
G1 X109.177 Y103.808 E0.00672
G1 X108.776 Y104.043 F10800.000
G1 F1200.000
G1 X108.332 Y104.303 E0.01616
G1 X107.322 Y105.387 E0.04643
G1 X106.945 Y106.130 E0.02611
G1 X106.664 Y107.264 E0.03664
G1 X106.664 Y128.236 E0.65758
G1 X106.950 Y129.388 E0.03721
G1 X107.521 Y130.377 E0.03581
G1 X108.553 Y131.368 E0.04487
G1 X109.299 Y131.773 E0.02661
G1 X110.514 Y132.086 E0.03936
G1 X139.486 Y132.086 E0.90840
M73 Q1 S31
G1 X140.638 Y131.800 E0.03721
G1 X141.627 Y131.229 E0.03581
G1 X142.618 Y130.197 E0.04487
G1 X143.023 Y129.451 E0.02661
G1 X143.336 Y128.236 E0.03936
G1 X143.323 Y107.166 E0.66064
G1 X142.997 Y105.983 E0.03846
G1 X142.334 Y104.950 E0.03851
G1 X141.222 Y103.985 E0.04616
G1 X140.826 Y103.804 F10800.000
G1 F1200.000
G1 X140.381 Y103.603 E0.01529
G1 X139.544 Y103.425 E0.02685
G1 X138.790 Y103.414 E0.02362
G1 X139.661 Y102.544 E0.03859
G1 X140.074 Y102.006 E0.02127
G1 X140.528 Y100.653 E0.04474
;WIPE_START
G1 F8640.000
G1 X140.074 Y102.006 E-0.32948
G1 X139.661 Y102.544 E-0.15661
G1 X138.790 Y103.414 E-0.28418
G1 X139.544 Y103.425 E-0.17391
G1 X140.381 Y103.603 E-0.19773
G1 X140.826 Y103.804 E-0.11261
;WIPE_END
G1 E-0.14548 F2100.000
G1 Z0.400 F10800.000
G1 X140.658 Y98.017
G1 Z0.200
G1 E1.40000 F2100.000
G1 F1200.000
G1 X140.658 Y81.263 E0.52531
G1 X140.318 Y79.982 E0.04157
G1 X139.618 Y78.908 E0.04018
G1 X138.488 Y77.949 E0.04647
G1 X137.663 Y77.590 E0.02823
G1 X136.789 Y77.417 E0.02791
G1 X113.192 Y77.414 E0.73987
G1 X112.024 Y77.705 E0.03774
G1 X110.988 Y78.322 E0.03780
G1 X110.341 Y78.955 E0.02841
G1 X109.868 Y79.603 E0.02514
G1 X109.342 Y81.233 E0.05371
G1 X109.342 Y98.026 E0.52651
G1 X109.719 Y98.043 F10800.000
G1 F1200.000
G1 X109.719 Y100.212 E0.06801
G1 X109.991 Y101.283 E0.03463
G1 X110.588 Y102.259 E0.03586
G1 X111.142 Y102.813 E0.02460
G1 X111.628 Y103.185 E0.01916
G1 X112.462 Y103.477 E0.02772
G1 X112.409 Y103.790 E0.00997
G1 X110.491 Y103.797 E0.06015
G1 X109.482 Y104.058 E0.03268
G1 X109.135 Y104.262 E0.01262
G1 X108.734 Y104.496 F10800.000
G1 F1200.000
G1 X108.587 Y104.582 E0.00532
G1 X107.645 Y105.584 E0.04313
G1 X107.305 Y106.244 E0.02328
G1 X107.041 Y107.288 E0.03376
G1 X107.041 Y128.212 E0.65608
G1 X107.309 Y129.268 E0.03416
G1 X107.832 Y130.163 E0.03250
G1 X108.793 Y131.076 E0.04158
G1 X109.456 Y131.430 E0.02354
G1 X110.538 Y131.709 E0.03505
G1 X139.462 Y131.709 E0.90690
G1 X140.518 Y131.441 E0.03416
G1 X141.413 Y130.918 E0.03250
G1 X142.326 Y129.957 E0.04158
G1 X142.680 Y129.294 E0.02354
G1 X142.959 Y128.212 E0.03505
G1 X142.953 Y107.239 E0.65759
M73 P2 R31
M73 Q2 S31
G1 X142.663 Y106.160 E0.03503
G1 X142.064 Y105.215 E0.03508
G1 X141.272 Y104.521 E0.03302
G1 X140.866 Y104.235 F10800.000
G1 F1200.000
G1 X140.282 Y103.967 E0.02014
G1 X139.486 Y103.798 E0.02554
G1 X137.802 Y103.794 E0.05279
G1 X137.725 Y103.519 E0.00893
G1 X138.830 Y102.841 E0.04067
G1 X139.385 Y102.286 E0.02460
G1 X139.756 Y101.802 E0.01912
G1 X140.281 Y100.235 E0.05179
G1 X140.281 Y98.035 E0.06899
;WIPE_START
G1 F8640.000
G1 X140.281 Y100.235 E-0.50804
G1 X139.756 Y101.802 E-0.38142
G1 X139.385 Y102.286 E-0.14079
G1 X138.830 Y102.841 E-0.18119
G1 X138.393 Y103.109 E-0.11856
;WIPE_END
G1 E-0.07000 F2100.000
G1 Z0.400 F10800.000
G1 X140.281 Y94.024
G1 Z0.200
G1 E1.40000 F2100.000
G1 F1200.000
G1 X140.281 Y81.288 E0.39934
G1 X139.984 Y80.160 E0.03655
G1 X139.351 Y79.176 E0.03669
G1 X138.310 Y78.283 E0.04302
G1 X137.567 Y77.955 E0.02545
G1 X136.770 Y77.794 E0.02549
G1 X113.216 Y77.791 E0.73852
G1 X112.145 Y78.063 E0.03465
G1 X111.204 Y78.633 E0.03451
G1 X110.616 Y79.214 E0.02592
G1 X110.216 Y79.751 E0.02099
G1 X109.719 Y81.264 E0.04993
G1 X109.719 Y94.013 E0.39975
G1 X110.096 Y94.031 F10800.000
G1 F1200.000
G1 X110.096 Y100.188 E0.19305
G1 X110.349 Y101.160 E0.03149
G1 X110.870 Y102.008 E0.03119
G1 X111.400 Y102.538 E0.02350
G1 X111.830 Y102.865 E0.01695
G1 X113.223 Y103.332 E0.04607
G1 X136.760 Y103.332 E0.73796
G1 X137.732 Y103.079 E0.03149
G1 X138.579 Y102.558 E0.03119
G1 X139.109 Y102.028 E0.02350
G1 X139.437 Y101.598 E0.01695
G1 X139.904 Y100.205 E0.04607
G1 X139.904 Y94.042 E0.19324
;WIPE_START
G1 F8640.000
G1 X139.904 Y99.802 E-1.33000
;WIPE_END
G1 E-0.07000 F2100.000
G1 Z0.400 F10800.000
G1 X139.904 Y90.030
G1 Z0.200
G1 E1.40000 F2100.000
G1 F1200.000
G1 X139.904 Y81.313 E0.27333
G1 X139.628 Y80.287 E0.03331
G1 X139.084 Y79.442 E0.03149
G1 X138.130 Y78.615 E0.03960
G1 X137.470 Y78.320 E0.02266
G1 X136.750 Y78.171 E0.02304
G1 X113.241 Y78.168 E0.73713
G1 X112.268 Y78.421 E0.03150
G1 X111.421 Y78.941 E0.03119
G1 X110.891 Y79.472 E0.02350
G1 X110.563 Y79.902 E0.01695
G1 X110.096 Y81.295 E0.04607
G1 X110.096 Y90.001 E0.27296
G1 X110.473 Y90.019 F10800.000
G1 F1200.000
G1 X110.473 Y100.163 E0.31806
G1 X110.706 Y101.035 E0.02831
G1 X111.152 Y101.756 E0.02658
G1 X111.657 Y102.262 E0.02241
G1 X112.033 Y102.546 E0.01477
G1 X113.254 Y102.955 E0.04038
G1 X136.734 Y102.955 E0.73621
G1 X137.607 Y102.723 E0.02831
G1 X138.328 Y102.277 E0.02658
G1 X138.833 Y101.771 E0.02241
G1 X139.117 Y101.395 E0.01477
G1 X139.527 Y100.174 E0.04038
G1 X139.527 Y90.048 E0.31750
;WIPE_START
G1 F8640.000
G1 X139.527 Y95.808 E-1.33000
;WIPE_END
G1 E-0.07000 F2100.000
G1 Z0.400 F10800.000
G1 X139.527 Y86.037
G1 Z0.200
G1 E1.40000 F2100.000
G1 F1200.000
G1 X139.527 Y81.337 E0.14736
G1 X139.294 Y80.464 E0.02835
G1 X138.814 Y79.707 E0.02809
G1 X137.949 Y78.947 E0.03609
G1 X137.335 Y78.673 E0.02110
G1 X136.731 Y78.548 E0.01932
G1 X113.266 Y78.545 E0.73575
G1 X112.393 Y78.777 E0.02832
G1 X111.672 Y79.223 E0.02658
G1 X111.167 Y79.729 E0.02241
G1 X110.883 Y80.105 E0.01477
G1 X110.473 Y81.326 E0.04038
G1 X110.473 Y85.988 E0.14620
G1 X110.850 Y86.006 F10800.000
G1 F1200.000
G1 X110.850 Y100.137 E0.44306
G1 X111.062 Y100.908 E0.02508
G1 X111.433 Y101.505 E0.02203
G1 X111.914 Y101.985 E0.02132
G1 X112.235 Y102.226 E0.01257
G1 X113.285 Y102.578 E0.03472
G1 X136.708 Y102.578 E0.73444
G1 X137.480 Y102.367 E0.02508
G1 X138.076 Y101.995 E0.02203
G1 X138.557 Y101.514 E0.02132
G1 X138.797 Y101.194 E0.01257
G1 X139.150 Y100.144 E0.03472
G1 X139.150 Y86.055 E0.44175
;WIPE_START
G1 F8640.000
G1 X139.150 Y91.815 E-1.33000
;WIPE_END
G1 E-0.07000 F2100.000
G1 Z0.400 F10800.000
G1 X139.150 Y82.043
G1 Z0.200
G1 E1.40000 F2100.000
G1 F1200.000
G1 X139.150 Y81.363 E0.02133
G1 X138.938 Y80.591 E0.02510
G1 X138.543 Y79.971 E0.02306
G1 X137.766 Y79.278 E0.03263
G1 X137.235 Y79.037 E0.01829
G1 X136.711 Y78.926 E0.01681
G1 X113.292 Y78.922 E0.73429
M73 P3 R31
M73 Q3 S31
G1 X112.520 Y79.133 E0.02509
G1 X111.924 Y79.505 E0.02203
G1 X111.443 Y79.986 E0.02132
G1 X111.203 Y80.306 E0.01257
G1 X110.850 Y81.356 E0.03472
G1 X110.850 Y81.976 E0.01943
;WIPE_START
G1 F8640.000
G1 X110.850 Y81.356 E-0.14309
G1 X111.203 Y80.306 E-0.25571
G1 X111.443 Y79.986 E-0.09255
G1 X111.924 Y79.505 E-0.15698
G1 X112.520 Y79.133 E-0.16221
G1 X113.292 Y78.922 E-0.18476
;WIPE_END
G1 E-0.40471 F2100.000
G1 Z0.400 F10800.000
G1 X138.773 Y82.061
G1 Z0.200
G1 E1.40000 F2100.000
G1 F1200.000
G1 X138.773 Y100.113 E0.56600
G1 X138.477 Y100.993 E0.02911
G1 X138.280 Y101.258 E0.01034
G1 X137.824 Y101.714 E0.02022
G1 X137.350 Y102.012 E0.01755
G1 X136.682 Y102.201 E0.02179
G1 X113.315 Y102.201 E0.73263
G1 X112.435 Y101.905 E0.02911
G1 X112.171 Y101.709 E0.01034
G1 X111.715 Y101.253 E0.02022
G1 X111.417 Y100.779 E0.01755
G1 X111.227 Y100.110 E0.02179
G1 X111.227 Y81.994 E0.56802
G1 X111.604 Y81.418 F10800.000
G1 F1200.000
G1 X111.844 Y80.706 E0.02354
G1 X111.997 Y80.498 E0.00808
G1 X112.428 Y80.067 E0.01911
G1 X112.783 Y79.842 E0.01318
G1 X113.347 Y79.676 E0.01842
G1 X136.667 Y79.680 E0.73121
G1 X137.027 Y79.763 E0.01157
G1 X137.393 Y79.935 E0.01268
G1 X137.998 Y80.493 E0.02580
G1 X138.230 Y80.855 E0.01347
G1 X138.396 Y81.418 E0.01841
G1 X138.396 Y100.082 E0.58520
G1 X138.156 Y100.794 E0.02354
G1 X138.003 Y101.002 E0.00808
G1 X137.572 Y101.433 E0.01911
G1 X137.217 Y101.658 E0.01318
G1 X136.654 Y101.824 E0.01842
G1 X113.346 Y101.824 E0.73079
G1 X112.635 Y101.584 E0.02354
G1 X112.427 Y101.431 E0.00808
G1 X111.996 Y101.000 E0.01911
G1 X111.770 Y100.646 E0.01318
G1 X111.604 Y100.082 E0.01842
G1 X111.604 Y81.478 E0.58332
G1 X112.167 Y80.904 F10800.000
G1 F1200.000
G1 X112.275 Y80.754 E0.00579
G1 X112.681 Y80.348 E0.01800
G1 X112.920 Y80.194 E0.00892
G1 X113.376 Y80.053 E0.01496
G1 X136.646 Y80.057 E0.72960
G1 X136.884 Y80.112 E0.00767
G1 X137.204 Y80.263 E0.01109
G1 X137.722 Y80.751 E0.02233
G1 X137.878 Y80.992 E0.00898
G1 X138.019 Y81.448 E0.01495
G1 X138.019 Y100.051 E0.58330
G1 X137.833 Y100.596 E0.01806
G1 X137.725 Y100.746 E0.00579
G1 X137.319 Y101.152 E0.01800
G1 X137.080 Y101.306 E0.00892
G1 X136.624 Y101.447 E0.01496
G1 X113.377 Y101.447 E0.72889
G1 X112.832 Y101.262 E0.01806
G1 X112.682 Y101.154 E0.00579
G1 X112.276 Y100.748 E0.01800
G1 X112.122 Y100.508 E0.00892
G1 X111.981 Y100.052 E0.01496
G1 X111.981 Y81.449 E0.58330
G1 X112.147 Y80.960 E0.01618
G1 X112.491 Y81.098 F10800.000
G1 F1200.000
G1 X112.554 Y81.008 E0.00345
G1 X112.934 Y80.628 E0.01686
G1 X113.063 Y80.543 E0.00484
G1 X113.408 Y80.430 E0.01136
G1 X136.623 Y80.434 E0.72792
G1 X136.740 Y80.461 E0.00377
G1 X137.014 Y80.590 E0.00947
G1 X137.445 Y81.007 E0.01880
G1 X137.528 Y81.135 E0.00479
G1 X137.641 Y81.479 E0.01136
G1 X137.641 Y100.019 E0.58131
G1 X137.509 Y100.402 E0.01270
G1 X137.446 Y100.492 E0.00345
G1 X137.066 Y100.872 E0.01686
G1 X136.937 Y100.957 E0.00484
G1 X136.592 Y101.070 E0.01136
G1 X113.409 Y101.070 E0.72689
G1 X113.026 Y100.938 E0.01270
G1 X112.936 Y100.875 E0.00345
G1 X112.556 Y100.494 E0.01686
G1 X112.472 Y100.365 E0.00484
G1 X112.359 Y100.021 E0.01136
G1 X112.359 Y81.481 E0.58131
G1 X112.471 Y81.155 E0.01081
G1 X112.817 Y81.287 F10800.000
G1 F1200.000
G1 X113.188 Y80.907 E0.01666
M73 Q4 S31
G1 X113.443 Y80.807 E0.00856
G1 X136.571 Y80.807 E0.72518
M73 P4 R31
G1 X136.822 Y80.917 E0.00856
G1 X137.165 Y81.260 E0.01522
G1 X137.264 Y81.514 E0.00856
G1 X137.264 Y99.986 E0.57915
G1 X137.165 Y100.240 E0.00856
G1 X136.812 Y100.593 E0.01566
G1 X136.557 Y100.693 E0.00856
G1 X113.443 Y100.693 E0.72474
G1 X113.188 Y100.593 E0.00856
G1 X112.835 Y100.240 E0.01566
G1 X112.736 Y99.986 E0.00856
G1 X112.736 Y81.514 E0.57915
G1 X112.797 Y81.344 E0.00569
G1 X113.141 Y81.487 F10800.000
G1 F1200.000
G1 X113.415 Y81.213 E0.01215
G1 X113.485 Y81.184 E0.00235
G1 X136.515 Y81.184 E0.72211
M73 P4 R30
G1 X136.585 Y81.213 E0.00235
G1 X136.859 Y81.487 E0.01215
G1 X136.887 Y81.556 E0.00235
G1 X136.887 Y99.944 E0.57652
G1 X136.859 Y100.013 E0.00235
G1 X136.585 Y100.287 E0.01215
G1 X136.515 Y100.316 E0.00235
G1 X113.485 Y100.316 E0.72211
G1 X113.415 Y100.287 E0.00235
G1 X113.141 Y100.013 E0.01215
G1 X113.113 Y99.944 E0.00235
G1 X113.118 Y81.542 E0.57696
G1 X113.490 Y81.672 F10800.000
G1 F1200.000
G1 X113.600 Y81.561 E0.00490
G1 X136.400 Y81.561 E0.71486
G1 X136.510 Y81.672 E0.00490
G1 X136.510 Y99.828 E0.56927
M73 Q4 S30
G1 X136.400 Y99.939 E0.00490
G1 X113.600 Y99.939 E0.71486
G1 X113.490 Y99.828 E0.00490
G1 X113.490 Y81.732 E0.56739
;WIPE_START
G1 F8640.000
G1 X113.600 Y81.561 E-0.04690
G1 X119.157 Y81.561 E-1.28310
;WIPE_END
G1 E-0.07000 F2100.000
G1 Z0.400 F10800.000
G1 X140.911 Y104.704
G1 Z0.200
G1 E1.40000 F2100.000
G1 F1200.000
G1 X140.808 Y104.615 E0.00426
G1 X140.148 Y104.320 E0.02266
G1 X139.429 Y104.171 E0.02304
G1 X110.562 Y104.168 E0.90509
G1 X109.603 Y104.417 E0.03107
G1 X109.092 Y104.721 E0.01867
G1 X108.685 Y105.018 F10800.000
G1 F1200.000
G1 X107.967 Y105.782 E0.03287
G1 X107.665 Y106.361 E0.02048
G1 X107.418 Y107.312 E0.03083
G1 X107.418 Y128.188 E0.65454
G1 X107.667 Y129.147 E0.03106
G1 X108.142 Y129.947 E0.02918
G1 X109.032 Y130.783 E0.03829
G1 X109.611 Y131.085 E0.02048
