; generated by PrusaSlicer 2.3.0+win64 on 2021-05-03 at 16:24:12 UTC

; 

; external perimeters extrusion width = 0.45mm
; perimeters extrusion width = 0.45mm
; infill extrusion width = 0.45mm
; solid infill extrusion width = 0.45mm
; top infill extrusion width = 0.40mm
; first layer extrusion width = 0.42mm

M73 P0 R34
M73 Q0 S35
M201 X1000 Y1000 Z200 E5000 ; sets maximum accelerations, mm/sec^2
M203 X200 Y200 Z12 E120 ; sets maximum feedrates, mm/sec
M204 P1250 R1250 T1250 ; sets acceleration (P, T) and retract acceleration (R), mm/sec^2
M205 X8.00 Y8.00 Z0.40 E4.50 ; sets the jerk limits, mm/sec
M205 S0 T0 ; sets the minimum extruding and travel feed rate, mm/sec
M107
;TYPE:Custom
M862.3 P "MK3S" ; printer model check
M862.1 P0.4 ; nozzle diameter check
M115 U3.9.2 ; tell printer latest fw version
G90 ; use absolute coordinates
M83 ; extruder relative mode
M104 S230 ; set extruder temp
M140 S85 ; set bed temp
M190 S85 ; wait for bed temp
M109 S230 ; wait for extruder temp
G28 W ; home all without mesh bed level
G80 ; mesh bed leveling
G1 Y-3.0 F1000.0 ; go outside print area
G92 E0.0
G1 X60.0 E9.0 F1000.0 ; intro line
G1 X100.0 E12.5 F1000.0 ; intro line
G92 E0.0
M221 S95

; Don't change E values below. Excessive value can damage the printer.

G21 ; set units to millimeters
G90 ; use absolute coordinates
M83 ; use relative distances for extrusion
M900 K0.08 ; Filament gcode LA 1.5
M900 K45 ; Filament gcode LA 1.0
;LAYER_CHANGE
;Z:0.2
;HEIGHT:0.2
;BEFORE_LAYER_CHANGE
G92 E0.0
;0.2


G1 E-1.40000 F2100.000
G1 Z0.200 F10800.000
;AFTER_LAYER_CHANGE
;0.2
G1 Z0.400
M73 Q0 S34
G1 X111.084 Y78.957
G1 Z0.200
G1 E1.40000 F2100.000
M204 S1000
;TYPE:Skirt
;WIDTH:0.42
G1 F1200.000
G1 X111.433 Y78.433 E0.01977
G1 X111.908 Y78.018 E0.01977
G1 X112.479 Y77.741 E0.01989
G1 X113.098 Y77.626 E0.01977
G1 X136.784 Y77.623 E0.74265
G1 X137.651 Y77.788 E0.02767
G1 X138.395 Y78.255 E0.02755
G1 X138.918 Y78.961 E0.02755
G1 X139.149 Y79.809 E0.02755
G1 X141.375 Y110.407 E0.96193
G1 X141.377 Y130.527 E0.63083
G1 X141.313 Y131.047 E0.01645
G1 X141.137 Y131.541 E0.01645
G1 X140.783 Y132.072 E0.02000
G1 X140.297 Y132.492 E0.02012
G1 X139.717 Y132.766 E0.02012
G1 X139.085 Y132.876 E0.02012
G1 X110.981 Y132.877 E0.88118
G1 X110.456 Y132.814 E0.01657
G1 X109.959 Y132.637 E0.01657
G1 X109.436 Y132.290 E0.01965
G1 X109.023 Y131.820 E0.01965
G1 X108.747 Y131.257 E0.01965
G1 X108.627 Y130.642 E0.01965
G1 X108.623 Y110.450 E0.63309
G1 X110.850 Y79.816 E0.96305
G1 X111.068 Y79.015 E0.02602
;WIPE_START
G1 F8640.000
G1 X111.433 Y78.433 E-0.15877
G1 X111.908 Y78.018 E-0.14557
G1 X112.479 Y77.741 E-0.14644
G1 X113.098 Y77.626 E-0.14557
G1 X116.276 Y77.626 E-0.73365
;WIPE_END
G1 E-0.07000 F2100.000
G1 Z0.400 F10800.000
G1 X109.232 Y99.472
G1 Z0.200
G1 E1.40000 F2100.000
G1 F1200.000
G1 X108.832 Y98.807 E0.02434
G1 X108.506 Y97.510 E0.04193
G1 X108.506 Y79.490 E0.56498
G1 X108.805 Y78.267 E0.03948
G1 X109.218 Y77.442 E0.02893
G1 X110.251 Y76.311 E0.04803
G1 X111.413 Y75.612 E0.04252
G1 X112.711 Y75.286 E0.04194
G1 X137.267 Y75.290 E0.76994
G1 X138.215 Y75.474 E0.03028
G1 X139.123 Y75.865 E0.03101
G1 X140.342 Y76.888 E0.04990
G1 X141.133 Y78.106 E0.04551
G1 X141.494 Y79.489 E0.04481
G1 X141.494 Y97.510 E0.56504
G1 X141.195 Y98.733 E0.03948
G1 X140.776 Y99.564 E0.02920
G1 X140.425 Y99.948 F10800.000
G1 F1200.000
G1 X139.749 Y100.689 E0.03146
G1 X138.587 Y101.388 E0.04252
G1 X137.290 Y101.713 E0.04193
G1 X112.710 Y101.713 E0.77067
M73 P1 R34
M73 Q1 S34
G1 X111.487 Y101.415 E0.03948
G1 X110.662 Y101.002 E0.02893
G1 X109.572 Y100.005 E0.04632
G1 X109.616 Y99.393 F10800.000
G1 F1200.000
G1 X109.807 Y99.710 E0.01158
G1 X110.857 Y100.678 E0.04478
G1 X111.600 Y101.055 E0.02611
G1 X112.734 Y101.336 E0.03664
G1 X137.266 Y101.336 E0.76919
G1 X138.466 Y101.030 E0.03885
G1 X139.490 Y100.413 E0.03747
G1 X140.388 Y99.438 E0.04157
G1 X140.723 Y98.841 F10800.000
G1 F1200.000
G1 X140.835 Y98.620 E0.00774
G1 X141.117 Y97.486 E0.03664
G1 X141.117 Y79.513 E0.56352
G1 X140.776 Y78.232 E0.04157
G1 X140.077 Y77.158 E0.04018
G1 X138.947 Y76.199 E0.04647
G1 X138.121 Y75.840 E0.02823
G1 X137.248 Y75.667 E0.02791
G1 X112.735 Y75.664 E0.76860
G1 X111.534 Y75.970 E0.03886
G1 X110.510 Y76.587 E0.03747
G1 X109.542 Y77.637 E0.04478
G1 X109.165 Y78.380 E0.02611
G1 X108.883 Y79.514 E0.03664
G1 X108.883 Y97.486 E0.56350
G1 X109.190 Y98.686 E0.03885
G1 X109.279 Y98.833 E0.00538
G1 X109.663 Y98.745 F10800.000
G1 F1200.000
G1 X110.084 Y99.453 E0.02583
G1 X111.053 Y100.355 E0.04151
G1 X111.714 Y100.695 E0.02330
G1 X112.758 Y100.959 E0.03376
G1 X137.242 Y100.959 E0.76771
G1 X138.298 Y100.691 E0.03414
G1 X139.233 Y100.136 E0.03411
G1 X140.135 Y99.167 E0.04151
G1 X140.340 Y98.769 E0.01403
G1 X140.649 Y97.820 F10800.000
G1 F1200.000
G1 X140.739 Y97.462 E0.01157
G1 X140.739 Y79.538 E0.56202
G1 X140.443 Y78.410 E0.03655
G1 X139.810 Y77.426 E0.03669
G1 X138.768 Y76.533 E0.04302
G1 X138.026 Y76.205 E0.02545
G1 X137.229 Y76.044 E0.02549
G1 X112.758 Y76.041 E0.76726
G1 X111.702 Y76.309 E0.03415
G1 X110.767 Y76.864 E0.03411
G1 X109.865 Y77.833 E0.04151
G1 X109.525 Y78.494 E0.02330
G1 X109.261 Y79.538 E0.03376
G1 X109.261 Y97.462 E0.56202
G1 X109.352 Y97.823 E0.01167
G1 X109.732 Y97.801 F10800.000
G1 F1200.000
G1 X109.887 Y98.397 E0.01930
G1 X110.362 Y99.197 E0.02918
G1 X111.252 Y100.033 E0.03829
G1 X111.830 Y100.335 E0.02048
G1 X112.782 Y100.582 E0.03083
G1 X137.218 Y100.582 E0.76617
G1 X138.177 Y100.333 E0.03106
G1 X138.977 Y99.858 E0.02918
G1 X139.813 Y98.968 E0.03829
G1 X140.116 Y98.389 E0.02048
G1 X140.269 Y97.798 E0.01916
;WIPE_START
G1 F8640.000
G1 X140.116 Y98.389 E-0.14114
G1 X139.813 Y98.968 E-0.15079
G1 X138.977 Y99.858 E-0.28197
G1 X138.177 Y100.333 E-0.21486
G1 X137.218 Y100.582 E-0.22874
G1 X135.865 Y100.582 E-0.31251
;WIPE_END
G1 E-0.07000 F2100.000
G1 Z0.400 F10800.000
G1 X140.362 Y93.884
G1 Z0.200
G1 E1.40000 F2100.000
G1 F1200.000
G1 X140.362 Y79.563 E0.44902
G1 X140.086 Y78.537 E0.03331
G1 X139.542 Y77.692 E0.03149
G1 X138.588 Y76.865 E0.03960
G1 X137.929 Y76.570 E0.02266
G1 X137.209 Y76.421 E0.02304
G1 X112.782 Y76.418 E0.76588
G1 X111.823 Y76.667 E0.03107
G1 X111.023 Y77.142 E0.02918
G1 X110.187 Y78.032 E0.03829
G1 X109.884 Y78.611 E0.02048
G1 X109.638 Y79.562 E0.03083
G1 X109.638 Y93.895 E0.44940
G1 X110.015 Y93.909 F10800.000
G1 F1200.000
G1 X110.015 Y97.413 E0.10986
G1 X110.244 Y98.274 E0.02795
G1 X110.641 Y98.942 E0.02435
G1 X111.452 Y99.713 E0.03510
G1 X111.949 Y99.977 E0.01765
G1 X112.807 Y100.205 E0.02783
G1 X137.193 Y100.205 E0.76460
G1 X138.054 Y99.976 E0.02795
G1 X138.722 Y99.579 E0.02435
G1 X139.493 Y98.768 E0.03510
G1 X139.757 Y98.271 E0.01765
G1 X139.985 Y97.413 E0.02783
G1 X139.985 Y93.897 E0.11022
;WIPE_START
G1 F8640.000
G1 X139.985 Y97.413 E-0.81168
G1 X139.757 Y98.271 E-0.20496
G1 X139.493 Y98.768 E-0.13001
G1 X138.946 Y99.343 E-0.18334
;WIPE_END
G1 E-0.07000 F2100.000
G1 Z0.400 F10800.000
G1 X139.985 Y88.700
G1 Z0.200
G1 E1.40000 F2100.000
G1 F1200.000
G1 X139.985 Y79.587 E0.28572
G1 X139.752 Y78.714 E0.02835
G1 X139.272 Y77.957 E0.02809
G1 X138.408 Y77.197 E0.03609
G1 X137.793 Y76.923 E0.02110
G1 X137.190 Y76.798 E0.01932
G1 X112.807 Y76.795 E0.76449
M73 P2 R34
M73 Q2 S34
G1 X111.946 Y77.024 E0.02795
G1 X111.278 Y77.421 E0.02435
G1 X110.507 Y78.232 E0.03510
G1 X110.243 Y78.729 E0.01765
G1 X110.015 Y79.587 E0.02783
G1 X110.015 Y88.707 E0.28594
G1 X110.392 Y88.721 F10800.000
G1 F1200.000
G1 X110.392 Y97.387 E0.27172
G1 X110.601 Y98.149 E0.02479
G1 X110.921 Y98.688 E0.01964
G1 X111.655 Y99.394 E0.03195
G1 X112.071 Y99.620 E0.01483
G1 X112.833 Y99.828 E0.02477
G1 X137.167 Y99.828 E0.76297
G1 X137.930 Y99.619 E0.02479
G1 X138.468 Y99.299 E0.01964
G1 X139.174 Y98.565 E0.03195
G1 X139.400 Y98.149 E0.01483
G1 X139.608 Y97.387 E0.02477
G1 X139.608 Y88.714 E0.27194
;WIPE_START
G1 F8640.000
G1 X139.608 Y94.474 E-1.33000
;WIPE_END
G1 E-0.07000 F2100.000
G1 Z0.400 F10800.000
G1 X139.608 Y83.516
G1 Z0.200
G1 E1.40000 F2100.000
G1 F1200.000
G1 X139.608 Y79.613 E0.12237
G1 X139.397 Y78.841 E0.02510
G1 X139.002 Y78.221 E0.02306
G1 X138.225 Y77.528 E0.03263
G1 X137.694 Y77.287 E0.01829
G1 X137.169 Y77.176 E0.01681
G1 X112.833 Y77.172 E0.76304
G1 X112.070 Y77.381 E0.02479
G1 X111.532 Y77.701 E0.01964
G1 X110.826 Y78.435 E0.03195
G1 X110.600 Y78.851 E0.01483
G1 X110.392 Y79.613 E0.02477
G1 X110.392 Y83.519 E0.12245
;WIPE_START
G1 F8640.000
G1 X110.392 Y79.613 E-0.90178
G1 X110.600 Y78.851 E-0.18241
G1 X110.826 Y78.435 E-0.10924
G1 X111.236 Y78.009 E-0.13657
;WIPE_END
G1 E-0.07000 F2100.000
G1 Z0.400 F10800.000
G1 X139.231 Y83.530
G1 Z0.200
G1 E1.40000 F2100.000
G1 F1200.000
G1 X139.231 Y97.360 E0.43363
G1 X139.043 Y98.024 E0.02162
G1 X138.858 Y98.359 E0.01202
G1 X138.216 Y99.018 E0.02886
G1 X137.803 Y99.264 E0.01507
G1 X137.140 Y99.451 E0.02159
G1 X112.860 Y99.451 E0.76129
G1 X112.196 Y99.263 E0.02162
G1 X111.861 Y99.077 E0.01202
G1 X111.202 Y98.436 E0.02886
G1 X110.956 Y98.022 E0.01507
G1 X110.769 Y97.360 E0.02159
G1 X110.769 Y83.532 E0.43355
;WIPE_START
G1 F8640.000
G1 X110.769 Y89.292 E-1.33000
;WIPE_END
G1 E-0.07000 F2100.000
G1 Z0.400 F10800.000
G1 X111.146 Y79.668
G1 Z0.200
G1 E1.40000 F2100.000
G1 F1200.000
G1 X111.311 Y79.106 E0.01838
G1 X111.457 Y78.851 E0.00921
G1 X112.035 Y78.264 E0.02583
G1 X112.327 Y78.091 E0.01065
G1 X112.888 Y77.926 E0.01833
G1 X137.126 Y77.930 E0.75996
G1 X137.485 Y78.013 E0.01157
G1 X137.851 Y78.185 E0.01268
G1 X138.456 Y78.743 E0.02580
G1 X138.688 Y79.105 E0.01347
G1 X138.854 Y79.668 E0.01841
G1 X138.854 Y97.332 E0.55384
G1 X138.689 Y97.894 E0.01838
G1 X138.543 Y98.149 E0.00921
G1 X137.965 Y98.736 E0.02583
G1 X137.673 Y98.909 E0.01065
G1 X137.112 Y99.074 E0.01833
G1 X112.888 Y99.074 E0.75953
G1 X112.326 Y98.909 E0.01838
G1 X112.071 Y98.763 E0.00921
G1 X111.484 Y98.185 E0.02583
G1 X111.311 Y97.893 E0.01065
G1 X111.146 Y97.332 E0.01833
G1 X111.146 Y79.728 E0.55196
G1 X111.523 Y79.698 F10800.000
G1 F1200.000
G1 X111.664 Y79.241 E0.01500
G1 X111.768 Y79.064 E0.00641
G1 X112.284 Y78.548 E0.02289
G1 X112.460 Y78.444 E0.00641
G1 X112.918 Y78.303 E0.01500
G1 X137.104 Y78.307 E0.75835
M73 P2 R33
G1 X137.342 Y78.362 E0.00767
G1 X137.662 Y78.513 E0.01109
G1 X138.181 Y79.001 E0.02233
G1 X138.336 Y79.242 E0.00898
G1 X138.477 Y79.698 E0.01495
G1 X138.477 Y97.302 E0.55198
G1 X138.336 Y97.759 E0.01500
G1 X138.232 Y97.936 E0.00641
G1 X137.716 Y98.452 E0.02289
G1 X137.540 Y98.556 E0.00641
G1 X137.082 Y98.697 E0.01500
G1 X112.918 Y98.697 E0.75768
G1 X112.460 Y98.556 E0.01500
G1 X112.284 Y98.452 E0.00641
G1 X111.768 Y97.936 E0.02289
G1 X111.664 Y97.759 E0.00641
G1 X111.523 Y97.302 E0.01500
G1 X111.523 Y79.758 E0.55010
G1 X112.014 Y79.383 F10800.000
G1 F1200.000
G1 X112.076 Y79.283 E0.00369
G1 X112.503 Y78.856 E0.01893
G1 X112.603 Y78.794 E0.00369
G1 X112.949 Y78.680 E0.01144
G1 X137.082 Y78.684 E0.75666
M73 P3 R33
M73 Q3 S34
G1 X137.199 Y78.711 E0.00377
G1 X137.472 Y78.840 E0.00947
G1 X137.903 Y79.257 E0.01880
G1 X137.987 Y79.385 E0.00479
G1 X138.100 Y79.729 E0.01136
G1 X138.100 Y97.271 E0.55000
G1 X137.986 Y97.617 E0.01144
G1 X137.924 Y97.717 E0.00369
G1 X137.497 Y98.144 E0.01893
G1 X137.397 Y98.206 E0.00369
G1 X137.051 Y98.320 E0.01144
G1 X112.949 Y98.320 E0.75569
G1 X112.603 Y98.206 E0.01144
G1 X112.503 Y98.144 E0.00369
G1 X112.076 Y97.717 E0.01893
G1 X112.014 Y97.617 E0.00369
G1 X111.900 Y97.271 E0.01144
G1 X111.900 Y79.729 E0.55000
G1 X111.995 Y79.440 E0.00955
G1 X112.359 Y79.537 F10800.000
G1 F1200.000
G1 X112.730 Y79.157 E0.01666
G1 X112.984 Y79.057 E0.00856
G1 X137.030 Y79.057 E0.75393
M73 Q3 S33
G1 X137.280 Y79.167 E0.00856
G1 X137.623 Y79.510 E0.01522
G1 X137.723 Y79.764 E0.00856
G1 X137.723 Y97.236 E0.54780
G1 X137.623 Y97.490 E0.00856
G1 X137.270 Y97.843 E0.01566
G1 X137.016 Y97.943 E0.00856
G1 X112.984 Y97.943 E0.75349
G1 X112.730 Y97.843 E0.00856
G1 X112.377 Y97.490 E0.01566
G1 X112.277 Y97.236 E0.00856
G1 X112.277 Y79.764 E0.54780
G1 X112.338 Y79.594 E0.00569
G1 X112.683 Y79.737 F10800.000
G1 F1200.000
G1 X112.957 Y79.463 E0.01215
G1 X113.026 Y79.434 E0.00235
G1 X136.974 Y79.434 E0.75086
G1 X137.043 Y79.463 E0.00235
G1 X137.317 Y79.737 E0.01215
G1 X137.346 Y79.806 E0.00235
G1 X137.346 Y97.194 E0.54517
G1 X137.317 Y97.263 E0.00235
G1 X137.043 Y97.537 E0.01215
G1 X136.974 Y97.566 E0.00235
G1 X113.026 Y97.566 E0.75086
G1 X112.957 Y97.537 E0.00235
G1 X112.683 Y97.263 E0.01215
G1 X112.654 Y97.194 E0.00235
G1 X112.660 Y79.792 E0.54560
G1 X113.031 Y79.922 F10800.000
G1 F1200.000
G1 X113.142 Y79.811 E0.00490
G1 X136.858 Y79.811 E0.74361
G1 X136.969 Y79.922 E0.00490
G1 X136.969 Y97.078 E0.53792
G1 X136.858 Y97.189 E0.00490
G1 X113.142 Y97.189 E0.74361
G1 X113.031 Y97.078 E0.00490
G1 X113.031 Y79.982 E0.53604
;WIPE_START
G1 F8640.000
G1 X113.142 Y79.811 E-0.04690
G1 X118.699 Y79.811 E-1.28310
;WIPE_END
G1 E-0.07000 F2100.000
G1 Z0.400 F10800.000
G1 X139.486 Y105.790
G1 Z0.200
G1 E1.40000 F2100.000
G1 F1200.000
G1 X140.435 Y105.974 E0.03028
G1 X140.878 Y106.165 E0.01512
G1 X141.268 Y106.333 F10800.000
G1 F1200.000
G1 X141.343 Y106.365 E0.00257
G1 X142.562 Y107.388 E0.04990
G1 X143.353 Y108.606 E0.04551
G1 X143.713 Y109.989 E0.04481
G1 X143.713 Y131.010 E0.65910
G1 X143.415 Y132.233 E0.03948
G1 X143.002 Y133.058 E0.02893
G1 X141.969 Y134.189 E0.04803
G1 X140.807 Y134.888 E0.04252
G1 X139.510 Y135.213 E0.04193
G1 X110.490 Y135.213 E0.90988
G1 X109.267 Y134.915 E0.03948
G1 X108.442 Y134.502 E0.02893
G1 X107.311 Y133.469 E0.04803
G1 X106.612 Y132.307 E0.04252
M73 Q4 S33
G1 X106.287 Y131.010 E0.04193
G1 X106.287 Y109.990 E0.65905
M73 P4 R33
G1 X106.585 Y108.767 E0.03948
G1 X106.998 Y107.942 E0.02893
G1 X108.031 Y106.811 E0.04803
G1 X108.729 Y106.391 E0.02554
G1 X109.125 Y106.153 F10800.000
G1 F1200.000
G1 X109.193 Y106.112 E0.00251
G1 X110.491 Y105.786 E0.04194
G1 X139.486 Y105.790 E0.90914
;WIPE_START
G1 F8640.000
G1 X133.726 Y105.789 E-1.33000
;WIPE_END
G1 E-0.07000 F2100.000
G1 Z0.400 F10800.000
G1 X140.908 Y106.587
G1 Z0.200
G1 E1.40000 F2100.000
G1 F1200.000
G1 X140.341 Y106.340 E0.01940
G1 X139.468 Y106.167 E0.02791
G1 X110.515 Y106.164 E0.90780
G1 X109.314 Y106.470 E0.03886
G1 X109.092 Y106.604 E0.00812
G1 X108.697 Y106.842 F10800.000
G1 F1200.000
G1 X108.290 Y107.087 E0.01488
G1 X107.322 Y108.137 E0.04478
G1 X106.945 Y108.880 E0.02611
G1 X106.664 Y110.014 E0.03664
G1 X106.664 Y130.986 E0.65756
G1 X106.970 Y132.186 E0.03885
G1 X107.587 Y133.210 E0.03747
G1 X108.637 Y134.178 E0.04478
G1 X109.380 Y134.555 E0.02611
G1 X110.514 Y134.836 E0.03664
G1 X139.486 Y134.836 E0.90839
G1 X140.686 Y134.530 E0.03885
G1 X141.710 Y133.913 E0.03747
G1 X142.678 Y132.863 E0.04478
G1 X143.055 Y132.120 E0.02611
G1 X143.336 Y130.986 E0.03664
G1 X143.336 Y110.013 E0.65759
G1 X142.996 Y108.732 E0.04157
G1 X142.297 Y107.658 E0.04018
G1 X141.303 Y106.815 E0.04086
G1 X140.939 Y107.011 F10800.000
G1 F1200.000
G1 X140.246 Y106.705 E0.02377
G1 X139.448 Y106.544 E0.02550
G1 X110.538 Y106.541 E0.90647
G1 X109.482 Y106.809 E0.03415
G1 X109.059 Y107.060 E0.01544
G1 X108.664 Y107.295 F10800.000
G1 F1200.000
G1 X108.547 Y107.364 E0.00425
G1 X107.645 Y108.333 E0.04151
G1 X107.305 Y108.994 E0.02330
G1 X107.041 Y110.038 E0.03376
G1 X107.041 Y130.962 E0.65608
G1 X107.309 Y132.018 E0.03414
G1 X107.864 Y132.953 E0.03411
G1 X108.833 Y133.855 E0.04151
G1 X109.494 Y134.195 E0.02330
G1 X110.538 Y134.459 E0.03376
G1 X139.462 Y134.459 E0.90691
G1 X140.518 Y134.191 E0.03414
G1 X141.453 Y133.636 E0.03411
G1 X142.355 Y132.667 E0.04151
G1 X142.695 Y132.006 E0.02330
G1 X142.959 Y130.962 E0.03376
G1 X142.959 Y110.038 E0.65608
G1 X142.663 Y108.910 E0.03655
G1 X142.030 Y107.926 E0.03669
G1 X141.341 Y107.335 E0.02846
G1 X140.975 Y107.510 F10800.000
G1 F1200.000
G1 X140.808 Y107.365 E0.00695
G1 X140.148 Y107.070 E0.02266
G1 X139.429 Y106.921 E0.02304
G1 X110.562 Y106.918 E0.90509
G1 X109.603 Y107.167 E0.03107
G1 X109.026 Y107.509 E0.02105
G1 X108.625 Y107.832 F10800.000
G1 F1200.000
G1 X107.967 Y108.532 E0.03011
G1 X107.665 Y109.111 E0.02048
G1 X107.418 Y110.062 E0.03083
G1 X107.418 Y130.938 E0.65454
G1 X107.667 Y131.897 E0.03106
G1 X108.142 Y132.697 E0.02918
G1 X109.032 Y133.533 E0.03829
