; generated by PrusaSlicer 2.3.0+win64 on 2021-05-03 at 18:36:53 UTC

; 

; external perimeters extrusion width = 0.45mm
; perimeters extrusion width = 0.45mm
; infill extrusion width = 0.45mm
; solid infill extrusion width = 0.45mm
; top infill extrusion width = 0.40mm
; first layer extrusion width = 0.42mm

M73 P0 R21
M73 Q0 S21
M201 X1000 Y1000 Z200 E5000 ; sets maximum accelerations, mm/sec^2
M203 X200 Y200 Z12 E120 ; sets maximum feedrates, mm/sec
M204 P1250 R1250 T1250 ; sets acceleration (P, T) and retract acceleration (R), mm/sec^2
M205 X8.00 Y8.00 Z0.40 E4.50 ; sets the jerk limits, mm/sec
M205 S0 T0 ; sets the minimum extruding and travel feed rate, mm/sec
M107
;TYPE:Custom
M862.3 P "MK3S" ; printer model check
M862.1 P0.4 ; nozzle diameter check
M115 U3.9.2 ; tell printer latest fw version
G90 ; use absolute coordinates
M83 ; extruder relative mode
M104 S230 ; set extruder temp
M140 S85 ; set bed temp
M190 S85 ; wait for bed temp
M109 S230 ; wait for extruder temp
G28 W ; home all without mesh bed level
G80 ; mesh bed leveling
G1 Y-3.0 F1000.0 ; go outside print area
G92 E0.0
G1 X60.0 E9.0 F1000.0 ; intro line
G1 X100.0 E12.5 F1000.0 ; intro line
G92 E0.0
M221 S95

; Don't change E values below. Excessive value can damage the printer.

G21 ; set units to millimeters
G90 ; use absolute coordinates
M83 ; use relative distances for extrusion
M900 K0.08 ; Filament gcode LA 1.5
M900 K45 ; Filament gcode LA 1.0
;LAYER_CHANGE
;Z:0.2
;HEIGHT:0.2
;BEFORE_LAYER_CHANGE
G92 E0.0
;0.2


G1 E-1.40000 F2100.000
G1 Z0.200 F10800.000
;AFTER_LAYER_CHANGE
;0.2
G1 Z0.400
G1 X112.427 Y93.442
G1 Z0.200
G1 E1.40000 F2100.000
M204 S1000
;TYPE:Skirt
;WIDTH:0.42
G1 F1200.000
G1 X113.370 Y93.247 E0.03018
G1 X136.556 Y93.246 E0.72698
G1 X137.557 Y93.436 E0.03195
G1 X138.421 Y93.977 E0.03195
G1 X139.028 Y94.795 E0.03195
G1 X139.297 Y95.778 E0.03195
G1 X139.303 Y114.123 E0.57519
G1 X139.224 Y114.666 E0.01720
G1 X139.041 Y115.178 E0.01707
G1 X138.758 Y115.648 E0.01720
G1 X138.391 Y116.050 E0.01707
G1 X137.573 Y116.558 E0.03018
G1 X136.630 Y116.753 E0.03018
G1 X113.428 Y116.754 E0.72749
G1 X112.858 Y116.690 E0.01796
G1 X112.315 Y116.510 E0.01796
G1 X111.820 Y116.221 E0.01796
G1 X111.398 Y115.839 E0.01784
G1 X110.894 Y115.029 E0.02993
G1 X110.696 Y114.099 E0.02980
G1 X110.694 Y95.975 E0.56826
G1 X110.759 Y95.406 E0.01796
G1 X110.938 Y94.866 E0.01784
G1 X111.227 Y94.371 E0.01796
G1 X111.609 Y93.950 E0.01784
G1 X112.376 Y93.474 E0.02830
G1 X112.571 Y93.793 F10800.000
G1 F1200.000
G1 X113.390 Y93.624 E0.02622
G1 X136.555 Y93.623 E0.72633
M73 P1 R21
M73 Q1 S21
G1 X137.426 Y93.789 E0.02778
G1 X138.175 Y94.263 E0.02778
G1 X138.696 Y94.975 E0.02767
G1 X138.923 Y95.831 E0.02778
G1 X138.927 Y114.095 E0.57265
G1 X138.698 Y115.021 E0.02989
G1 X138.125 Y115.782 E0.02989
G1 X137.420 Y116.213 E0.02590
G1 X136.610 Y116.376 E0.02590
G1 X113.429 Y116.377 E0.72681
G1 X112.934 Y116.321 E0.01562
G1 X112.462 Y116.163 E0.01562
G1 X112.033 Y115.910 E0.01562
G1 X111.666 Y115.573 E0.01562
G1 X111.238 Y114.875 E0.02567
G1 X111.072 Y114.073 E0.02567
G1 X111.071 Y95.977 E0.56740
G1 X111.128 Y95.482 E0.01562
G1 X111.287 Y95.010 E0.01562
G1 X111.539 Y94.585 E0.01550
G1 X111.875 Y94.218 E0.01562
G1 X112.520 Y93.824 E0.02368
;WIPE_START
G1 F8640.000
G1 X113.390 Y93.624 E-0.20622
G1 X118.257 Y93.623 E-1.12378
;WIPE_END
G1 E-0.07000 F2100.000
G1 Z0.400 F10800.000
G1 X109.608 Y93.540
G1 Z0.200
G1 E1.40000 F2100.000
G1 F1200.000
G1 X110.064 Y92.949 E0.02340
G1 X110.668 Y92.345 E0.02678
G1 X111.852 Y91.618 E0.04355
G1 X113.169 Y91.286 E0.04258
G1 X136.808 Y91.290 E0.74120
G1 X137.756 Y91.474 E0.03028
G1 X138.665 Y91.865 E0.03101
G1 X139.883 Y92.888 E0.04990
G1 X140.674 Y94.106 E0.04551
G1 X141.035 Y95.489 E0.04481
G1 X141.035 Y114.547 E0.59755
G1 X140.392 Y116.460 E0.06330
G1 X139.936 Y117.051 E0.02340
G1 X139.332 Y117.655 E0.02678
G1 X138.148 Y118.382 E0.04355
G1 X136.832 Y118.713 E0.04257
G1 X113.132 Y118.713 E0.74309
G1 X111.218 Y118.071 E0.06330
G1 X110.627 Y117.615 E0.02340
G1 X110.023 Y117.011 E0.02678
G1 X109.297 Y115.827 E0.04355
G1 X108.965 Y114.510 E0.04257
G1 X108.965 Y95.453 E0.59750
G1 X109.589 Y93.596 E0.06142
G1 X109.926 Y93.744 F10800.000
G1 F1200.000
G1 X110.339 Y93.206 E0.02127
G1 X110.919 Y92.627 E0.02571
G1 X111.974 Y91.976 E0.03885
G1 X113.193 Y91.664 E0.03946
G1 X136.789 Y91.667 E0.73985
G1 X137.663 Y91.840 E0.02791
G1 X138.488 Y92.199 E0.02823
G1 X139.618 Y93.158 E0.04647
G1 X140.318 Y94.232 E0.04018
G1 X140.658 Y95.513 E0.04157
G1 X140.658 Y114.516 E0.59581
M73 P2 R21
M73 Q2 S21
G1 X140.074 Y116.256 E0.05754
G1 X139.661 Y116.794 E0.02127
G1 X139.081 Y117.373 E0.02571
G1 X138.026 Y118.024 E0.03885
G1 X136.807 Y118.336 E0.03946
G1 X113.162 Y118.336 E0.74138
G1 X111.423 Y117.752 E0.05754
G1 X110.885 Y117.339 E0.02127
G1 X110.305 Y116.759 E0.02571
G1 X109.655 Y115.705 E0.03885
G1 X109.342 Y114.486 E0.03946
G1 X109.342 Y95.484 E0.59579
G1 X109.907 Y93.801 E0.05566
G1 X110.244 Y93.948 F10800.000
G1 F1200.000
G1 X110.615 Y93.464 E0.01912
G1 X111.170 Y92.909 E0.02460
G1 X112.146 Y92.313 E0.03586
G1 X113.216 Y92.041 E0.03464
G1 X136.770 Y92.044 E0.73852
G1 X137.567 Y92.205 E0.02549
G1 X138.310 Y92.533 E0.02545
G1 X139.351 Y93.426 E0.04302
G1 X139.984 Y94.410 E0.03669
G1 X140.281 Y95.538 E0.03655
G1 X140.281 Y114.485 E0.59410
G1 X139.756 Y116.052 E0.05179
G1 X139.385 Y116.536 E0.01912
G1 X138.830 Y117.091 E0.02460
G1 X137.854 Y117.687 E0.03586
G1 X136.784 Y117.959 E0.03463
G1 X113.193 Y117.959 E0.73969
G1 X111.627 Y117.434 E0.05179
G1 X111.142 Y117.063 E0.01912
G1 X110.588 Y116.509 E0.02460
G1 X109.991 Y115.533 E0.03586
G1 X109.719 Y114.462 E0.03463
G1 X109.719 Y95.515 E0.59410
G1 X110.225 Y94.005 E0.04991
G1 X110.563 Y94.152 F10800.000
G1 F1200.000
G1 X110.891 Y93.722 E0.01695
G1 X111.421 Y93.191 E0.02350
G1 X112.268 Y92.671 E0.03119
G1 X113.241 Y92.418 E0.03150
G1 X136.750 Y92.421 E0.73713
G1 X137.470 Y92.570 E0.02304
G1 X138.130 Y92.865 E0.02266
G1 X139.084 Y93.692 E0.03960
G1 X139.628 Y94.537 E0.03149
G1 X139.904 Y95.563 E0.03331
G1 X139.904 Y114.455 E0.59235
G1 X139.437 Y115.848 E0.04607
G1 X139.109 Y116.278 E0.01695
G1 X138.579 Y116.808 E0.02350
G1 X137.732 Y117.329 E0.03119
G1 X136.760 Y117.582 E0.03149
G1 X113.223 Y117.582 E0.73796
G1 X111.830 Y117.115 E0.04607
G1 X111.400 Y116.788 E0.01695
G1 X110.870 Y116.258 E0.02350
G1 X110.349 Y115.410 E0.03119
G1 X110.096 Y114.438 E0.03149
M73 Q3 S21
G1 X110.096 Y95.545 E0.59237
M73 P3 R21
G1 X110.544 Y94.209 E0.04419
G1 X110.883 Y94.355 F10800.000
G1 F1200.000
G1 X111.167 Y93.979 E0.01477
G1 X111.672 Y93.473 E0.02241
G1 X112.393 Y93.027 E0.02658
G1 X113.266 Y92.795 E0.02832
G1 X136.731 Y92.798 E0.73575
G1 X137.335 Y92.923 E0.01932
G1 X137.949 Y93.197 E0.02110
G1 X138.814 Y93.957 E0.03609
G1 X139.294 Y94.714 E0.02809
G1 X139.527 Y95.587 E0.02835
G1 X139.527 Y114.424 E0.59062
G1 X139.117 Y115.645 E0.04038
G1 X138.833 Y116.021 E0.01477
G1 X138.328 Y116.527 E0.02241
G1 X137.607 Y116.973 E0.02658
G1 X136.734 Y117.205 E0.02831
G1 X113.254 Y117.205 E0.73621
G1 X112.033 Y116.796 E0.04038
G1 X111.657 Y116.512 E0.01477
G1 X111.152 Y116.006 E0.02241
G1 X110.706 Y115.285 E0.02658
G1 X110.473 Y114.413 E0.02831
G1 X110.473 Y95.576 E0.59062
G1 X110.864 Y94.411 E0.03850
;WIPE_START
G1 F8640.000
G1 X111.167 Y93.979 E-0.12199
G1 X111.672 Y93.473 E-0.16504
G1 X112.393 Y93.027 E-0.19572
G1 X113.266 Y92.795 E-0.20856
G1 X116.032 Y92.795 E-0.63869
;WIPE_END
G1 E-0.07000 F2100.000
G1 Z0.400 F10800.000
G1 X111.604 Y95.668
G1 Z0.200
G1 E1.40000 F2100.000
G1 F1200.000
G1 X111.844 Y94.956 E0.02354
G1 X111.997 Y94.748 E0.00808
G1 X112.428 Y94.317 E0.01911
G1 X112.783 Y94.092 E0.01318
G1 X113.347 Y93.926 E0.01842
G1 X136.667 Y93.930 E0.73121
G1 X137.027 Y94.013 E0.01157
G1 X137.393 Y94.185 E0.01268
G1 X137.998 Y94.743 E0.02580
G1 X138.230 Y95.105 E0.01347
G1 X138.396 Y95.668 E0.01841
G1 X138.396 Y114.332 E0.58520
G1 X138.156 Y115.044 E0.02354
G1 X138.003 Y115.252 E0.00808
G1 X137.572 Y115.683 E0.01911
G1 X137.217 Y115.908 E0.01318
G1 X136.654 Y116.074 E0.01842
G1 X113.346 Y116.074 E0.73079
M73 P3 R20
G1 X112.635 Y115.834 E0.02354
G1 X112.427 Y115.681 E0.00808
G1 X111.996 Y115.250 E0.01911
G1 X111.770 Y114.896 E0.01318
G1 X111.604 Y114.332 E0.01842
G1 X111.604 Y95.728 E0.58332
G1 X112.167 Y95.154 F10800.000
G1 F1200.000
G1 X112.275 Y95.004 E0.00579
G1 X112.681 Y94.598 E0.01800
G1 X112.920 Y94.444 E0.00892
G1 X113.376 Y94.303 E0.01496
G1 X136.646 Y94.307 E0.72960
M73 Q3 S20
G1 X136.884 Y94.362 E0.00767
G1 X137.204 Y94.513 E0.01109
G1 X137.722 Y95.001 E0.02233
G1 X137.878 Y95.242 E0.00898
G1 X138.019 Y95.698 E0.01495
G1 X138.019 Y114.301 E0.58330
M73 P4 R20
M73 Q4 S20
G1 X137.833 Y114.846 E0.01806
G1 X137.725 Y114.996 E0.00579
G1 X137.319 Y115.402 E0.01800
G1 X137.080 Y115.556 E0.00892
G1 X136.624 Y115.697 E0.01496
G1 X113.377 Y115.697 E0.72889
G1 X112.832 Y115.512 E0.01806
G1 X112.682 Y115.404 E0.00579
G1 X112.276 Y114.998 E0.01800
G1 X112.122 Y114.758 E0.00892
G1 X111.981 Y114.302 E0.01496
G1 X111.981 Y95.699 E0.58330
G1 X112.147 Y95.210 E0.01618
G1 X112.491 Y95.348 F10800.000
G1 F1200.000
G1 X112.554 Y95.258 E0.00345
G1 X112.934 Y94.878 E0.01686
G1 X113.063 Y94.793 E0.00484
G1 X113.408 Y94.680 E0.01136
G1 X136.623 Y94.684 E0.72792
G1 X136.740 Y94.711 E0.00377
G1 X137.014 Y94.840 E0.00947
G1 X137.445 Y95.257 E0.01880
G1 X137.528 Y95.385 E0.00479
G1 X137.641 Y95.729 E0.01136
G1 X137.641 Y114.269 E0.58131
G1 X137.509 Y114.652 E0.01270
G1 X137.446 Y114.742 E0.00345
G1 X137.066 Y115.122 E0.01686
G1 X136.937 Y115.207 E0.00484
G1 X136.592 Y115.320 E0.01136
G1 X113.409 Y115.320 E0.72689
G1 X113.026 Y115.188 E0.01270
G1 X112.936 Y115.125 E0.00345
G1 X112.556 Y114.744 E0.01686
G1 X112.472 Y114.615 E0.00484
G1 X112.359 Y114.271 E0.01136
G1 X112.359 Y95.731 E0.58131
G1 X112.471 Y95.405 E0.01081
G1 X112.817 Y95.537 F10800.000
G1 F1200.000
G1 X113.188 Y95.157 E0.01666
G1 X113.443 Y95.057 E0.00856
G1 X136.571 Y95.057 E0.72518
G1 X136.822 Y95.167 E0.00856
G1 X137.165 Y95.510 E0.01522
G1 X137.264 Y95.764 E0.00856
G1 X137.264 Y114.236 E0.57915
G1 X137.165 Y114.490 E0.00856
G1 X136.812 Y114.843 E0.01566
G1 X136.557 Y114.943 E0.00856
G1 X113.443 Y114.943 E0.72474
G1 X113.188 Y114.843 E0.00856
G1 X112.835 Y114.490 E0.01566
G1 X112.736 Y114.236 E0.00856
G1 X112.736 Y95.764 E0.57915
G1 X112.797 Y95.594 E0.00569
G1 X113.141 Y95.737 F10800.000
G1 F1200.000
G1 X113.415 Y95.463 E0.01215
G1 X113.485 Y95.434 E0.00235
G1 X136.515 Y95.434 E0.72211
M73 P5 R20
M73 Q5 S20
G1 X136.585 Y95.463 E0.00235
G1 X136.859 Y95.737 E0.01215
G1 X136.887 Y95.806 E0.00235
G1 X136.887 Y114.194 E0.57652
G1 X136.859 Y114.263 E0.00235
G1 X136.585 Y114.537 E0.01215
G1 X136.515 Y114.566 E0.00235
G1 X113.485 Y114.566 E0.72211
G1 X113.415 Y114.537 E0.00235
G1 X113.141 Y114.263 E0.01215
G1 X113.113 Y114.194 E0.00235
G1 X113.118 Y95.792 E0.57696
G1 X113.490 Y95.922 F10800.000
G1 F1200.000
G1 X113.600 Y95.811 E0.00490
G1 X136.400 Y95.811 E0.71486
G1 X136.510 Y95.922 E0.00490
G1 X136.510 Y114.078 E0.56927
G1 X136.400 Y114.189 E0.00490
G1 X113.600 Y114.189 E0.71486
G1 X113.490 Y114.078 E0.00490
G1 X113.490 Y95.982 E0.56739
; printing object spst-switch-0.0.3-b.stl id:0 copy 0
G1 X114.088 Y96.410 F10800.000
;TYPE:External perimeter
G1 F1200.000
G1 X135.912 Y96.410 E0.68425
G1 X135.912 Y113.590 E0.53867
G1 X114.088 Y113.590 E0.68425
G1 X114.088 Y96.470 E0.53679
G1 X114.479 Y96.498 F10800.000
G1 X114.465 Y96.787
;TYPE:Perimeter
G1 F1200.000
G1 X135.535 Y96.787 E0.66061
M73 Q6 S20
G1 X135.535 Y113.213 E0.51502
M73 P6 R20
G1 X114.465 Y113.213 E0.66061
G1 X114.465 Y96.847 E0.51314
;WIPE_START
G1 F8640.000
G1 X120.225 Y96.831 E-1.33000
;WIPE_END
G1 E-0.07000 F2100.000
G1 Z0.400 F10800.000
G1 X134.652 Y96.900
G1 Z0.200
G1 E1.40000 F2100.000
;TYPE:Solid infill
;WIDTH:0.423301
G1 F1200.000
G1 X135.252 Y97.500 E0.02682
G1 X135.252 Y98.038 E0.01701
G1 X134.284 Y97.070 E0.04329
G1 X133.746 Y97.070 E0.01701
G1 X135.252 Y98.576 E0.06735
G1 X135.252 Y99.114 E0.01701
G1 X133.208 Y97.070 E0.09142
G1 X132.670 Y97.070 E0.01701
G1 X135.252 Y99.652 E0.11548
G1 X135.252 Y100.189 E0.01701
G1 X132.132 Y97.070 E0.13954
G1 X131.594 Y97.070 E0.01701
G1 X135.252 Y100.727 E0.16360
G1 X135.252 Y101.265 E0.01701
G1 X131.056 Y97.070 E0.18766
G1 X130.518 Y97.070 E0.01701
G1 X135.252 Y101.803 E0.21173
G1 X135.252 Y102.341 E0.01701
G1 X129.980 Y97.070 E0.23579
G1 X129.442 Y97.070 E0.01701
G1 X135.252 Y102.879 E0.25985
G1 X135.252 Y103.417 E0.01701
G1 X128.905 Y97.070 E0.28391
G1 X128.367 Y97.070 E0.01701
G1 X135.252 Y103.955 E0.30797
G1 X135.252 Y104.493 E0.01701
G1 X127.829 Y97.070 E0.33204
G1 X127.291 Y97.070 E0.01701
G1 X135.252 Y105.031 E0.35610
G1 X135.252 Y105.569 E0.01701
G1 X126.753 Y97.070 E0.38016
G1 X126.215 Y97.070 E0.01701
G1 X135.252 Y106.107 E0.40422
G1 X135.252 Y106.645 E0.01701
G1 X125.677 Y97.070 E0.42828
G1 X125.139 Y97.070 E0.01701
G1 X135.252 Y107.183 E0.45235
G1 X135.252 Y107.721 E0.01701
G1 X124.601 Y97.070 E0.47641
G1 X124.063 Y97.070 E0.01701
G1 X135.252 Y108.259 E0.50047
G1 X135.252 Y108.797 E0.01701
G1 X123.525 Y97.070 E0.52453
M73 P7 R20
M73 Q7 S20
G1 X122.987 Y97.070 E0.01701
G1 X135.252 Y109.334 E0.54859
G1 X135.252 Y109.872 E0.01701
G1 X122.449 Y97.070 E0.57266
G1 X121.911 Y97.070 E0.01701
G1 X135.252 Y110.410 E0.59672
G1 X135.252 Y110.948 E0.01701
G1 X121.373 Y97.070 E0.62078
G1 X120.835 Y97.070 E0.01701
G1 X135.252 Y111.486 E0.64484
G1 X135.252 Y112.024 E0.01701
G1 X120.297 Y97.070 E0.66890
G1 X119.760 Y97.070 E0.01701
G1 X135.252 Y112.562 E0.69297
G1 X135.252 Y112.930 E0.01164
G1 X135.082 Y112.930 E0.00537
G1 X119.222 Y97.070 E0.70943
G1 X118.684 Y97.070 E0.01701
G1 X134.544 Y112.930 E0.70943
G1 X134.006 Y112.930 E0.01701
G1 X118.146 Y97.070 E0.70943
G1 X117.608 Y97.070 E0.01701
G1 X133.468 Y112.930 E0.70943
G1 X132.930 Y112.930 E0.01701
G1 X117.070 Y97.070 E0.70943
M73 P8 R20
M73 Q8 S20
G1 X116.532 Y97.070 E0.01701
G1 X132.392 Y112.930 E0.70943
G1 X131.854 Y112.930 E0.01701
G1 X115.994 Y97.070 E0.70943
G1 X115.456 Y97.070 E0.01701
G1 X131.316 Y112.930 E0.70943
G1 X130.778 Y112.930 E0.01701
G1 X114.918 Y97.070 E0.70943
M73 P8 R19
G1 X114.748 Y97.070 E0.00537
G1 X114.748 Y97.438 E0.01164
G1 X130.240 Y112.930 E0.69296
G1 X129.702 Y112.930 E0.01701
G1 X114.748 Y97.976 E0.66890
G1 X114.748 Y98.514 E0.01701
G1 X129.165 Y112.930 E0.64484
M73 Q8 S19
G1 X128.627 Y112.930 E0.01701
G1 X114.748 Y99.052 E0.62078
G1 X114.748 Y99.590 E0.01701
G1 X128.089 Y112.930 E0.59671
G1 X127.551 Y112.930 E0.01701
G1 X114.748 Y100.128 E0.57265
G1 X114.748 Y100.666 E0.01701
G1 X127.013 Y112.930 E0.54859
G1 X126.475 Y112.930 E0.01701
G1 X114.748 Y101.204 E0.52453
M73 P9 R19
M73 Q9 S19
G1 X114.748 Y101.741 E0.01701
G1 X125.937 Y112.930 E0.50047
G1 X125.399 Y112.930 E0.01701
G1 X114.748 Y102.279 E0.47640
G1 X114.748 Y102.817 E0.01701
G1 X124.861 Y112.930 E0.45234
G1 X124.323 Y112.930 E0.01701
G1 X114.748 Y103.355 E0.42828
G1 X114.748 Y103.893 E0.01701
G1 X123.785 Y112.930 E0.40422
G1 X123.247 Y112.930 E0.01701
G1 X114.748 Y104.431 E0.38016
G1 X114.748 Y104.969 E0.01701
G1 X122.709 Y112.930 E0.35609
G1 X122.171 Y112.930 E0.01701
G1 X114.748 Y105.507 E0.33203
G1 X114.748 Y106.045 E0.01701
G1 X121.633 Y112.930 E0.30797
G1 X121.095 Y112.930 E0.01701
G1 X114.748 Y106.583 E0.28391
G1 X114.748 Y107.121 E0.01701
G1 X120.557 Y112.930 E0.25985
G1 X120.020 Y112.930 E0.01701
G1 X114.748 Y107.659 E0.23578
G1 X114.748 Y108.197 E0.01701
G1 X119.482 Y112.930 E0.21172
G1 X118.944 Y112.930 E0.01701
G1 X114.748 Y108.735 E0.18766
G1 X114.748 Y109.273 E0.01701
G1 X118.406 Y112.930 E0.16360
G1 X117.868 Y112.930 E0.01701
G1 X114.748 Y109.811 E0.13954
G1 X114.748 Y110.349 E0.01701
G1 X117.330 Y112.930 E0.11547
G1 X116.792 Y112.930 E0.01701
G1 X114.748 Y110.886 E0.09141
G1 X114.748 Y111.424 E0.01701
G1 X116.254 Y112.930 E0.06735
G1 X115.716 Y112.930 E0.01701
G1 X114.748 Y111.962 E0.04329
G1 X114.748 Y112.500 E0.01701
G1 X115.348 Y113.100 E0.02682
; stop printing object spst-switch-0.0.3-b.stl id:0 copy 0
;LAYER_CHANGE
;Z:0.35
;HEIGHT:0.15
;BEFORE_LAYER_CHANGE
G92 E0.0
;0.35


;WIPE_START
G1 F8640.000
G1 X114.748 Y112.500 E-0.19577
