; generated by PrusaSlicer 2.3.0+win64 on 2021-05-02 at 12:31:47 UTC

; 

; external perimeters extrusion width = 0.45mm
; perimeters extrusion width = 0.45mm
; infill extrusion width = 0.45mm
; solid infill extrusion width = 0.45mm
; top infill extrusion width = 0.40mm
; first layer extrusion width = 0.42mm

M73 P0 R15
M73 Q0 S15
M201 X1000 Y1000 Z200 E5000 ; sets maximum accelerations, mm/sec^2
M203 X200 Y200 Z12 E120 ; sets maximum feedrates, mm/sec
M204 P1250 R1250 T1250 ; sets acceleration (P, T) and retract acceleration (R), mm/sec^2
M205 X8.00 Y8.00 Z0.40 E4.50 ; sets the jerk limits, mm/sec
M205 S0 T0 ; sets the minimum extruding and travel feed rate, mm/sec
M107
;TYPE:Custom
M862.3 P "MK3S" ; printer model check
M862.1 P0.4 ; nozzle diameter check
M115 U3.9.2 ; tell printer latest fw version
G90 ; use absolute coordinates
M83 ; extruder relative mode
M104 S230 ; set extruder temp
M140 S85 ; set bed temp
M190 S85 ; wait for bed temp
M109 S230 ; wait for extruder temp
G28 W ; home all without mesh bed level
G80 ; mesh bed leveling
G1 Y-3.0 F1000.0 ; go outside print area
G92 E0.0
G1 X60.0 E9.0 F1000.0 ; intro line
G1 X100.0 E12.5 F1000.0 ; intro line
G92 E0.0
M221 S95

; Don't change E values below. Excessive value can damage the printer.

G21 ; set units to millimeters
G90 ; use absolute coordinates
M83 ; use relative distances for extrusion
M900 K0.08 ; Filament gcode LA 1.5
M900 K45 ; Filament gcode LA 1.0
;LAYER_CHANGE
;Z:0.2
;HEIGHT:0.2
;BEFORE_LAYER_CHANGE
G92 E0.0
;0.2


G1 E-1.40000 F2100.000
G1 Z0.200 F10800.000
;AFTER_LAYER_CHANGE
;0.2
G1 Z0.400
G1 X112.245 Y93.924
G1 Z0.200
G1 E1.40000 F2100.000
M204 S1000
;TYPE:Skirt
;WIDTH:0.42
G1 F1200.000
G1 X113.149 Y93.747 E0.02892
G1 X136.784 Y93.746 E0.74105
G1 X137.785 Y93.936 E0.03195
G1 X138.649 Y94.477 E0.03195
G1 X139.257 Y95.295 E0.03195
G1 X139.525 Y96.278 E0.03195
G1 X139.531 Y113.639 E0.54435
M73 P1 R15
M73 Q1 S15
G1 X139.444 Y114.198 E0.01771
G1 X139.246 Y114.726 E0.01771
G1 X138.942 Y115.207 E0.01784
G1 X138.548 Y115.612 E0.01771
G1 X137.755 Y116.076 E0.02879
G1 X136.851 Y116.253 E0.02892
G1 X113.183 Y116.254 E0.74208
G1 X112.594 Y116.182 E0.01860
G1 X112.038 Y115.988 E0.01848
G1 X111.532 Y115.677 E0.01860
G1 X111.108 Y115.268 E0.01848
G1 X110.649 Y114.487 E0.02841
G1 X110.467 Y113.595 E0.02854
G1 X110.466 Y96.455 E0.53742
G1 X110.539 Y95.870 E0.01848
G1 X110.734 Y95.314 E0.01848
G1 X111.043 Y94.813 E0.01848
G1 X111.452 Y94.388 E0.01848
G1 X112.193 Y93.955 E0.02691
G1 X112.379 Y94.280 F10800.000
G1 F1200.000
G1 X113.169 Y94.123 E0.02525
G1 X136.784 Y94.123 E0.74042
G1 X137.654 Y94.289 E0.02778
G1 X138.403 Y94.763 E0.02778
G1 X138.925 Y95.475 E0.02767
G1 X139.151 Y96.331 E0.02778
G1 X139.155 Y113.607 E0.54165
G1 X139.080 Y114.099 E0.01562
G1 X138.905 Y114.565 E0.01562
G1 X138.639 Y114.982 E0.01550
G1 X138.289 Y115.337 E0.01562
G1 X137.605 Y115.729 E0.02473
G1 X136.831 Y115.877 E0.02473
G1 X113.189 Y115.877 E0.74126
G1 X112.676 Y115.814 E0.01621
G1 X112.192 Y115.643 E0.01609
G1 X111.753 Y115.371 E0.01621
G1 X111.383 Y115.009 E0.01621
G1 X110.995 Y114.336 E0.02437
G1 X110.844 Y113.570 E0.02449
G1 X110.843 Y96.462 E0.53640
G1 X110.908 Y95.949 E0.01621
G1 X111.080 Y95.465 E0.01609
G1 X111.352 Y95.030 E0.01609
G1 X111.711 Y94.663 E0.01609
G1 X112.327 Y94.309 E0.02229
;WIPE_START
G1 F8640.000
G1 X113.169 Y94.123 E-0.19912
G1 X118.067 Y94.123 E-1.13088
;WIPE_END
G1 E-0.07000 F2100.000
G1 Z0.400 F10800.000
G1 X111.413 Y92.112
G1 Z0.200
G1 E1.40000 F2100.000
G1 F1200.000
G1 X112.711 Y91.786 E0.04194
G1 X137.267 Y91.790 E0.76994
M73 P2 R15
M73 Q2 S15
G1 X138.215 Y91.974 E0.03028
G1 X139.123 Y92.365 E0.03101
G1 X140.342 Y93.388 E0.04990
G1 X141.133 Y94.606 E0.04551
G1 X141.494 Y95.989 E0.04481
G1 X141.494 Y114.010 E0.56504
G1 X141.195 Y115.233 E0.03948
G1 X140.782 Y116.058 E0.02893
G1 X139.749 Y117.189 E0.04803
G1 X138.587 Y117.888 E0.04252
G1 X137.290 Y118.213 E0.04193
G1 X112.710 Y118.213 E0.77067
G1 X111.487 Y117.915 E0.03948
G1 X110.662 Y117.502 E0.02893
G1 X109.531 Y116.469 E0.04803
G1 X108.832 Y115.307 E0.04252
G1 X108.506 Y114.010 E0.04193
G1 X108.506 Y95.990 E0.56498
G1 X108.805 Y94.767 E0.03948
G1 X109.218 Y93.942 E0.02893
G1 X110.251 Y92.811 E0.04803
G1 X111.362 Y92.143 E0.04064
G1 X111.534 Y92.470 F10800.000
G1 F1200.000
G1 X112.735 Y92.164 E0.03886
G1 X137.248 Y92.167 E0.76860
G1 X138.121 Y92.340 E0.02791
G1 X138.947 Y92.699 E0.02823
G1 X140.077 Y93.658 E0.04647
G1 X140.776 Y94.732 E0.04018
G1 X141.117 Y96.013 E0.04157
G1 X141.117 Y113.986 E0.56352
G1 X140.835 Y115.120 E0.03664
G1 X140.458 Y115.863 E0.02611
G1 X139.490 Y116.913 E0.04478
G1 X138.466 Y117.530 E0.03747
G1 X137.266 Y117.836 E0.03885
G1 X112.734 Y117.836 E0.76919
M73 P3 R15
M73 Q3 S15
G1 X111.600 Y117.555 E0.03664
G1 X110.857 Y117.178 E0.02611
G1 X109.807 Y116.210 E0.04478
G1 X109.190 Y115.186 E0.03747
G1 X108.883 Y113.986 E0.03885
G1 X108.883 Y96.014 E0.56350
G1 X109.165 Y94.880 E0.03664
G1 X109.542 Y94.137 E0.02611
G1 X110.510 Y93.087 E0.04478
G1 X111.482 Y92.501 E0.03559
G1 X111.675 Y92.825 F10800.000
G1 F1200.000
G1 X112.758 Y92.541 E0.03511
G1 X137.229 Y92.544 E0.76726
M73 P3 R14
G1 X138.026 Y92.705 E0.02549
G1 X138.768 Y93.033 E0.02545
G1 X139.810 Y93.926 E0.04302
G1 X140.443 Y94.910 E0.03669
G1 X140.739 Y96.038 E0.03655
G1 X140.739 Y113.962 E0.56202
M73 Q3 S14
G1 X140.475 Y115.006 E0.03376
G1 X140.135 Y115.667 E0.02330
G1 X139.233 Y116.636 E0.04151
G1 X138.298 Y117.191 E0.03411
G1 X137.242 Y117.459 E0.03414
G1 X112.758 Y117.459 E0.76771
G1 X111.714 Y117.195 E0.03376
G1 X111.053 Y116.855 E0.02330
G1 X110.084 Y115.953 E0.04151
G1 X109.528 Y115.018 E0.03411
G1 X109.261 Y113.962 E0.03414
G1 X109.261 Y96.038 E0.56202
G1 X109.525 Y94.994 E0.03376
G1 X109.865 Y94.333 E0.02330
G1 X110.767 Y93.364 E0.04151
G1 X111.623 Y92.856 E0.03122
G1 X111.812 Y93.173 F10800.000
G1 F1200.000
G1 X112.782 Y92.918 E0.03147
G1 X137.209 Y92.921 E0.76588
G1 X137.929 Y93.070 E0.02304
G1 X138.588 Y93.365 E0.02266
G1 X139.542 Y94.192 E0.03960
G1 X140.086 Y95.037 E0.03149
G1 X140.362 Y96.063 E0.03331
G1 X140.362 Y113.938 E0.56046
M73 P4 R14
M73 Q4 S14
G1 X140.116 Y114.889 E0.03083
G1 X139.813 Y115.468 E0.02048
G1 X138.977 Y116.358 E0.03829
G1 X138.177 Y116.833 E0.02918
G1 X137.218 Y117.082 E0.03106
G1 X112.782 Y117.082 E0.76617
G1 X111.830 Y116.835 E0.03083
G1 X111.252 Y116.533 E0.02048
G1 X110.362 Y115.697 E0.03829
G1 X109.887 Y114.897 E0.02918
G1 X109.638 Y113.938 E0.03106
G1 X109.638 Y96.062 E0.56048
G1 X109.884 Y95.111 E0.03083
G1 X110.187 Y94.532 E0.02048
G1 X111.023 Y93.642 E0.03829
G1 X111.760 Y93.204 E0.02688
G1 X111.946 Y93.524 F10800.000
G1 F1200.000
G1 X112.807 Y93.295 E0.02795
G1 X137.190 Y93.298 E0.76449
G1 X137.793 Y93.423 E0.01932
G1 X138.408 Y93.697 E0.02110
G1 X139.272 Y94.457 E0.03609
G1 X139.752 Y95.214 E0.02809
G1 X139.985 Y96.087 E0.02835
G1 X139.985 Y113.913 E0.55891
G1 X139.757 Y114.771 E0.02783
G1 X139.493 Y115.268 E0.01765
G1 X138.722 Y116.079 E0.03510
G1 X138.054 Y116.476 E0.02435
G1 X137.193 Y116.705 E0.02795
G1 X112.807 Y116.705 E0.76460
G1 X111.949 Y116.477 E0.02783
G1 X111.452 Y116.213 E0.01765
G1 X110.641 Y115.442 E0.03510
G1 X110.244 Y114.774 E0.02435
G1 X110.015 Y113.913 E0.02795
G1 X110.015 Y96.087 E0.55890
G1 X110.243 Y95.229 E0.02783
G1 X110.507 Y94.732 E0.01765
G1 X111.278 Y93.921 E0.03510
G1 X111.894 Y93.555 E0.02247
;WIPE_START
G1 F8640.000
G1 X112.807 Y93.295 E-0.21921
G1 X117.618 Y93.296 E-1.11079
;WIPE_END
G1 E-0.07000 F2100.000
G1 Z0.400 F10800.000
G1 X112.888 Y94.426
G1 Z0.200
G1 E1.40000 F2100.000
G1 F1200.000
G1 X137.126 Y94.430 E0.75996
M73 P5 R14
M73 Q5 S14
G1 X137.485 Y94.513 E0.01157
G1 X137.851 Y94.685 E0.01268
G1 X138.456 Y95.243 E0.02580
G1 X138.688 Y95.605 E0.01347
G1 X138.854 Y96.168 E0.01841
G1 X138.854 Y113.832 E0.55384
G1 X138.689 Y114.394 E0.01838
G1 X138.543 Y114.649 E0.00921
G1 X137.965 Y115.236 E0.02583
G1 X137.673 Y115.409 E0.01065
G1 X137.112 Y115.574 E0.01833
G1 X112.888 Y115.574 E0.75953
G1 X112.326 Y115.409 E0.01838
G1 X112.071 Y115.263 E0.00921
G1 X111.484 Y114.685 E0.02583
G1 X111.311 Y114.393 E0.01065
G1 X111.146 Y113.832 E0.01833
G1 X111.146 Y96.168 E0.55384
G1 X111.311 Y95.606 E0.01838
G1 X111.457 Y95.351 E0.00921
G1 X112.035 Y94.764 E0.02583
G1 X112.327 Y94.591 E0.01065
G1 X112.830 Y94.443 E0.01645
G1 X112.918 Y94.803 F10800.000
G1 F1200.000
G1 X137.104 Y94.807 E0.75835
G1 X137.342 Y94.862 E0.00767
G1 X137.662 Y95.013 E0.01109
G1 X138.181 Y95.501 E0.02233
G1 X138.336 Y95.742 E0.00898
G1 X138.477 Y96.198 E0.01495
G1 X138.477 Y113.802 E0.55198
G1 X138.336 Y114.259 E0.01500
G1 X138.232 Y114.436 E0.00641
G1 X137.716 Y114.952 E0.02289
G1 X137.540 Y115.056 E0.00641
G1 X137.082 Y115.197 E0.01500
G1 X112.918 Y115.197 E0.75768
G1 X112.460 Y115.056 E0.01500
G1 X112.284 Y114.952 E0.00641
G1 X111.768 Y114.436 E0.02289
G1 X111.664 Y114.259 E0.00641
G1 X111.523 Y113.802 E0.01500
G1 X111.523 Y96.198 E0.55198
M73 Q6 S14
G1 X111.664 Y95.741 E0.01500
G1 X111.768 Y95.564 E0.00641
G1 X112.284 Y95.048 E0.02289
G1 X112.460 Y94.944 E0.00641
G1 X112.860 Y94.821 E0.01312
G1 X112.603 Y95.294 F10800.000
G1 F1200.000
G1 X112.949 Y95.180 E0.01144
G1 X137.082 Y95.184 E0.75666
M73 P6 R14
G1 X137.199 Y95.211 E0.00377
G1 X137.472 Y95.340 E0.00947
G1 X137.903 Y95.757 E0.01880
G1 X137.987 Y95.885 E0.00479
G1 X138.100 Y96.229 E0.01136
G1 X138.100 Y113.771 E0.55000
G1 X137.986 Y114.117 E0.01144
G1 X137.924 Y114.217 E0.00369
G1 X137.497 Y114.644 E0.01893
G1 X137.397 Y114.706 E0.00369
G1 X137.051 Y114.820 E0.01144
G1 X112.949 Y114.820 E0.75569
G1 X112.603 Y114.706 E0.01144
G1 X112.503 Y114.644 E0.00369
G1 X112.076 Y114.217 E0.01893
G1 X112.014 Y114.117 E0.00369
G1 X111.900 Y113.771 E0.01144
G1 X111.900 Y96.229 E0.55000
G1 X112.014 Y95.883 E0.01144
G1 X112.076 Y95.783 E0.00369
G1 X112.552 Y95.326 E0.02069
G1 X112.757 Y95.639 F10800.000
G1 F1200.000
G1 X112.984 Y95.557 E0.00757
G1 X137.030 Y95.557 E0.75393
G1 X137.280 Y95.667 E0.00856
G1 X137.623 Y96.010 E0.01522
G1 X137.723 Y96.264 E0.00856
G1 X137.723 Y113.736 E0.54780
G1 X137.623 Y113.990 E0.00856
G1 X137.270 Y114.343 E0.01566
G1 X137.016 Y114.443 E0.00856
G1 X112.984 Y114.443 E0.75349
G1 X112.730 Y114.343 E0.00856
G1 X112.377 Y113.990 E0.01566
G1 X112.277 Y113.736 E0.00856
G1 X112.277 Y96.264 E0.54780
M73 Q7 S14
G1 X112.377 Y96.010 E0.00856
G1 X112.710 Y95.676 E0.01480
G1 X112.957 Y95.963 F10800.000
G1 F1200.000
G1 X113.026 Y95.934 E0.00235
G1 X136.974 Y95.934 E0.75086
M73 P7 R14
G1 X137.043 Y95.963 E0.00235
G1 X137.317 Y96.237 E0.01215
G1 X137.346 Y96.306 E0.00235
G1 X137.346 Y113.694 E0.54517
G1 X137.317 Y113.763 E0.00235
G1 X137.043 Y114.037 E0.01215
G1 X136.974 Y114.066 E0.00235
G1 X113.026 Y114.066 E0.75086
G1 X112.957 Y114.037 E0.00235
G1 X112.683 Y113.763 E0.01215
G1 X112.654 Y113.694 E0.00235
G1 X112.654 Y96.306 E0.54517
G1 X112.683 Y96.237 E0.00235
G1 X112.914 Y96.006 E0.01027
G1 X113.142 Y96.311 F10800.000
G1 F1200.000
G1 X136.858 Y96.311 E0.74361
G1 X136.969 Y96.422 E0.00490
G1 X136.969 Y113.578 E0.53792
G1 X136.858 Y113.689 E0.00490
G1 X113.142 Y113.689 E0.74361
G1 X113.031 Y113.578 E0.00490
G1 X113.031 Y96.422 E0.53792
G1 X113.099 Y96.354 E0.00302
; printing object spst-switch-0.0.2-b.stl id:0 copy 0
G1 X113.630 Y96.910 F10800.000
;TYPE:External perimeter
G1 F1200.000
G1 X136.370 Y96.910 E0.71300
M73 P8 R14
M73 Q8 S14
G1 X136.370 Y113.090 E0.50731
G1 X113.630 Y113.090 E0.71300
G1 X113.630 Y96.970 E0.50543
G1 X114.021 Y96.992 F10800.000
G1 X114.007 Y97.287
;TYPE:Perimeter
G1 F1200.000
G1 X135.993 Y97.287 E0.68936
G1 X135.993 Y112.713 E0.48367
G1 X114.007 Y112.713 E0.68936
G1 X114.007 Y97.347 E0.48179
;WIPE_START
G1 F8640.000
G1 X119.767 Y97.331 E-1.33000
;WIPE_END
G1 E-0.07000 F2100.000
G1 Z0.400 F10800.000
G1 X135.880 Y98.168
G1 Z0.200
G1 E1.40000 F2100.000
;TYPE:Solid infill
;WIDTH:0.42245
G1 F1200.000
G1 X135.282 Y97.570 E0.02668
G1 X134.745 Y97.570 E0.01694
G1 X135.710 Y98.535 E0.04306
G1 X135.710 Y99.071 E0.01694
G1 X134.209 Y97.570 E0.06701
G1 X133.672 Y97.570 E0.01694
G1 X135.710 Y99.608 E0.09097
G1 X135.710 Y100.145 E0.01694
G1 X133.135 Y97.570 E0.11492
G1 X132.598 Y97.570 E0.01694
G1 X135.710 Y100.682 E0.13888
G1 X135.710 Y101.218 E0.01694
G1 X132.062 Y97.570 E0.16283
M73 Q9 S14
G1 X131.525 Y97.570 E0.01694
G1 X135.710 Y101.755 E0.18679
M73 P9 R14
G1 X135.710 Y102.292 E0.01694
G1 X130.988 Y97.570 E0.21074
G1 X130.452 Y97.570 E0.01694
G1 X135.710 Y102.829 E0.23470
G1 X135.710 Y103.365 E0.01694
G1 X129.915 Y97.570 E0.25865
G1 X129.378 Y97.570 E0.01694
G1 X135.710 Y103.902 E0.28260
G1 X135.710 Y104.439 E0.01694
G1 X128.841 Y97.570 E0.30656
G1 X128.305 Y97.570 E0.01694
G1 X135.710 Y104.976 E0.33051
G1 X135.710 Y105.512 E0.01694
G1 X127.768 Y97.570 E0.35447
G1 X127.231 Y97.570 E0.01694
G1 X135.710 Y106.049 E0.37842
G1 X135.710 Y106.586 E0.01694
G1 X126.694 Y97.570 E0.40238
G1 X126.158 Y97.570 E0.01694
G1 X135.710 Y107.122 E0.42633
G1 X135.710 Y107.659 E0.01694
G1 X125.621 Y97.570 E0.45029
G1 X125.084 Y97.570 E0.01694
G1 X135.710 Y108.196 E0.47424
G1 X135.710 Y108.733 E0.01694
G1 X124.547 Y97.570 E0.49820
G1 X124.011 Y97.570 E0.01694
G1 X135.710 Y109.269 E0.52215
M73 P9 R13
M73 Q10 S14
G1 X135.710 Y109.806 E0.01694
G1 X123.474 Y97.570 E0.54610
M73 P10 R13
M73 Q10 S13
G1 X122.937 Y97.570 E0.01694
G1 X135.710 Y110.343 E0.57006
G1 X135.710 Y110.880 E0.01694
G1 X122.400 Y97.570 E0.59401
G1 X121.864 Y97.570 E0.01694
G1 X135.710 Y111.416 E0.61797
G1 X135.710 Y111.953 E0.01694
G1 X121.327 Y97.570 E0.64192
G1 X120.790 Y97.570 E0.01694
G1 X135.650 Y112.430 E0.66321
G1 X135.114 Y112.430 E0.01694
G1 X120.254 Y97.570 E0.66321
G1 X119.717 Y97.570 E0.01694
G1 X134.577 Y112.430 E0.66321
G1 X134.040 Y112.430 E0.01694
G1 X119.180 Y97.570 E0.66321
M73 P11 R13
M73 Q11 S13
G1 X118.643 Y97.570 E0.01694
G1 X133.504 Y112.430 E0.66321
G1 X132.967 Y112.430 E0.01694
G1 X118.107 Y97.570 E0.66321
G1 X117.570 Y97.570 E0.01694
G1 X132.430 Y112.430 E0.66321
G1 X131.893 Y112.430 E0.01694
G1 X117.033 Y97.570 E0.66321
G1 X116.496 Y97.570 E0.01694
G1 X131.357 Y112.430 E0.66321
G1 X130.820 Y112.430 E0.01694
G1 X115.960 Y97.570 E0.66321
G1 X115.423 Y97.570 E0.01694
G1 X130.283 Y112.430 E0.66321
G1 X129.746 Y112.430 E0.01694
G1 X114.886 Y97.570 E0.66321
G1 X114.349 Y97.570 E0.01694
M73 Q12 S13
G1 X129.210 Y112.430 E0.66321
M73 P12 R13
G1 X128.673 Y112.430 E0.01694
G1 X114.290 Y98.047 E0.64192
G1 X114.290 Y98.584 E0.01694
G1 X128.136 Y112.430 E0.61796
G1 X127.599 Y112.430 E0.01694
G1 X114.290 Y99.120 E0.59401
G1 X114.290 Y99.657 E0.01694
G1 X127.063 Y112.430 E0.57005
G1 X126.526 Y112.430 E0.01694
G1 X114.290 Y100.194 E0.54610
G1 X114.290 Y100.731 E0.01694
G1 X125.989 Y112.430 E0.52215
G1 X125.452 Y112.430 E0.01694
G1 X114.290 Y101.267 E0.49819
G1 X114.290 Y101.804 E0.01694
G1 X124.916 Y112.430 E0.47424
G1 X124.379 Y112.430 E0.01694
G1 X114.290 Y102.341 E0.45028
M73 P13 R13
M73 Q13 S13
G1 X114.290 Y102.878 E0.01694
G1 X123.842 Y112.430 E0.42633
G1 X123.306 Y112.430 E0.01694
G1 X114.290 Y103.414 E0.40237
G1 X114.290 Y103.951 E0.01694
G1 X122.769 Y112.430 E0.37842
G1 X122.232 Y112.430 E0.01694
G1 X114.290 Y104.488 E0.35446
G1 X114.290 Y105.025 E0.01694
G1 X121.695 Y112.430 E0.33051
G1 X121.159 Y112.430 E0.01694
G1 X114.290 Y105.561 E0.30656
G1 X114.290 Y106.098 E0.01694
G1 X120.622 Y112.430 E0.28260
G1 X120.085 Y112.430 E0.01694
G1 X114.290 Y106.635 E0.25865
G1 X114.290 Y107.171 E0.01694
G1 X119.548 Y112.430 E0.23469
G1 X119.012 Y112.430 E0.01694
G1 X114.290 Y107.708 E0.21074
G1 X114.290 Y108.245 E0.01694
G1 X118.475 Y112.430 E0.18678
G1 X117.938 Y112.430 E0.01694
G1 X114.290 Y108.782 E0.16283
G1 X114.290 Y109.318 E0.01694
G1 X117.401 Y112.430 E0.13887
G1 X116.865 Y112.430 E0.01694
G1 X114.290 Y109.855 E0.11492
G1 X114.290 Y110.392 E0.01694
G1 X116.328 Y112.430 E0.09097
G1 X115.791 Y112.430 E0.01694
G1 X114.290 Y110.929 E0.06701
G1 X114.290 Y111.465 E0.01694
G1 X115.255 Y112.430 E0.04306
G1 X114.718 Y112.430 E0.01694
G1 X114.120 Y111.832 E0.02667
; stop printing object spst-switch-0.0.2-b.stl id:0 copy 0
;LAYER_CHANGE
;Z:0.35
;HEIGHT:0.15
;BEFORE_LAYER_CHANGE
G92 E0.0
;0.35


;WIPE_START
G1 F8640.000
