; generated by PrusaSlicer 2.3.0+win64 on 2021-05-04 at 17:18:49 UTC

; 

; external perimeters extrusion width = 0.45mm
; perimeters extrusion width = 0.45mm
; infill extrusion width = 0.45mm
; solid infill extrusion width = 0.45mm
; top infill extrusion width = 0.40mm
; first layer extrusion width = 0.42mm

M73 P0 R15
M73 Q0 S15
M201 X1000 Y1000 Z200 E5000 ; sets maximum accelerations, mm/sec^2
M203 X200 Y200 Z12 E120 ; sets maximum feedrates, mm/sec
M204 P1250 R1250 T1250 ; sets acceleration (P, T) and retract acceleration (R), mm/sec^2
M205 X8.00 Y8.00 Z0.40 E4.50 ; sets the jerk limits, mm/sec
M205 S0 T0 ; sets the minimum extruding and travel feed rate, mm/sec
M107
;TYPE:Custom
M862.3 P "MK3S" ; printer model check
M862.1 P0.4 ; nozzle diameter check
M115 U3.9.2 ; tell printer latest fw version
G90 ; use absolute coordinates
M83 ; extruder relative mode
M104 S230 ; set extruder temp
M140 S85 ; set bed temp
M190 S85 ; wait for bed temp
M109 S230 ; wait for extruder temp
G28 W ; home all without mesh bed level
G80 ; mesh bed leveling
G1 Y-3.0 F1000.0 ; go outside print area
G92 E0.0
G1 X60.0 E9.0 F1000.0 ; intro line
G1 X100.0 E12.5 F1000.0 ; intro line
G92 E0.0
M221 S95

; Don't change E values below. Excessive value can damage the printer.

G21 ; set units to millimeters
G90 ; use absolute coordinates
M83 ; use relative distances for extrusion
M900 K0.08 ; Filament gcode LA 1.5
M900 K45 ; Filament gcode LA 1.0
;LAYER_CHANGE
;Z:0.2
;HEIGHT:0.2
;BEFORE_LAYER_CHANGE
G92 E0.0
;0.2


G1 E-1.40000 F2100.000
G1 Z0.200 F10800.000
;AFTER_LAYER_CHANGE
;0.2
G1 Z0.400
G1 X110.052 Y92.414
G1 Z0.200
G1 E1.40000 F2100.000
M204 S1000
;TYPE:Skirt
;WIDTH:0.42
G1 F1200.000
G1 X110.942 Y92.246 E0.02841
G1 X139.004 Y92.246 E0.87987
G1 X140.013 Y92.439 E0.03221
G1 X140.881 Y92.988 E0.03221
G1 X141.487 Y93.817 E0.03221
G1 X141.748 Y94.811 E0.03221
G1 X141.751 Y115.123 E0.63687
M73 P1 R15
M73 Q1 S15
G1 X141.664 Y115.698 E0.01822
G1 X141.459 Y116.241 E0.01822
G1 X141.146 Y116.726 E0.01809
G1 X140.736 Y117.138 E0.01822
G1 X139.948 Y117.586 E0.02841
G1 X139.058 Y117.754 E0.02841
G1 X110.963 Y117.754 E0.88090
G1 X110.366 Y117.680 E0.01886
G1 X109.799 Y117.479 E0.01886
G1 X109.290 Y117.159 E0.01886
G1 X108.862 Y116.736 E0.01886
G1 X108.419 Y115.960 E0.02803
G1 X108.247 Y115.079 E0.02816
G1 X108.246 Y94.955 E0.63096
G1 X108.321 Y94.362 E0.01873
G1 X108.523 Y93.796 E0.01886
G1 X108.844 Y93.287 E0.01886
G1 X109.264 Y92.862 E0.01873
G1 X109.999 Y92.444 E0.02653
G1 X110.182 Y92.771 F10800.000
G1 F1200.000
G1 X110.957 Y92.623 E0.02474
G1 X139.004 Y92.623 E0.87939
G1 X139.878 Y92.791 E0.02790
G1 X140.631 Y93.271 E0.02802
G1 X141.153 Y93.992 E0.02790
G1 X141.373 Y94.854 E0.02790
G1 X141.375 Y115.095 E0.63464
G1 X141.300 Y115.599 E0.01597
G1 X141.122 Y116.072 E0.01585
G1 X140.844 Y116.500 E0.01597
G1 X140.483 Y116.858 E0.01597
G1 X139.804 Y117.237 E0.02437
G1 X139.043 Y117.377 E0.02426
G1 X110.973 Y117.377 E0.88010
G1 X110.453 Y117.313 E0.01645
G1 X109.959 Y117.137 E0.01645
G1 X109.512 Y116.854 E0.01657
G1 X109.142 Y116.483 E0.01645
G1 X108.767 Y115.815 E0.02402
G1 X108.624 Y115.058 E0.02414
G1 X108.623 Y94.962 E0.63011
M73 Q2 S15
G1 X108.689 Y94.445 E0.01633
G1 X108.867 Y93.952 E0.01645
G1 X109.148 Y93.509 E0.01645
G1 X109.517 Y93.142 E0.01633
G1 X110.130 Y92.800 E0.02198
;WIPE_START
G1 F8640.000
G1 X110.957 Y92.623 E-0.19539
G1 X115.871 Y92.623 E-1.13461
;WIPE_END
M73 P2 R15
G1 E-0.07000 F2100.000
G1 Z0.400 F10800.000
G1 X109.193 Y90.612
G1 Z0.200
G1 E1.40000 F2100.000
G1 F1200.000
G1 X110.491 Y90.286 E0.04194
G1 X139.486 Y90.290 E0.90914
G1 X140.435 Y90.474 E0.03028
G1 X141.343 Y90.865 E0.03101
G1 X142.562 Y91.888 E0.04990
G1 X143.353 Y93.106 E0.04551
G1 X143.713 Y94.489 E0.04481
G1 X143.713 Y115.510 E0.65910
G1 X143.415 Y116.733 E0.03948
G1 X143.002 Y117.558 E0.02893
G1 X141.969 Y118.689 E0.04803
G1 X140.807 Y119.388 E0.04252
G1 X139.510 Y119.713 E0.04193
G1 X110.490 Y119.713 E0.90988
G1 X109.267 Y119.415 E0.03948
G1 X108.442 Y119.002 E0.02893
G1 X107.311 Y117.969 E0.04803
G1 X106.612 Y116.807 E0.04252
G1 X106.287 Y115.510 E0.04193
G1 X106.287 Y94.490 E0.65905
G1 X106.585 Y93.267 E0.03948
G1 X106.998 Y92.442 E0.02893
G1 X108.031 Y91.311 E0.04803
G1 X109.142 Y90.643 E0.04064
G1 X109.314 Y90.970 F10800.000
G1 F1200.000
G1 X110.515 Y90.664 E0.03886
G1 X139.468 Y90.667 E0.90780
G1 X140.341 Y90.840 E0.02791
G1 X141.166 Y91.199 E0.02823
G1 X142.297 Y92.158 E0.04647
G1 X142.996 Y93.232 E0.04018
G1 X143.336 Y94.513 E0.04157
G1 X143.336 Y115.486 E0.65759
M73 P3 R15
M73 Q3 S15
G1 X143.055 Y116.620 E0.03664
G1 X142.678 Y117.363 E0.02611
G1 X141.710 Y118.413 E0.04478
G1 X140.686 Y119.030 E0.03747
G1 X139.486 Y119.336 E0.03885
G1 X110.514 Y119.336 E0.90839
G1 X109.380 Y119.055 E0.03664
G1 X108.637 Y118.678 E0.02611
G1 X107.587 Y117.710 E0.04478
G1 X106.970 Y116.686 E0.03747
G1 X106.664 Y115.486 E0.03885
G1 X106.664 Y94.514 E0.65756
G1 X106.945 Y93.380 E0.03664
G1 X107.322 Y92.637 E0.02611
G1 X108.290 Y91.587 E0.04478
G1 X109.262 Y91.001 E0.03559
G1 X109.455 Y91.325 F10800.000
G1 F1200.000
G1 X110.538 Y91.041 E0.03511
G1 X139.448 Y91.044 E0.90647
G1 X140.246 Y91.205 E0.02550
G1 X140.988 Y91.533 E0.02545
G1 X142.030 Y92.426 E0.04302
G1 X142.663 Y93.410 E0.03669
G1 X142.959 Y94.538 E0.03655
G1 X142.959 Y115.462 E0.65608
G1 X142.695 Y116.506 E0.03376
G1 X142.355 Y117.167 E0.02330
G1 X141.453 Y118.136 E0.04151
G1 X140.518 Y118.691 E0.03411
G1 X139.462 Y118.959 E0.03414
G1 X110.538 Y118.959 E0.90691
G1 X109.494 Y118.695 E0.03376
G1 X108.833 Y118.355 E0.02330
G1 X107.864 Y117.453 E0.04151
G1 X107.309 Y116.518 E0.03411
G1 X107.041 Y115.462 E0.03414
G1 X107.041 Y94.538 E0.65608
M73 P4 R15
M73 Q4 S15
G1 X107.305 Y93.494 E0.03376
G1 X107.645 Y92.833 E0.02330
G1 X108.547 Y91.864 E0.04151
G1 X109.403 Y91.356 E0.03122
G1 X109.592 Y91.673 F10800.000
G1 F1200.000
G1 X110.562 Y91.418 E0.03147
G1 X139.429 Y91.421 E0.90509
G1 X140.148 Y91.570 E0.02304
G1 X140.808 Y91.865 E0.02266
G1 X141.762 Y92.692 E0.03960
G1 X142.306 Y93.537 E0.03149
G1 X142.582 Y94.563 E0.03331
G1 X142.582 Y115.438 E0.65452
G1 X142.335 Y116.389 E0.03083
G1 X142.033 Y116.968 E0.02048
G1 X141.197 Y117.858 E0.03829
G1 X140.397 Y118.333 E0.02918
G1 X139.438 Y118.582 E0.03106
G1 X110.562 Y118.582 E0.90538
G1 X109.611 Y118.335 E0.03083
G1 X109.032 Y118.033 E0.02048
G1 X108.142 Y117.197 E0.03829
G1 X107.667 Y116.397 E0.02918
G1 X107.418 Y115.438 E0.03106
G1 X107.418 Y94.562 E0.65454
G1 X107.665 Y93.611 E0.03083
G1 X107.967 Y93.032 E0.02048
G1 X108.803 Y92.142 E0.03829
G1 X109.540 Y91.704 E0.02688
G1 X109.726 Y92.024 F10800.000
G1 F1200.000
G1 X110.587 Y91.795 E0.02795
G1 X139.410 Y91.798 E0.90370
G1 X140.013 Y91.923 E0.01932
G1 X140.628 Y92.197 E0.02110
G1 X141.492 Y92.957 E0.03609
G1 X141.972 Y93.714 E0.02809
G1 X142.205 Y94.587 E0.02835
G1 X142.205 Y115.413 E0.65297
M73 Q5 S15
G1 X141.977 Y116.271 E0.02783
G1 X141.713 Y116.768 E0.01765
G1 X140.942 Y117.579 E0.03510
M73 P5 R15
G1 X140.274 Y117.976 E0.02435
G1 X139.413 Y118.205 E0.02795
G1 X110.587 Y118.205 E0.90380
G1 X109.729 Y117.977 E0.02783
G1 X109.232 Y117.713 E0.01765
G1 X108.421 Y116.942 E0.03510
G1 X108.024 Y116.274 E0.02435
G1 X107.795 Y115.413 E0.02795
G1 X107.795 Y94.587 E0.65297
G1 X108.023 Y93.729 E0.02783
G1 X108.287 Y93.232 E0.01765
G1 X109.058 Y92.421 E0.03510
G1 X109.674 Y92.055 E0.02247
;WIPE_START
G1 F8640.000
G1 X110.587 Y91.795 E-0.21920
G1 X115.398 Y91.795 E-1.11080
;WIPE_END
G1 E-0.07000 F2100.000
G1 Z0.400 F10800.000
G1 X110.668 Y92.926
G1 Z0.200
G1 E1.40000 F2100.000
G1 F1200.000
G1 X139.346 Y92.930 E0.89917
G1 X139.705 Y93.013 E0.01157
G1 X140.071 Y93.185 E0.01268
G1 X140.676 Y93.743 E0.02580
G1 X140.908 Y94.105 E0.01347
G1 X141.074 Y94.668 E0.01841
G1 X141.074 Y115.332 E0.64790
G1 X140.909 Y115.894 E0.01838
G1 X140.763 Y116.149 E0.00921
G1 X140.185 Y116.736 E0.02583
G1 X139.893 Y116.909 E0.01065
G1 X139.332 Y117.074 E0.01833
G1 X110.668 Y117.074 E0.89874
G1 X110.106 Y116.909 E0.01838
G1 X109.851 Y116.763 E0.00921
G1 X109.264 Y116.185 E0.02583
G1 X109.091 Y115.893 E0.01065
G1 X108.926 Y115.332 E0.01833
G1 X108.926 Y94.668 E0.64790
G1 X109.091 Y94.106 E0.01838
G1 X109.237 Y93.851 E0.00921
G1 X109.815 Y93.264 E0.02583
G1 X110.107 Y93.091 E0.01065
G1 X110.611 Y92.943 E0.01645
G1 X110.698 Y93.303 F10800.000
G1 F1200.000
G1 X139.324 Y93.307 E0.89756
M73 P6 R14
M73 Q6 S14
G1 X139.562 Y93.362 E0.00767
G1 X139.882 Y93.513 E0.01109
G1 X140.401 Y94.001 E0.02233
G1 X140.556 Y94.242 E0.00898
G1 X140.697 Y94.698 E0.01495
G1 X140.697 Y115.302 E0.64605
G1 X140.556 Y115.759 E0.01500
G1 X140.452 Y115.936 E0.00641
G1 X139.936 Y116.452 E0.02289
G1 X139.759 Y116.556 E0.00641
G1 X139.302 Y116.697 E0.01500
G1 X110.698 Y116.697 E0.89688
G1 X110.241 Y116.556 E0.01500
G1 X110.064 Y116.452 E0.00641
G1 X109.548 Y115.936 E0.02289
G1 X109.444 Y115.759 E0.00641
G1 X109.303 Y115.302 E0.01500
G1 X109.303 Y94.698 E0.64605
G1 X109.444 Y94.241 E0.01500
G1 X109.548 Y94.064 E0.00641
G1 X110.064 Y93.548 E0.02289
G1 X110.241 Y93.444 E0.00641
G1 X110.640 Y93.321 E0.01312
G1 X110.383 Y93.794 F10800.000
G1 F1200.000
G1 X110.729 Y93.680 E0.01144
G1 X139.302 Y93.684 E0.89587
G1 X139.419 Y93.711 E0.00377
G1 X139.692 Y93.840 E0.00947
G1 X140.123 Y94.257 E0.01880
G1 X140.207 Y94.385 E0.00479
G1 X140.320 Y94.729 E0.01136
G1 X140.320 Y115.271 E0.64406
G1 X140.206 Y115.617 E0.01144
G1 X140.144 Y115.717 E0.00369
G1 X139.717 Y116.144 E0.01893
G1 X139.617 Y116.206 E0.00369
G1 X139.271 Y116.320 E0.01144
G1 X110.729 Y116.320 E0.89489
M73 Q7 S14
G1 X110.383 Y116.206 E0.01144
G1 X110.283 Y116.144 E0.00369
G1 X109.856 Y115.717 E0.01893
G1 X109.794 Y115.617 E0.00369
G1 X109.680 Y115.271 E0.01144
G1 X109.680 Y94.729 E0.64406
M73 P7 R14
G1 X109.794 Y94.383 E0.01144
G1 X109.856 Y94.283 E0.00369
G1 X110.332 Y93.826 E0.02069
G1 X110.537 Y94.139 F10800.000
G1 F1200.000
G1 X110.764 Y94.057 E0.00757
G1 X139.250 Y94.057 E0.89314
G1 X139.500 Y94.167 E0.00856
G1 X139.843 Y94.510 E0.01522
G1 X139.943 Y94.764 E0.00856
G1 X139.943 Y115.236 E0.64186
G1 X139.843 Y115.490 E0.00856
G1 X139.490 Y115.843 E0.01566
G1 X139.236 Y115.943 E0.00856
G1 X110.764 Y115.943 E0.89269
G1 X110.510 Y115.843 E0.00856
G1 X110.157 Y115.490 E0.01566
G1 X110.057 Y115.236 E0.00856
G1 X110.057 Y94.764 E0.64186
G1 X110.157 Y94.510 E0.00856
G1 X110.491 Y94.176 E0.01480
G1 X110.737 Y94.463 F10800.000
G1 F1200.000
G1 X110.806 Y94.434 E0.00235
G1 X139.194 Y94.434 E0.89007
G1 X139.263 Y94.463 E0.00235
G1 X139.537 Y94.737 E0.01215
G1 X139.566 Y94.806 E0.00235
G1 X139.566 Y115.194 E0.63923
G1 X139.537 Y115.263 E0.00235
G1 X139.263 Y115.537 E0.01215
G1 X139.194 Y115.566 E0.00235
G1 X110.806 Y115.566 E0.89007
M73 P8 R14
M73 Q8 S14
G1 X110.737 Y115.537 E0.00235
G1 X110.463 Y115.263 E0.01215
G1 X110.434 Y115.194 E0.00235
G1 X110.434 Y94.806 E0.63923
G1 X110.463 Y94.737 E0.00235
G1 X110.695 Y94.506 E0.01027
G1 X110.922 Y94.811 F10800.000
G1 F1200.000
G1 X139.078 Y94.811 E0.88282
G1 X139.189 Y94.922 E0.00490
G1 X139.189 Y115.078 E0.63198
G1 X139.078 Y115.189 E0.00490
G1 X110.922 Y115.189 E0.88282
G1 X110.811 Y115.078 E0.00490
G1 X110.811 Y94.922 E0.63198
G1 X110.879 Y94.854 E0.00302
; printing object spst-switch-0.0.3-a.stl id:0 copy 0
G1 X111.359 Y95.359 F10800.000
;TYPE:External perimeter
G1 F1200.000
G1 X112.008 Y95.310 E0.02039
G1 X137.990 Y95.310 E0.81465
G1 X138.641 Y95.365 E0.02049
G1 X138.690 Y96.008 E0.02021
G1 X138.690 Y113.992 E0.56388
M73 Q9 S14
G1 X138.641 Y114.641 E0.02040
G1 X137.992 Y114.690 E0.02040
G1 X112.008 Y114.690 E0.81471
M73 P9 R14
G1 X111.359 Y114.641 E0.02040
G1 X111.310 Y113.992 E0.02040
G1 X111.310 Y96.008 E0.56388
G1 X111.355 Y95.419 E0.01851
G1 X111.715 Y95.542 F10800.000
G1 X111.688 Y95.688
G1 F1200.000
G1 X138.312 Y95.688 E0.83481
G1 X138.312 Y114.313 E0.58399
G1 X111.688 Y114.313 E0.83477
G1 X111.688 Y95.748 E0.58211
G1 X111.562 Y95.308 F10800.000
; stop printing object spst-switch-0.0.3-a.stl id:0 copy 0
;LAYER_CHANGE
;Z:0.35
;HEIGHT:0.15
;BEFORE_LAYER_CHANGE
G92 E0.0
;0.35


;WIPE_START
G1 F8640.000
G1 X117.448 Y95.735 E-1.33000
;WIPE_END
G1 E-0.07000 F2100.000
G1 Z0.400 F10800.000
;AFTER_LAYER_CHANGE
;0.35
M104 S240 ; set temperature
M140 S90 ; set bed temperature
G1 X110.052 Y92.414
G1 Z0.350
G1 E1.40000 F2100.000
;TYPE:Skirt
G1 F2694
G1 X110.942 Y92.246 E0.02191
G1 X139.004 Y92.246 E0.67868
G1 X140.013 Y92.439 E0.02484
G1 X140.881 Y92.988 E0.02484
G1 X141.487 Y93.817 E0.02484
G1 X141.748 Y94.811 E0.02484
G1 X141.751 Y115.123 E0.49125
G1 X141.664 Y115.698 E0.01405
G1 X141.459 Y116.241 E0.01405
G1 X141.146 Y116.726 E0.01396
G1 X140.736 Y117.138 E0.01405
G1 X139.948 Y117.586 E0.02191
G1 X139.058 Y117.754 E0.02191
G1 X110.963 Y117.754 E0.67947
M73 P10 R14
M73 Q10 S14
G1 X110.366 Y117.680 E0.01455
G1 X109.799 Y117.479 E0.01455
G1 X109.290 Y117.159 E0.01455
G1 X108.862 Y116.736 E0.01455
G1 X108.419 Y115.960 E0.02162
G1 X108.247 Y115.079 E0.02172
G1 X108.246 Y94.955 E0.48669
G1 X108.321 Y94.362 E0.01445
G1 X108.523 Y93.796 E0.01455
G1 X108.844 Y93.287 E0.01455
G1 X109.264 Y92.862 E0.01445
G1 X109.999 Y92.444 E0.02046
G1 X110.182 Y92.771 F10800.000
G1 F2694
G1 X110.957 Y92.623 E0.01908
G1 X139.004 Y92.623 E0.67831
G1 X139.878 Y92.791 E0.02152
G1 X140.631 Y93.271 E0.02161
G1 X141.153 Y93.992 E0.02152
G1 X141.373 Y94.854 E0.02152
G1 X141.375 Y115.095 E0.48952
G1 X141.300 Y115.599 E0.01232
G1 X141.122 Y116.072 E0.01223
G1 X140.844 Y116.500 E0.01232
G1 X140.483 Y116.858 E0.01232
G1 X139.804 Y117.237 E0.01880
G1 X139.043 Y117.377 E0.01871
G1 X110.973 Y117.377 E0.67886
G1 X110.453 Y117.313 E0.01269
G1 X109.959 Y117.137 E0.01269
G1 X109.512 Y116.854 E0.01278
G1 X109.142 Y116.483 E0.01269
G1 X108.767 Y115.815 E0.01853
G1 X108.624 Y115.058 E0.01862
G1 X108.623 Y94.962 E0.48603
G1 X108.689 Y94.445 E0.01260
G1 X108.867 Y93.952 E0.01269
G1 X109.148 Y93.509 E0.01269
G1 X109.517 Y93.142 E0.01260
G1 X110.130 Y92.800 E0.01695
; printing object spst-switch-0.0.3-a.stl id:0 copy 0
;WIPE_START
G1 F8640.000
G1 X110.957 Y92.623 E-0.19539
G1 X115.871 Y92.623 E-1.13461
;WIPE_END
G1 E-0.07000 F2100.000
G1 Z0.550 F10800.000
G1 X111.773 Y95.773
G1 Z0.350
G1 E1.40000 F2100.000
M204 S800
;TYPE:External perimeter
;WIDTH:0.45
G1 F1500.000
G1 X138.227 Y95.773 E0.68928
G1 X138.227 Y114.228 E0.48086
G1 X111.773 Y114.228 E0.68928
G1 X111.773 Y95.833 E0.47930
M204 S1000
G1 X111.647 Y95.393 F10800.000
G1 X111.225 Y95.225
M204 S800
G1 F1500.000
G1 X138.775 Y95.225 E0.71784
G1 X138.775 Y114.775 E0.50939
M73 P11 R14
M73 Q11 S14
G1 X111.225 Y114.775 E0.71784
G1 X111.225 Y95.285 E0.50783
M204 S1000
G1 X111.617 Y95.307 F10800.000
G1 X111.510 Y95.510
;TYPE:Gap fill
;WIDTH:0.162382
G1 F2400.000
G1 X138.490 Y95.510 E0.21905
G1 X138.490 Y114.490 E0.15410
G1 X111.510 Y114.490 E0.21906
G1 X111.499 Y95.569 E0.15362
; stop printing object spst-switch-0.0.3-a.stl id:0 copy 0
;LAYER_CHANGE
;Z:0.5
;HEIGHT:0.15
;BEFORE_LAYER_CHANGE
G92 E0.0
;0.5


;WIPE_START
G1 F8640.000
G1 X117.259 Y95.556 E-1.33000
;WIPE_END
G1 E-0.07000 F2100.000
G1 Z0.550 F10800.000
;AFTER_LAYER_CHANGE
;0.5
G1 X110.052 Y92.414
G1 Z0.500
G1 E1.40000 F2100.000
;TYPE:Skirt
;WIDTH:0.42
G1 F2693
G1 X110.942 Y92.246 E0.02191
G1 X139.004 Y92.246 E0.67868
G1 X140.013 Y92.439 E0.02484
G1 X140.881 Y92.988 E0.02484
G1 X141.487 Y93.817 E0.02484
G1 X141.748 Y94.811 E0.02484
G1 X141.751 Y115.123 E0.49125
G1 X141.664 Y115.698 E0.01405
G1 X141.459 Y116.241 E0.01405
G1 X141.146 Y116.726 E0.01396
G1 X140.736 Y117.138 E0.01405
G1 X139.948 Y117.586 E0.02191
G1 X139.058 Y117.754 E0.02191
G1 X110.963 Y117.754 E0.67947
G1 X110.366 Y117.680 E0.01455
G1 X109.799 Y117.479 E0.01455
G1 X109.290 Y117.159 E0.01455
G1 X108.862 Y116.736 E0.01455
G1 X108.419 Y115.960 E0.02162
G1 X108.247 Y115.079 E0.02172
G1 X108.246 Y94.955 E0.48669
G1 X108.321 Y94.362 E0.01445
G1 X108.523 Y93.796 E0.01455
G1 X108.844 Y93.287 E0.01455
G1 X109.264 Y92.862 E0.01445
G1 X109.999 Y92.444 E0.02046
G1 X110.182 Y92.771 F10800.000
G1 F2693
G1 X110.957 Y92.623 E0.01908
G1 X139.004 Y92.623 E0.67831
G1 X139.878 Y92.791 E0.02152
G1 X140.631 Y93.271 E0.02161
G1 X141.153 Y93.992 E0.02152
G1 X141.373 Y94.854 E0.02152
