; generated by PrusaSlicer 2.3.0+win64 on 2021-05-01 at 12:57:44 UTC

; 

; external perimeters extrusion width = 0.45mm
; perimeters extrusion width = 0.45mm
; infill extrusion width = 0.45mm
; solid infill extrusion width = 0.45mm
; top infill extrusion width = 0.40mm
; first layer extrusion width = 0.42mm

M73 P0 R50
M73 Q0 S50
M201 X1000 Y1000 Z200 E5000 ; sets maximum accelerations, mm/sec^2
M203 X200 Y200 Z12 E120 ; sets maximum feedrates, mm/sec
M204 P1250 R1250 T1250 ; sets acceleration (P, T) and retract acceleration (R), mm/sec^2
M205 X8.00 Y8.00 Z0.40 E4.50 ; sets the jerk limits, mm/sec
M205 S0 T0 ; sets the minimum extruding and travel feed rate, mm/sec
M107
;TYPE:Custom
M862.3 P "MK3S" ; printer model check
M862.1 P0.4 ; nozzle diameter check
M115 U3.9.2 ; tell printer latest fw version
G90 ; use absolute coordinates
M83 ; extruder relative mode
M104 S230 ; set extruder temp
M140 S85 ; set bed temp
M190 S85 ; wait for bed temp
M109 S230 ; wait for extruder temp
G28 W ; home all without mesh bed level
G80 ; mesh bed leveling
G1 Y-3.0 F1000.0 ; go outside print area
G92 E0.0
G1 X60.0 E9.0 F1000.0 ; intro line
G1 X100.0 E12.5 F1000.0 ; intro line
G92 E0.0
M221 S95

; Don't change E values below. Excessive value can damage the printer.

G21 ; set units to millimeters
G90 ; use absolute coordinates
M83 ; use relative distances for extrusion
M900 K0.08 ; Filament gcode LA 1.5
M900 K45 ; Filament gcode LA 1.0
;LAYER_CHANGE
;Z:0.2
;HEIGHT:0.2
;BEFORE_LAYER_CHANGE
G92 E0.0
;0.2


G1 E-1.40000 F2100.000
G1 Z0.200 F10800.000
;AFTER_LAYER_CHANGE
;0.2
G1 Z0.400
G1 X110.911 Y78.865
G1 Z0.200
G1 E1.40000 F2100.000
M204 S1000
;TYPE:Skirt
;WIDTH:0.42
G1 F1200.000
G1 X111.186 Y78.239 E0.02142
G1 X111.625 Y77.721 E0.02130
G1 X112.193 Y77.348 E0.02130
G1 X112.847 Y77.150 E0.02142
G1 X124.087 Y76.625 E0.35282
G1 X125.819 Y76.623 E0.05430
G1 X137.190 Y77.155 E0.35691
G1 X137.827 Y77.357 E0.02095
G1 X138.379 Y77.726 E0.02083
G1 X138.811 Y78.236 E0.02095
G1 X139.083 Y78.846 E0.02095
G1 X139.668 Y85.825 E0.21959
G1 X141.374 Y109.896 E0.75663
G1 X141.377 Y130.011 E0.63069
M73 P0 R49
G1 X141.290 Y130.636 E0.01977
G1 X140.984 Y131.309 E0.02319
G1 X140.488 Y131.853 E0.02308
G1 X139.846 Y132.221 E0.02319
G1 X139.126 Y132.374 E0.02308
G1 X110.992 Y132.377 E0.88213
G1 X110.364 Y132.290 E0.01989
G1 X109.706 Y131.994 E0.02260
G1 X109.165 Y131.512 E0.02272
G1 X108.795 Y130.889 E0.02272
G1 X108.630 Y130.184 E0.02272
G1 X108.623 Y109.973 E0.63368
G1 X110.332 Y85.824 E0.75908
G1 X110.906 Y78.925 E0.21708
;WIPE_START
G1 F8640.000
G1 X111.186 Y78.239 E-0.17092
G1 X111.625 Y77.721 E-0.15689
G1 X112.193 Y77.348 E-0.15689
G1 X112.847 Y77.150 E-0.15776
G1 X115.821 Y77.011 E-0.68753
;WIPE_END
G1 E-0.07000 F2100.000
G1 Z0.400 F10800.000
G1 X125.909 Y74.291
G1 Z0.200
G1 E1.40000 F2100.000
G1 F1200.000
G1 X126.953 Y74.510 E0.03347
G1 X127.566 Y74.787 E0.02108
G1 X137.624 Y74.830 E0.31535
G1 X138.556 Y75.093 E0.03037
G1 X139.348 Y75.495 E0.02785
G1 X140.358 Y76.392 E0.04237
G1 X140.862 Y77.030 E0.02549
G1 X141.511 Y78.953 E0.06363
G1 X141.511 Y83.836 E0.15309
G1 X141.631 Y84.071 E0.00827
G1 X142.011 Y85.471 E0.04548
G1 X142.011 Y90.529 E0.15861
G1 X141.631 Y91.929 E0.04548
G1 X141.511 Y92.164 E0.00827
G1 X141.511 Y97.047 E0.15309
G1 X140.862 Y98.970 E0.06363
G1 X140.795 Y99.055 E0.00340
G1 X140.448 Y99.494 F10800.000
G1 F1200.000
G1 X140.358 Y99.608 E0.00455
G1 X139.348 Y100.506 E0.04238
G1 X138.547 Y100.910 E0.02813
G1 X137.417 Y101.199 E0.03657
G1 X127.574 Y101.213 E0.30861
G1 X127.346 Y101.330 E0.00805
G1 X126.104 Y101.690 E0.04053
G1 X124.196 Y101.714 E0.05983
G1 X123.312 Y101.575 E0.02806
G1 X122.433 Y101.213 E0.02981
G1 X112.655 Y101.213 E0.30660
G1 X110.732 Y100.565 E0.06362
G1 X110.100 Y100.067 E0.02523
G1 X109.555 Y99.474 E0.02527
G1 X109.208 Y99.036 F10800.000
G1 F1200.000
G1 X108.854 Y98.406 E0.02267
G1 X108.575 Y97.579 E0.02737
G1 X108.494 Y92.172 E0.16953
G1 X108.369 Y91.929 E0.00857
G1 X107.989 Y90.529 E0.04548
G1 X107.989 Y85.471 E0.15861
G1 X108.369 Y84.071 E0.04548
G1 X108.488 Y83.837 E0.00822
G1 X108.488 Y78.953 E0.15314
G1 X109.137 Y77.030 E0.06363
G1 X109.641 Y76.392 E0.02550
G1 X110.652 Y75.494 E0.04240
G1 X111.454 Y75.089 E0.02817
G1 X112.438 Y74.820 E0.03199
G1 X122.436 Y74.787 E0.31346
G1 X123.502 Y74.374 E0.03585
G1 X124.199 Y74.286 E0.02204
G1 X125.909 Y74.291 E0.05361
;WIPE_START
G1 F8640.000
G1 X124.199 Y74.286 E-0.39478
G1 X123.502 Y74.374 E-0.16230
G1 X122.436 Y74.787 E-0.26398
G1 X120.231 Y74.794 E-0.50894
;WIPE_END
G1 E-0.07000 F2100.000
G1 Z0.400 F10800.000
G1 X124.211 Y74.663
G1 Z0.200
G1 E1.40000 F2100.000
G1 F1200.000
G1 X125.888 Y74.668 E0.05259
G1 X126.853 Y74.875 E0.03095
G1 X127.482 Y75.164 E0.02172
G1 X137.546 Y75.199 E0.31554
G1 X138.435 Y75.451 E0.02897
G1 X139.154 Y75.819 E0.02533
G1 X140.094 Y76.661 E0.03957
G1 X140.545 Y77.237 E0.02295
G1 X141.134 Y78.984 E0.05778
G1 X141.134 Y83.932 E0.15514
G1 X141.273 Y84.194 E0.00930
G1 X141.634 Y85.497 E0.04239
G1 X141.634 Y90.503 E0.15698
G1 X141.273 Y91.806 E0.04239
G1 X141.134 Y92.068 E0.00930
G1 X141.134 Y97.016 E0.15514
M73 Q0 S49
G1 X140.734 Y98.202 E0.03923
G1 X140.409 Y98.937 F10800.000
G1 F1200.000
G1 X140.094 Y99.339 E0.01600
G1 X139.154 Y100.181 E0.03958
G1 X138.431 Y100.550 E0.02546
G1 X137.392 Y100.822 E0.03367
G1 X127.477 Y100.836 E0.31085
G1 X127.218 Y100.975 E0.00922
G1 X126.073 Y101.313 E0.03744
G1 X124.207 Y101.336 E0.05852
G1 X123.435 Y101.218 E0.02450
G1 X122.508 Y100.836 E0.03143
G1 X112.685 Y100.836 E0.30798
G1 X110.939 Y100.248 E0.05778
G1 X110.367 Y99.800 E0.02277
G1 X109.591 Y98.956 E0.03594
G1 X109.256 Y98.354 F10800.000
G1 F1200.000
G1 X109.192 Y98.239 E0.00412
G1 X108.942 Y97.488 E0.02483
G1 X108.870 Y92.074 E0.16976
G1 X108.727 Y91.806 E0.00951
G1 X108.366 Y90.503 E0.04239
G1 X108.366 Y85.497 E0.15698
G1 X108.727 Y84.194 E0.04239
G1 X108.865 Y83.934 E0.00924
G1 X108.865 Y78.984 E0.15519
G1 X109.454 Y77.237 E0.05778
G1 X109.905 Y76.661 E0.02295
G1 X110.846 Y75.818 E0.03959
G1 X111.573 Y75.448 E0.02559
G1 X112.514 Y75.190 E0.03059
G1 X122.508 Y75.164 E0.31336
G1 X123.574 Y74.745 E0.03590
G1 X124.211 Y74.663 E0.02014
;WIPE_START
G1 F8640.000
G1 X123.574 Y74.745 E-0.14831
G1 X122.508 Y75.164 E-0.26439
G1 X118.535 Y75.174 E-0.91730
;WIPE_END
G1 E-0.07000 F2100.000
G1 Z0.400 F10800.000
G1 X125.866 Y75.045
G1 Z0.200
G1 E1.40000 F2100.000
G1 F1200.000
G1 X126.751 Y75.238 E0.02838
G1 X127.397 Y75.541 E0.02238
G1 X137.468 Y75.569 E0.31577
G1 X138.313 Y75.808 E0.02755
G1 X138.958 Y76.142 E0.02276
G1 X139.828 Y76.929 E0.03678
G1 X140.228 Y77.443 E0.02043
G1 X140.757 Y79.014 E0.05197
G1 X140.757 Y84.032 E0.15732
G1 X140.917 Y84.319 E0.01032
G1 X141.257 Y85.523 E0.03922
G1 X141.257 Y90.477 E0.15532
G1 X140.917 Y91.681 E0.03922
G1 X140.757 Y91.968 E0.01032
G1 X140.757 Y96.986 E0.15732
M73 Q1 S49
G1 X140.667 Y97.252 E0.00882
M73 P1 R49
G1 X140.355 Y98.180 F10800.000
G1 F1200.000
G1 X140.228 Y98.557 E0.01245
G1 X139.828 Y99.071 E0.02043
G1 X138.958 Y99.858 E0.03678
G1 X138.313 Y100.192 E0.02279
G1 X137.366 Y100.445 E0.03072
G1 X127.377 Y100.459 E0.31319
G1 X127.090 Y100.620 E0.01032
G1 X125.992 Y100.944 E0.03589
G1 X124.219 Y100.959 E0.05561
G1 X123.557 Y100.860 E0.02098
G1 X122.582 Y100.459 E0.03304
G1 X112.716 Y100.459 E0.30935
G1 X111.145 Y99.931 E0.05197
G1 X110.633 Y99.532 E0.02035
G1 X109.904 Y98.747 E0.03359
G1 X109.640 Y98.274 E0.01700
G1 X109.321 Y97.433 F10800.000
G1 F1200.000
G1 X109.246 Y91.972 E0.17124
G1 X109.083 Y91.681 E0.01047
G1 X108.743 Y90.477 E0.03921
G1 X108.743 Y85.523 E0.15532
G1 X109.083 Y84.320 E0.03921
G1 X109.242 Y84.033 E0.01027
G1 X109.242 Y79.014 E0.15737
G1 X109.771 Y77.443 E0.05197
G1 X110.171 Y76.929 E0.02043
G1 X111.041 Y76.142 E0.03679
G1 X111.692 Y75.806 E0.02296
G1 X112.589 Y75.561 E0.02917
G1 X122.581 Y75.541 E0.31329
G1 X123.647 Y75.116 E0.03597
G1 X124.222 Y75.040 E0.01821
G1 X125.866 Y75.045 E0.05154
;WIPE_START
G1 F8640.000
G1 X124.222 Y75.040 E-0.37959
G1 X123.647 Y75.116 E-0.13410
G1 X122.581 Y75.541 E-0.26489
G1 X120.193 Y75.546 E-0.55142
;WIPE_END
G1 E-0.07000 F2100.000
G1 Z0.400 F10800.000
G1 X124.235 Y75.418
G1 Z0.200
G1 E1.40000 F2100.000
G1 F1200.000
G1 X125.844 Y75.422 E0.05048
G1 X126.647 Y75.601 E0.02577
G1 X127.311 Y75.918 E0.02307
G1 X137.390 Y75.939 E0.31604
G1 X138.191 Y76.166 E0.02611
G1 X138.761 Y76.464 E0.02015
G1 X139.561 Y77.196 E0.03399
G1 X139.910 Y77.649 E0.01793
G1 X140.380 Y79.045 E0.04619
G1 X140.380 Y84.136 E0.15961
G1 X140.562 Y84.449 E0.01135
G1 X140.880 Y85.550 E0.03595
G1 X140.880 Y90.450 E0.15362
G1 X140.562 Y91.551 E0.03595
G1 X140.380 Y91.864 E0.01135
G1 X140.380 Y93.198 E0.04182
;WIPE_START
G1 F8640.000
G1 X140.380 Y91.864 E-0.30798
G1 X140.562 Y91.551 E-0.08361
G1 X140.880 Y90.450 E-0.26474
G1 X140.880 Y87.532 E-0.67367
;WIPE_END
G1 E-0.07000 F2100.000
G1 Z0.400 F10800.000
G1 X140.287 Y97.229
G1 Z0.200
G1 E1.40000 F2100.000
G1 F1200.000
G1 X139.910 Y98.351 E0.03711
G1 X139.561 Y98.804 E0.01793
G1 X138.761 Y99.536 E0.03399
G1 X138.192 Y99.834 E0.02013
G1 X137.340 Y100.068 E0.02772
G1 X127.273 Y100.082 E0.31563
G1 X126.960 Y100.265 E0.01138
G1 X125.911 Y100.575 E0.03428
G1 X124.231 Y100.582 E0.05269
G1 X123.675 Y100.502 E0.01759
G1 X122.842 Y100.166 E0.02819
G1 X122.710 Y100.082 E0.00489
G1 X112.747 Y100.082 E0.31240
G1 X111.350 Y99.613 E0.04619
G1 X110.898 Y99.264 E0.01790
G1 X110.197 Y98.508 E0.03234
G1 X109.884 Y97.938 E0.02040
G1 X109.703 Y97.386 E0.01819
;WIPE_START
G1 F8640.000
G1 X109.884 Y97.938 E-0.13398
G1 X110.197 Y98.508 E-0.15025
G1 X110.898 Y99.264 E-0.23816
G1 X111.350 Y99.613 E-0.13179
G1 X112.747 Y100.082 E-0.34017
G1 X114.200 Y100.082 E-0.33566
;WIPE_END
G1 E-0.07000 F2100.000
G1 Z0.400 F10800.000
G1 X109.633 Y93.023
G1 Z0.200
G1 E1.40000 F2100.000
G1 F1200.000
G1 X109.622 Y91.867 E0.03626
G1 X109.438 Y91.551 E0.01144
G1 X109.120 Y90.450 E0.03595
G1 X109.120 Y85.550 E0.15362
G1 X109.438 Y84.449 E0.03595
G1 X109.619 Y84.137 E0.01130
G1 X109.619 Y79.045 E0.15966
G1 X110.089 Y77.649 E0.04619
G1 X110.438 Y77.196 E0.01793
G1 X111.238 Y76.464 E0.03399
G1 X111.811 Y76.165 E0.02028
G1 X112.664 Y75.931 E0.02773
G1 X122.710 Y75.918 E0.31497
G1 X122.841 Y75.834 E0.00488
G1 X123.720 Y75.487 E0.02962
G1 X124.235 Y75.418 E0.01629
;WIPE_START
G1 F8640.000
G1 X123.720 Y75.487 E-0.11999
G1 X122.841 Y75.834 E-0.21813
G1 X122.710 Y75.918 E-0.03592
G1 X118.570 Y75.923 E-0.95596
;WIPE_END
G1 E-0.07000 F2100.000
G1 Z0.400 F10800.000
G1 X125.822 Y75.799
G1 Z0.200
G1 E1.40000 F2100.000
G1 F1200.000
G1 X126.542 Y75.964 E0.02318
G1 X127.033 Y76.196 E0.01702
G1 X127.171 Y76.295 E0.00533
G1 X137.313 Y76.309 E0.31797
G1 X138.069 Y76.523 E0.02465
G1 X138.561 Y76.785 E0.01749
G1 X139.292 Y77.461 E0.03121
G1 X139.592 Y77.853 E0.01546
G1 X140.003 Y79.076 E0.04045
G1 X140.003 Y84.243 E0.16203
G1 X140.208 Y84.581 E0.01240
G1 X140.503 Y85.578 E0.03259
G1 X140.503 Y90.422 E0.15188
G1 X140.245 Y91.295 E0.02854
;WIPE_START
G1 F8640.000
G1 X140.503 Y90.422 E-0.21017
G1 X140.503 Y85.578 E-1.11853
G1 X140.501 Y85.573 E-0.00130
;WIPE_END
G1 E-0.07000 F2100.000
G1 Z0.400 F10800.000
G1 X140.003 Y93.211
G1 Z0.200
G1 E1.40000 F2100.000
G1 F1200.000
G1 X140.003 Y96.924 E0.11642
G1 X139.592 Y98.147 E0.04045
G1 X139.292 Y98.539 E0.01546
G1 X138.561 Y99.215 E0.03121
G1 X138.069 Y99.477 E0.01749
G1 X137.313 Y99.691 E0.02465
G1 X127.165 Y99.705 E0.31816
G1 X126.828 Y99.911 E0.01240
G1 X125.831 Y100.205 E0.03259
G1 X124.244 Y100.205 E0.04976
G1 X123.794 Y100.143 E0.01422
G1 X123.006 Y99.826 E0.02665
G1 X122.832 Y99.705 E0.00662
G1 X112.777 Y99.705 E0.31527
G1 X111.554 Y99.294 E0.04045
G1 X111.162 Y98.994 E0.01548
G1 X110.515 Y98.303 E0.02969
G1 X110.236 Y97.802 E0.01798
G1 X110.044 Y97.217 E0.01931
G1 X110.009 Y93.058 E0.13042
;WIPE_START
G1 F8640.000
G1 X110.044 Y97.217 E-0.96044
G1 X110.236 Y97.802 E-0.14220
G1 X110.515 Y98.303 E-0.13239
G1 X110.796 Y98.604 E-0.09497
;WIPE_END
G1 E-0.07000 F2100.000
G1 Z0.400 F10800.000
G1 X109.756 Y91.296
G1 Z0.200
G1 E1.40000 F2100.000
G1 F1200.000
G1 X109.497 Y90.422 E0.02859
G1 X109.497 Y85.578 E0.15188
G1 X109.792 Y84.581 E0.03259
G1 X109.996 Y84.245 E0.01235
G1 X109.996 Y79.076 E0.16207
G1 X110.407 Y77.853 E0.04045
G1 X110.707 Y77.461 E0.01546
G1 X111.437 Y76.785 E0.03121
G1 X111.932 Y76.523 E0.01754
G1 X112.740 Y76.302 E0.02626
G1 X122.832 Y76.295 E0.31646
G1 X123.006 Y76.174 E0.00662
G1 X123.795 Y75.857 E0.02667
G1 X124.247 Y75.795 E0.01432
G1 X125.822 Y75.799 E0.04938
;WIPE_START
G1 F8640.000
G1 X124.247 Y75.795 E-0.36365
G1 X123.795 Y75.857 E-0.10543
G1 X123.006 Y76.174 E-0.19641
G1 X122.832 Y76.295 E-0.04872
G1 X120.165 Y76.297 E-0.61580
;WIPE_END
G1 E-0.07000 F2100.000
G1 Z0.400 F10800.000
G1 X126.747 Y76.478
G1 Z0.200
G1 E1.40000 F2100.000
G1 F1200.000
G1 X126.400 Y76.314 E0.01204
G1 X125.800 Y76.176 E0.01930
G1 X124.260 Y76.172 E0.04828
G1 X123.872 Y76.227 E0.01229
G1 X123.267 Y76.474 E0.02048
;WIPE_START
G1 F8640.000
G1 X123.872 Y76.227 E-0.15082
G1 X124.260 Y76.172 E-0.09054
;WIPE_END
G1 E-1.15864 F2100.000
G1 Z0.400 F10800.000
G1 X119.036 Y76.672
G1 Z0.200
G1 E1.40000 F2100.000
G1 F1200.000
G1 X112.815 Y76.672 E0.19506
G1 X112.053 Y76.880 E0.02477
G1 X111.639 Y77.104 E0.01474
G1 X110.977 Y77.725 E0.02845
G1 X110.726 Y78.055 E0.01301
G1 X110.373 Y79.106 E0.03476
G1 X110.373 Y83.051 E0.12369
;WIPE_START
G1 F8640.000
G1 X110.373 Y79.106 E-0.91093
G1 X110.726 Y78.055 E-0.25598
G1 X110.977 Y77.725 E-0.09582
G1 X111.190 Y77.525 E-0.06728
;WIPE_END
G1 E-0.07000 F2100.000
G1 Z0.400 F10800.000
G1 X110.248 Y84.553
G1 Z0.200
G1 E1.40000 F2100.000
G1 F1200.000
G1 X110.144 Y84.717 E0.00610
G1 X109.874 Y85.606 E0.02913
G1 X109.874 Y89.618 E0.12577
;WIPE_START
G1 F8640.000
G1 X109.874 Y85.606 E-0.92619
G1 X110.144 Y84.717 E-0.21453
G1 X110.248 Y84.553 E-0.04494
;WIPE_END
G1 E-0.21435 F2100.000
G1 Z0.400 F10800.000
G1 X110.136 Y91.257
G1 Z0.200
G1 E1.40000 F2100.000
G1 F1200.000
G1 X110.374 Y91.645 E0.01428
G1 X110.411 Y97.128 E0.17191
G1 X110.589 Y97.668 E0.01785
G1 X110.806 Y98.063 E0.01413
G1 X111.426 Y98.725 E0.02842
G1 X111.757 Y98.975 E0.01301
G1 X112.808 Y99.328 E0.03476
G1 X122.962 Y99.328 E0.31837
G1 X123.174 Y99.487 E0.00834
G1 X123.871 Y99.773 E0.02362
G1 X124.257 Y99.828 E0.01222
G1 X125.802 Y99.828 E0.04844
G1 X126.691 Y99.558 E0.02913
G1 X127.054 Y99.328 E0.01346
G1 X137.235 Y99.321 E0.31923
G1 X137.946 Y99.120 E0.02315
G1 X138.360 Y98.896 E0.01476
G1 X139.022 Y98.275 E0.02845
G1 X139.273 Y97.945 E0.01301
G1 X139.626 Y96.894 E0.03476
G1 X139.626 Y91.645 E0.16457
G1 X139.864 Y91.255 E0.01433
;WIPE_START
G1 F8640.000
G1 X139.626 Y91.645 E-0.10550
G1 X139.626 Y96.894 E-1.21192
G1 X139.608 Y96.945 E-0.01258
;WIPE_END
G1 E-0.07000 F2100.000
G1 Z0.400 F10800.000
G1 X140.126 Y89.612
G1 Z0.200
G1 E1.40000 F2100.000
G1 F1200.000
G1 X140.126 Y85.606 E0.12560
G1 X139.856 Y84.717 E0.02913
G1 X139.751 Y84.552 E0.00616
;WIPE_START
G1 F8640.000
G1 X139.856 Y84.717 E-0.04533
G1 X140.126 Y85.606 E-0.21453
G1 X140.126 Y89.612 E-0.92497
;WIPE_END
G1 E-0.21517 F2100.000
G1 Z0.400 F10800.000
G1 X139.626 Y83.062
G1 Z0.200
G1 E1.40000 F2100.000
G1 F1200.000
G1 X139.626 Y79.106 E0.12402
G1 X139.273 Y78.055 E0.03476
G1 X139.022 Y77.725 E0.01301
G1 X138.360 Y77.104 E0.02845
G1 X137.946 Y76.880 E0.01476
G1 X137.235 Y76.679 E0.02315
G1 X130.953 Y76.675 E0.19698
G1 X130.886 Y77.049 F10800.000
G1 F1200.000
G1 X126.902 Y77.049 E0.12490
G1 X126.654 Y76.851 E0.00996
;WIPE_START
G1 F8640.000
G1 X126.902 Y77.049 E-0.07335
G1 X130.886 Y77.049 E-0.91984
;WIPE_END
G1 E-0.40681 F2100.000
G1 Z0.400 F10800.000
G1 X123.349 Y76.848
G1 Z0.200
G1 E1.40000 F2100.000
G1 F1200.000
G1 X123.097 Y77.049 E0.01009
G1 X119.045 Y77.049 E0.12706
;WIPE_START
G1 F8640.000
G1 X123.097 Y77.049 E-0.93573
G1 X123.349 Y76.848 E-0.07432
;WIPE_END
G1 E-0.38995 F2100.000
G1 Z0.400 F10800.000
G1 X110.750 Y83.067
G1 Z0.200
G1 E1.40000 F2100.000
G1 F1200.000
G1 X110.750 Y84.471 E0.04403
G1 X110.617 Y84.674 E0.00760
;WIPE_START
G1 F8640.000
G1 X110.750 Y84.471 E-0.05599
G1 X110.750 Y83.067 E-0.32428
;WIPE_END
G1 E-1.01974 F2100.000
G1 Z0.400 F10800.000
G1 X110.251 Y89.631
G1 Z0.200
G1 E1.40000 F2100.000
