; generated by PrusaSlicer 2.3.0+win64 on 2021-04-29 at 14:51:15 UTC

; 

; external perimeters extrusion width = 0.45mm
; perimeters extrusion width = 0.45mm
; infill extrusion width = 0.45mm
; solid infill extrusion width = 0.45mm
; top infill extrusion width = 0.40mm
; first layer extrusion width = 0.42mm

M73 P0 R49
M73 Q0 S49
M201 X1000 Y1000 Z200 E5000 ; sets maximum accelerations, mm/sec^2
M203 X200 Y200 Z12 E120 ; sets maximum feedrates, mm/sec
M204 P1250 R1250 T1250 ; sets acceleration (P, T) and retract acceleration (R), mm/sec^2
M205 X8.00 Y8.00 Z0.40 E4.50 ; sets the jerk limits, mm/sec
M205 S0 T0 ; sets the minimum extruding and travel feed rate, mm/sec
M107
;TYPE:Custom
M862.3 P "MK3S" ; printer model check
M862.1 P0.4 ; nozzle diameter check
M115 U3.9.2 ; tell printer latest fw version
G90 ; use absolute coordinates
M83 ; extruder relative mode
M104 S215 ; set extruder temp
M140 S60 ; set bed temp
M190 S60 ; wait for bed temp
M109 S215 ; wait for extruder temp
G28 W ; home all without mesh bed level
G80 ; mesh bed leveling
G1 Y-3.0 F1000.0 ; go outside print area
G92 E0.0
G1 X60.0 E9.0 F1000.0 ; intro line
M73 P0 R48
G1 X100.0 E12.5 F1000.0 ; intro line
G92 E0.0
M221 S95

; Don't change E values below. Excessive value can damage the printer.

G21 ; set units to millimeters
G90 ; use absolute coordinates
M83 ; use relative distances for extrusion
M900 K0.05 ; Filament gcode LA 1.5
M900 K30 ; Filament gcode LA 1.0
;LAYER_CHANGE
;Z:0.2
;HEIGHT:0.2
;BEFORE_LAYER_CHANGE
G92 E0.0
;0.2


G1 E-0.80000 F2100.000
G1 Z0.400 F10800.000
;AFTER_LAYER_CHANGE
;0.2
G1 X110.590 Y98.976
G1 Z0.200
G1 E0.80000 F2100.000
M204 S1000
;TYPE:Skirt
;WIDTH:0.42
G1 F1200.000
G1 X118.008 Y93.249 E0.29384
G1 X121.439 Y91.793 E0.11687
G1 X125.004 Y91.322 E0.11273
G1 X128.532 Y91.786 E0.11156
G1 X131.756 Y93.109 E0.10928
G1 X139.599 Y99.092 E0.30929
G1 X139.935 Y99.551 E0.01784
G1 X140.349 Y100.375 E0.02894
G1 X140.586 Y101.237 E0.02803
G1 X140.602 Y108.553 E0.22938
G1 X140.539 Y109.135 E0.01835
G1 X140.357 Y109.687 E0.01822
G1 X139.884 Y110.558 E0.03108
G1 X139.471 Y111.055 E0.02026
G1 X131.959 Y116.771 E0.29597
G1 X128.554 Y118.208 E0.11587
M73 Q0 S48
G1 X124.999 Y118.678 E0.11243
G1 X121.467 Y118.214 E0.11172
G1 X118.239 Y116.889 E0.10940
G1 X110.496 Y110.926 E0.30641
G1 X110.129 Y110.424 E0.01950
G1 X109.656 Y109.453 E0.03388
G1 X109.418 Y108.617 E0.02727
G1 X109.398 Y101.729 E0.21595
G1 X109.455 Y101.171 E0.01758
G1 X109.624 Y100.637 E0.01758
G1 X110.141 Y99.554 E0.03760
G1 X110.553 Y99.024 E0.02106
G1 X110.850 Y99.256 F10800.000
G1 F1200.000
G1 X118.231 Y93.554 E0.29243
G1 X121.543 Y92.156 E0.11273
G1 X125.004 Y91.699 E0.10948
G1 X128.435 Y92.151 E0.10850
G1 X131.581 Y93.443 E0.10662
G1 X139.322 Y99.347 E0.30524
G1 X139.617 Y99.753 E0.01574
G1 X140.009 Y100.537 E0.02749
G1 X140.213 Y101.295 E0.02461
G1 X140.225 Y108.553 E0.22757
G1 X140.170 Y109.059 E0.01597
G1 X140.009 Y109.543 E0.01597
G1 X139.566 Y110.355 E0.02900
G1 X139.195 Y110.797 E0.01811
G1 X131.743 Y116.462 E0.29350
G1 X128.451 Y117.845 E0.11195
G1 X124.998 Y118.301 E0.10919
G1 X121.563 Y117.849 E0.10865
G1 X118.414 Y116.555 E0.10673
G1 X110.771 Y110.668 E0.30251
G1 X110.449 Y110.225 E0.01716
G1 X109.996 Y109.288 E0.03263
G1 X109.790 Y108.550 E0.02402
G1 X109.775 Y101.729 E0.21388
G1 X109.826 Y101.241 E0.01538
G1 X109.976 Y100.774 E0.01538
G1 X110.466 Y99.747 E0.03569
G1 X110.813 Y99.303 E0.01765
;WIPE_START
G1 F8640.000
G1 X113.414 Y97.287 E-0.76000
;WIPE_END
G1 E-0.04000 F2100.000
G1 Z0.600 F10800.000
G1 X112.190 Y96.473
G1 Z0.200
G1 E0.80000 F2100.000
G1 F1200.000
G1 X114.045 Y94.103 E0.09436
G1 X116.967 Y91.800 E0.11665
G1 X120.974 Y90.083 E0.13668
G1 X125.347 Y89.551 E0.13815
G1 X129.022 Y90.082 E0.11640
G1 X132.428 Y91.449 E0.11508
G1 X135.936 Y94.087 E0.13762
G1 X137.799 Y96.459 E0.09455
G1 X138.380 Y96.502 E0.01828
G1 X139.379 Y96.838 E0.03306
G1 X140.823 Y97.860 E0.05545
G1 X141.457 Y98.718 E0.03346
G1 X142.217 Y100.282 E0.05449
G1 X142.493 Y101.252 E0.03164
G1 X142.562 Y108.159 E0.21656
G1 X142.310 Y109.439 E0.04092
G1 X141.804 Y110.623 E0.04034
G1 X141.352 Y111.464 E0.02996
G1 X140.780 Y112.189 E0.02894
G1 X139.395 Y113.157 E0.05299
G1 X138.396 Y113.497 E0.03309
G1 X137.799 Y113.541 E0.01877
G1 X135.950 Y115.900 E0.09397
G1 X132.981 Y118.230 E0.11834
G1 X128.968 Y119.932 E0.13669
G1 X124.651 Y120.449 E0.13631
G1 X120.977 Y119.918 E0.11639
G1 X117.571 Y118.551 E0.11508
G1 X114.063 Y115.913 E0.13764
G1 X112.190 Y113.528 E0.09507
G1 X111.580 Y113.472 E0.01920
G1 X110.605 Y113.113 E0.03260
G1 X109.197 Y112.065 E0.05503
G1 X108.601 Y111.234 E0.03203
G1 X108.131 Y110.252 E0.03416
G1 X107.718 Y109.245 E0.03412
G1 X107.508 Y108.477 E0.02495
G1 X107.438 Y102.026 E0.20230
G1 X107.888 Y100.269 E0.05687
G1 X108.589 Y98.785 E0.05145
G1 X109.180 Y97.953 E0.03199
G1 X110.588 Y96.895 E0.05521
G1 X111.570 Y96.530 E0.03286
G1 X112.130 Y96.478 E0.01764
G1 X112.384 Y96.836 F10800.000
G1 F1200.000
G1 X114.296 Y94.385 E0.09748
G1 X117.180 Y92.111 E0.11514
G1 X121.097 Y90.440 E0.13351
G1 X125.319 Y89.928 E0.13335
G1 X128.902 Y90.440 E0.11350
G1 X132.264 Y91.790 E0.11358
G1 X135.689 Y94.373 E0.13451
G1 X137.607 Y96.826 E0.09761
G1 X138.284 Y96.867 E0.02129
G1 X139.233 Y97.187 E0.03139
G1 X140.538 Y98.110 E0.05012
G1 X141.126 Y98.899 E0.03086
G1 X141.870 Y100.431 E0.05339
G1 X142.123 Y101.330 E0.02928
G1 X142.185 Y108.142 E0.21361
G1 X141.944 Y109.346 E0.03847
G1 X141.461 Y110.466 E0.03826
G1 X141.045 Y111.244 E0.02766
G1 X140.501 Y111.934 E0.02754
G1 X139.249 Y112.809 E0.04791
G1 X138.299 Y113.131 E0.03143
G1 X137.607 Y113.174 E0.02177
G1 X135.699 Y115.618 E0.09720
G1 X132.768 Y117.918 E0.11683
G1 X128.896 Y119.561 E0.13188
G1 X124.680 Y120.072 E0.13316
G1 X121.097 Y119.560 E0.11349
G1 X117.735 Y118.210 E0.11358
G1 X114.309 Y115.627 E0.13452
G1 X112.384 Y113.164 E0.09801
G1 X111.685 Y113.109 E0.02199
G1 X110.760 Y112.768 E0.03090
G1 X109.485 Y111.820 E0.04981
G1 X108.934 Y111.056 E0.02954
G1 X108.474 Y110.094 E0.03345
G1 X108.071 Y109.113 E0.03324
G1 X107.878 Y108.402 E0.02309
G1 X107.815 Y102.047 E0.19927
G1 X108.236 Y100.414 E0.05288
G1 X108.923 Y98.962 E0.05036
G1 X109.470 Y98.196 E0.02950
G1 X110.744 Y97.239 E0.04998
G1 X111.676 Y96.893 E0.03116
G1 X112.324 Y96.841 E0.02041
;WIPE_START
G1 F8640.000
G1 X114.296 Y94.385 E-0.72732
G1 X114.408 Y94.297 E-0.03268
;WIPE_END
G1 E-0.04000 F2100.000
G1 Z0.600 F10800.000
G1 X128.826 Y90.810
G1 Z0.200
G1 E0.80000 F2100.000
G1 F1200.000
G1 X125.290 Y90.305 E0.11199
G1 X121.169 Y90.811 E0.13018
G1 X117.394 Y92.423 E0.12870
G1 X114.548 Y94.667 E0.11364
G1 X112.578 Y97.202 E0.10068
G1 X111.781 Y97.256 E0.02505
G1 X110.901 Y97.583 E0.02942
G1 X109.759 Y98.440 E0.04477
G1 X109.256 Y99.139 E0.02699
G1 X108.585 Y100.559 E0.04926
G1 X108.192 Y102.069 E0.04890
M73 Q1 S48
G1 X108.248 Y108.328 E0.19624
M73 P1 R48
G1 X108.424 Y108.981 E0.02122
G1 X108.816 Y109.936 E0.03236
G1 X109.267 Y110.878 E0.03274
G1 X109.773 Y111.575 E0.02703
G1 X110.916 Y112.424 E0.04462
G1 X111.789 Y112.745 E0.02918
G1 X112.577 Y112.798 E0.02478
G1 X114.557 Y115.341 E0.10105
G1 X117.900 Y117.870 E0.13142
G1 X121.173 Y119.190 E0.11066
G1 X124.709 Y119.695 E0.11199
G1 X128.774 Y119.203 E0.12839
G1 X132.555 Y117.606 E0.12871
G1 X135.448 Y115.335 E0.11531
G1 X137.318 Y112.930 E0.09552
G1 X137.488 Y112.801 F10800.000
G1 F1200.000
G1 X138.204 Y112.765 E0.02249
G1 X139.102 Y112.460 E0.02974
G1 X140.223 Y111.677 E0.04287
G1 X140.721 Y111.051 E0.02509
G1 X141.118 Y110.308 E0.02641
G1 X141.579 Y109.250 E0.03617
G1 X141.807 Y108.125 E0.03600
G1 X141.754 Y101.407 E0.21066
G1 X141.523 Y100.580 E0.02690
G1 X140.795 Y99.081 E0.05228
G1 X140.255 Y98.360 E0.02825
G1 X139.087 Y97.536 E0.04481
G1 X138.190 Y97.233 E0.02969
G1 X137.424 Y97.195 E0.02404
G1 X137.405 Y97.181 F10800.000
G1 F1200.000
G1 X135.441 Y94.659 E0.10022
G1 X132.099 Y92.130 E0.13140
G1 X128.826 Y90.810 E0.11066
;WIPE_START
G1 F8640.000
G1 X131.879 Y92.041 E-0.76000
;WIPE_END
G1 E-0.04000 F2100.000
G1 Z0.600 F10800.000
G1 X125.262 Y90.682
G1 Z0.200
G1 E0.80000 F2100.000
G1 F1200.000
G1 X128.707 Y91.169 E0.10907
G1 X131.935 Y92.471 E0.10914
G1 X135.193 Y94.944 E0.12827
G1 X136.237 Y96.290 E0.05339
;WIPE_START
G1 F8640.000
G1 X135.193 Y94.944 E-0.39321
G1 X133.928 Y93.983 E-0.36679
;WIPE_END
G1 E-0.04000 F2100.000
G1 Z0.600 F10800.000
G1 X137.946 Y97.594
G1 Z0.200
G1 E0.80000 F2100.000
G1 F1200.000
G1 X138.096 Y97.600 E0.00468
G1 X138.941 Y97.884 E0.02796
G1 X139.972 Y98.610 E0.03954
G1 X140.464 Y99.262 E0.02561
G1 X141.176 Y100.729 E0.05114
G1 X141.383 Y101.482 E0.02449
G1 X141.430 Y108.108 E0.20773
G1 X141.214 Y109.154 E0.03350
G1 X140.776 Y110.150 E0.03411
G1 X140.415 Y110.830 E0.02415
G1 X139.945 Y111.421 E0.02368
G1 X138.956 Y112.112 E0.03783
G1 X138.109 Y112.399 E0.02802
G1 X138.011 Y112.403 E0.00309
;WIPE_START
G1 F8640.000
G1 X138.109 Y112.399 E-0.02279
G1 X138.956 Y112.112 E-0.20638
G1 X139.945 Y111.421 E-0.27857
G1 X140.415 Y110.830 E-0.17438
G1 X140.573 Y110.532 E-0.07789
;WIPE_END
G1 E-0.04000 F2100.000
G1 Z0.600 F10800.000
G1 X136.157 Y113.814
G1 Z0.200
G1 E0.80000 F2100.000
G1 F1200.000
G1 X135.197 Y115.053 E0.04914
G1 X132.342 Y117.294 E0.11379
G1 X128.702 Y118.832 E0.12392
G1 X124.737 Y119.318 E0.12525
G1 X121.292 Y118.832 E0.10906
G1 X118.064 Y117.530 E0.10914
G1 X114.805 Y115.056 E0.12829
G1 X113.702 Y113.633 E0.05646
;WIPE_START
G1 F8640.000
G1 X114.805 Y115.056 E-0.41578
G1 X115.992 Y115.957 E-0.34422
;WIPE_END
G1 E-0.04000 F2100.000
G1 Z0.600 F10800.000
G1 X112.091 Y112.393
G1 Z0.200
G1 E0.80000 F2100.000
G1 F1200.000
G1 X111.892 Y112.382 E0.00625
G1 X111.071 Y112.079 E0.02742
G1 X110.060 Y111.329 E0.03946
G1 X109.599 Y110.699 E0.02449
G1 X109.159 Y109.778 E0.03201
G1 X108.778 Y108.849 E0.03147
G1 X108.619 Y108.254 E0.01934
G1 X108.570 Y102.091 E0.19323
G1 X108.933 Y100.705 E0.04493
G1 X109.590 Y99.316 E0.04816
G1 X110.047 Y98.684 E0.02446
G1 X111.058 Y97.927 E0.03960
G1 X111.885 Y97.620 E0.02765
G1 X112.051 Y97.610 E0.00522
;WIPE_START
G1 F8640.000
G1 X111.885 Y97.620 E-0.03847
G1 X111.058 Y97.927 E-0.20360
G1 X110.047 Y98.684 E-0.29162
G1 X109.590 Y99.316 E-0.18013
G1 X109.504 Y99.497 E-0.04618
;WIPE_END
G1 E-0.04000 F2100.000
G1 Z0.600 F10800.000
G1 X113.761 Y96.290
G1 Z0.200
G1 E0.80000 F2100.000
G1 F1200.000
G1 X114.800 Y94.949 E0.05320
G1 X117.608 Y92.735 E0.11212
G1 X121.292 Y91.169 E0.12553
G1 X125.262 Y90.682 E0.12541
;WIPE_START
G1 F8640.000
G1 X121.995 Y91.083 E-0.76000
;WIPE_END
G1 E-0.04000 F2100.000
G1 Z0.600 F10800.000
G1 X128.631 Y91.539
G1 Z0.200
G1 E0.80000 F2100.000
G1 F1200.000
G1 X131.770 Y92.810 E0.10619
G1 X134.945 Y95.229 E0.12514
G1 X135.087 Y95.413 E0.00729
;WIPE_START
G1 F8640.000
G1 X134.945 Y95.229 E-0.05372
G1 X132.512 Y93.375 E-0.70628
;WIPE_END
G1 E-0.04000 F2100.000
G1 Z0.600 F10800.000
G1 X136.856 Y97.703
G1 Z0.200
G1 E0.80000 F2100.000
G1 F1200.000
G1 X137.037 Y97.938 E0.00931
G1 X137.169 Y97.942 E0.00413
;WIPE_START
G1 F8640.000
G1 X137.037 Y97.938 E-0.03041
G1 X136.856 Y97.703 E-0.06854
;WIPE_END
G1 E-0.70105 F2100.000
G1 Z0.600 F10800.000
G1 X138.777 Y98.227
G1 Z0.200
G1 E0.80000 F2100.000
G1 F1200.000
G1 X139.690 Y98.862 E0.03488
G1 X140.133 Y99.444 E0.02294
G1 X140.829 Y100.878 E0.04997
G1 X141.013 Y101.557 E0.02206
G1 X141.053 Y108.089 E0.20483
G1 X140.849 Y109.056 E0.03098
G1 X140.434 Y109.990 E0.03205
G1 X140.090 Y110.637 E0.02296
G1 X139.668 Y111.164 E0.02118
G1 X139.318 Y111.409 E0.01339
;WIPE_START
G1 F8640.000
G1 X139.668 Y111.164 E-0.09862
G1 X140.090 Y110.637 E-0.15599
G1 X140.434 Y109.990 E-0.16911
G1 X140.849 Y109.056 E-0.23604
G1 X140.939 Y108.631 E-0.10024
;WIPE_END
G1 E-0.04000 F2100.000
G1 Z0.600 F10800.000
G1 X137.227 Y112.056
G1 Z0.200
G1 E0.80000 F2100.000
G1 F1200.000
G1 X137.037 Y112.062 E0.00598
G1 X136.776 Y112.399 E0.01336
;WIPE_START
G1 F8640.000
G1 X137.037 Y112.062 E-0.09840
G1 X137.227 Y112.056 E-0.04407
;WIPE_END
G1 E-0.65753 F2100.000
G1 Z0.600 F10800.000
G1 X135.012 Y114.686
G1 Z0.200
G1 E0.80000 F2100.000
G1 F1200.000
G1 X134.945 Y114.771 E0.00339
G1 X132.129 Y116.982 E0.11225
G1 X128.580 Y118.475 E0.12074
G1 X124.765 Y118.942 E0.12050
G1 X121.368 Y118.462 E0.10756
G1 X118.229 Y117.190 E0.10619
G1 X115.053 Y114.771 E0.12516
G1 X114.867 Y114.531 E0.00954
;WIPE_START
G1 F8640.000
G1 X115.053 Y114.771 E-0.07028
G1 X117.430 Y116.581 E-0.68972
;WIPE_END
G1 E-0.04000 F2100.000
G1 Z0.600 F10800.000
G1 X113.068 Y112.199
G1 Z0.200
G1 E0.80000 F2100.000
G1 F1200.000
G1 X112.961 Y112.060 E0.00550
G1 X112.883 Y112.057 E0.00244
;WIPE_START
G1 F8640.000
G1 X112.961 Y112.060 E-0.01794
G1 X113.068 Y112.199 E-0.04051
;WIPE_END
G1 E-0.74155 F2100.000
G1 Z0.600 F10800.000
G1 X111.245 Y111.741
G1 Z0.200
G1 E0.80000 F2100.000
G1 F1200.000
G1 X110.347 Y111.083 E0.03493
G1 X109.931 Y110.520 E0.02193
G1 X109.501 Y109.620 E0.03127
G1 X109.132 Y108.718 E0.03057
G1 X108.990 Y108.180 E0.01744
G1 X108.947 Y102.114 E0.19022
G1 X109.281 Y100.851 E0.04097
G1 X109.923 Y99.494 E0.04706
G1 X110.335 Y98.930 E0.02190
G1 X110.569 Y98.755 E0.00917
;WIPE_START
G1 F8640.000
G1 X110.335 Y98.930 E-0.06753
G1 X109.923 Y99.494 E-0.16130
G1 X109.281 Y100.851 E-0.34655
G1 X109.077 Y101.624 E-0.18462
;WIPE_END
G1 E-0.04000 F2100.000
G1 Z0.600 F10800.000
G1 X112.845 Y97.945
G1 Z0.200
G1 E0.80000 F2100.000
G1 F1200.000
G1 X112.961 Y97.940 E0.00364
G1 X113.122 Y97.732 E0.00824
;WIPE_START
G1 F8640.000
G1 X112.961 Y97.940 E-0.06069
G1 X112.845 Y97.945 E-0.02684
;WIPE_END
G1 E-0.71247 F2100.000
G1 Z0.600 F10800.000
G1 X114.930 Y95.387
G1 Z0.200
G1 E0.80000 F2100.000
G1 F1200.000
G1 X115.052 Y95.230 E0.00623
G1 X117.822 Y93.046 E0.11060
G1 X121.365 Y91.540 E0.12073
G1 X125.234 Y91.059 E0.12225
G1 X128.631 Y91.539 E0.10756
;WIPE_START
G1 F8640.000
G1 X125.372 Y91.078 E-0.76000
;WIPE_END
G1 E-0.04000 F2100.000
G1 Z0.600 F10800.000
G1 X135.712 Y96.831
G1 Z0.200
G1 E0.80000 F2100.000
G1 F1200.000
G1 X136.643 Y98.039 E0.04783
G1 X136.777 Y98.308 E0.00943
G1 X137.683 Y98.334 E0.02841
;WIPE_START
G1 F8640.000
G1 X136.777 Y98.308 E-0.20921
G1 X136.643 Y98.039 E-0.06941
G1 X135.712 Y96.831 E-0.35223
;WIPE_END
G1 E-0.16915 F2100.000
G1 Z0.600 F10800.000
G1 X137.744 Y111.664
G1 Z0.200
G1 E0.80000 F2100.000
G1 F1200.000
G1 X136.777 Y111.692 E0.03033
G1 X136.640 Y111.965 E0.00957
G1 X135.639 Y113.264 E0.05141
;WIPE_START
G1 F8640.000
G1 X136.640 Y111.965 E-0.37863
G1 X136.777 Y111.692 E-0.07045
G1 X137.744 Y111.664 E-0.22334
;WIPE_END
G1 E-0.12758 F2100.000
G1 Z0.600 F10800.000
G1 X114.227 Y113.092
G1 Z0.200
G1 E0.80000 F2100.000
G1 F1200.000
G1 X113.355 Y111.961 E0.04476
G1 X113.220 Y111.691 E0.00947
G1 X112.370 Y111.662 E0.02667
;WIPE_START
G1 F8640.000
G1 X113.220 Y111.691 E-0.19639
G1 X113.355 Y111.961 E-0.06973
G1 X114.227 Y113.092 E-0.32966
;WIPE_END
G1 E-0.20423 F2100.000
G1 Z0.600 F10800.000
G1 X112.333 Y98.340
G1 Z0.200
G1 E0.80000 F2100.000
G1 F1200.000
G1 X113.221 Y98.309 E0.02785
G1 X113.358 Y98.035 E0.00961
G1 X114.281 Y96.838 E0.04740
;WIPE_START
G1 F8640.000
G1 X113.358 Y98.035 E-0.34905
G1 X113.221 Y98.309 E-0.07075
G1 X112.333 Y98.340 E-0.20506
;WIPE_END
G1 E-0.17513 F2100.000
G1 Z0.600 F10800.000
G1 X115.455 Y95.933
G1 Z0.200
G1 E0.80000 F2100.000
G1 F1200.000
G1 X113.670 Y98.248 E0.09167
G1 X113.464 Y98.681 E0.01505
G1 X112.187 Y98.713 E0.04004
G1 X111.572 Y98.936 E0.02053
G1 X111.324 Y99.118 E0.00963
;WIPE_START
G1 F8640.000
G1 X111.572 Y98.936 E-0.07093
G1 X112.187 Y98.713 E-0.15119
G1 X113.464 Y98.681 E-0.29486
G1 X113.670 Y98.248 E-0.11080
G1 X114.020 Y97.794 E-0.13222
;WIPE_END
G1 E-0.04000 F2100.000
G1 Z0.600 F10800.000
G1 X111.616 Y111.081
G1 Z0.200
G1 E0.80000 F2100.000
G1 F1200.000
G1 X112.192 Y111.287 E0.01920
G1 X113.464 Y111.319 E0.03988
G1 X113.668 Y111.749 E0.01493
G1 X115.380 Y113.980 E0.08819
;WIPE_START
G1 F8640.000
G1 X113.668 Y111.749 E-0.64948
G1 X113.464 Y111.319 E-0.10998
G1 X113.461 Y111.319 E-0.00055
;WIPE_END
G1 E-0.04000 F2100.000
G1 Z0.600 F10800.000
G1 X134.489 Y114.138
G1 Z0.200
G1 E0.80000 F2100.000
G1 F1200.000
G1 X136.328 Y111.752 E0.09446
G1 X136.534 Y111.319 E0.01503
G1 X137.882 Y111.290 E0.04228
G1 X138.469 Y111.090 E0.01945
