; generated by PrusaSlicer 2.3.0+win64 on 2021-04-29 at 18:30:04 UTC

; 

; external perimeters extrusion width = 0.45mm
; perimeters extrusion width = 0.45mm
; infill extrusion width = 0.45mm
; solid infill extrusion width = 0.45mm
; top infill extrusion width = 0.40mm
; first layer extrusion width = 0.42mm

M73 P0 R109
M73 Q0 S109
M201 X1000 Y1000 Z200 E5000 ; sets maximum accelerations, mm/sec^2
M203 X200 Y200 Z12 E120 ; sets maximum feedrates, mm/sec
M204 P1250 R1250 T1250 ; sets acceleration (P, T) and retract acceleration (R), mm/sec^2
M205 X8.00 Y8.00 Z0.40 E4.50 ; sets the jerk limits, mm/sec
M205 S0 T0 ; sets the minimum extruding and travel feed rate, mm/sec
M107
;TYPE:Custom
M862.3 P "MK3S" ; printer model check
M862.1 P0.4 ; nozzle diameter check
M115 U3.9.2 ; tell printer latest fw version
G90 ; use absolute coordinates
M83 ; extruder relative mode
M104 S215 ; set extruder temp
M140 S60 ; set bed temp
M190 S60 ; wait for bed temp
M109 S215 ; wait for extruder temp
G28 W ; home all without mesh bed level
G80 ; mesh bed leveling
G1 Y-3.0 F1000.0 ; go outside print area
G92 E0.0
G1 X60.0 E9.0 F1000.0 ; intro line
G1 X100.0 E12.5 F1000.0 ; intro line
G92 E0.0
M221 S95

; Don't change E values below. Excessive value can damage the printer.

G21 ; set units to millimeters
G90 ; use absolute coordinates
M83 ; use relative distances for extrusion
M900 K0.05 ; Filament gcode LA 1.5
M900 K30 ; Filament gcode LA 1.0
;LAYER_CHANGE
;Z:0.2
;HEIGHT:0.2
;BEFORE_LAYER_CHANGE
G92 E0.0
;0.2


G1 E-0.80000 F2100.000
G1 Z0.400 F10800.000
;AFTER_LAYER_CHANGE
;0.2
G1 X87.719 Y90.151
G1 Z0.200
G1 E0.80000 F2100.000
M204 S1000
;TYPE:Skirt
;WIDTH:0.42
G1 F1200.000
G1 X88.496 Y88.577 E0.05505
G1 X89.422 Y87.411 E0.04666
G1 X90.564 Y86.506 E0.04569
G1 X91.621 Y85.919 E0.03791
G1 X92.240 Y85.679 E0.02082
G1 X93.332 Y85.430 E0.03511
G1 X94.236 Y85.325 E0.02853
G1 X145.640 Y85.311 E1.61175
G1 X148.160 Y85.528 E0.07931
G1 X150.622 Y86.091 E0.07918
G1 X151.677 Y86.460 E0.03505
G1 X153.318 Y87.192 E0.05632
G1 X154.459 Y87.828 E0.04098
G1 X155.582 Y88.579 E0.04235
G1 X157.438 Y90.126 E0.07574
G1 X158.910 Y91.781 E0.06945
G1 X159.806 Y92.990 E0.04720
G1 X160.422 Y93.994 E0.03690
G1 X161.053 Y95.188 E0.04236
G1 X161.587 Y96.462 E0.04329
G1 X162.236 Y98.610 E0.07037
G1 X162.492 Y99.957 E0.04298
G1 X162.675 Y101.924 E0.06193
G1 X162.685 Y121.543 E0.61515
G1 X162.559 Y122.393 E0.02694
G1 X162.313 Y122.994 E0.02036
G1 X161.858 Y123.612 E0.02408
G1 X161.122 Y124.236 E0.03024
G1 X160.416 Y124.552 E0.02426
G1 X159.569 Y124.643 E0.02670
G1 X90.417 Y124.659 E2.16821
M73 P0 R108
G1 X89.750 Y124.562 E0.02114
G1 X88.991 Y124.304 E0.02513
G1 X88.343 Y123.843 E0.02492
G1 X87.930 Y123.367 E0.01977
G1 X87.471 Y122.446 E0.03227
G1 X87.324 Y121.548 E0.02855
G1 X87.313 Y92.255 E0.91844
G1 X87.708 Y90.210 E0.06531
;WIPE_START
G1 F8640.000
G1 X88.496 Y88.577 E-0.41881
G1 X89.416 Y87.420 E-0.34119
;WIPE_END
G1 E-0.04000 F2100.000
G1 Z0.600 F10800.000
G1 X102.526 Y124.468
G1 Z0.200
G1 E0.80000 F2100.000
G1 F1200.000
G1 X103.080 Y123.719 E0.02922
G1 X103.628 Y121.841 E0.06132
G1 X103.584 Y101.578 E0.63533
G1 X145.409 Y101.631 E1.31139
G1 X145.708 Y101.662 E0.00945
G1 X146.055 Y101.795 E0.01163
G1 X146.289 Y102.136 E0.01299
G1 X146.392 Y102.495 E0.01171
G1 X146.401 Y121.685 E0.60168
G1 X146.650 Y123.166 E0.04709
G1 X147.278 Y124.458 E0.04504
G1 X147.605 Y124.835 F10800.000
G1 F1200.000
G1 X147.875 Y125.145 E0.01289
G1 X148.585 Y125.716 E0.02856
G1 X151.027 Y126.581 E0.08124
G1 X159.809 Y126.640 E0.27536
G1 X161.179 Y126.348 E0.04394
G1 X162.417 Y125.720 E0.04351
G1 X163.307 Y124.945 E0.03701
G1 X163.980 Y123.973 E0.03708
G1 X164.403 Y122.847 E0.03771
G1 X164.553 Y121.669 E0.03722
G1 X164.623 Y110.193 E0.35983
G1 X164.612 Y102.851 E0.23021
G1 X164.589 Y102.119 E0.02296
G1 X164.601 Y101.724 E0.01237
G1 X164.538 Y101.153 E0.01803
G1 X164.517 Y100.549 E0.01895
G1 X164.348 Y99.206 E0.04244
G1 X164.054 Y97.850 E0.04350
G1 X163.978 Y97.616 E0.00772
G1 X163.883 Y97.114 E0.01600
G1 X163.553 Y96.204 E0.03037
G1 X163.466 Y96.013 E0.00657
G1 X163.301 Y95.484 E0.01738
G1 X162.802 Y94.324 E0.03960
G1 X162.136 Y93.117 E0.04323
G1 X162.009 Y92.822 E0.01008
G1 X161.386 Y91.892 E0.03510
G1 X160.956 Y91.183 E0.02598
G1 X160.306 Y90.537 E0.02874
G1 X159.980 Y90.012 E0.01938
G1 X159.086 Y88.999 E0.04237
G1 X158.786 Y88.748 E0.01228
G1 X158.489 Y88.452 E0.01313
G1 X158.237 Y88.265 E0.00985
G1 X157.837 Y87.924 E0.01648
G1 X157.480 Y87.571 E0.01574
G1 X156.757 Y87.068 E0.02761
G1 X156.440 Y86.796 E0.01309
G1 X155.287 Y86.055 E0.04299
G1 X154.849 Y85.829 E0.01545
G1 X154.500 Y85.609 E0.01292
G1 X154.128 Y85.439 E0.01283
G1 X153.819 Y85.258 E0.01124
G1 X153.126 Y84.965 E0.02359
G1 X152.841 Y84.884 E0.00929
G1 X152.309 Y84.646 E0.01828
G1 X151.658 Y84.431 E0.02148
G1 X151.148 Y84.227 E0.01723
G1 X149.637 Y83.860 E0.04877
G1 X149.362 Y83.748 E0.00930
G1 X148.637 Y83.571 E0.02338
G1 X148.041 Y83.516 E0.01878
G1 X147.838 Y83.523 E0.00636
G1 X147.313 Y83.457 E0.01660
G1 X146.489 Y83.432 E0.02584
G1 X145.967 Y83.370 E0.01649
G1 X94.339 Y83.369 E1.61876
G1 X92.759 Y83.592 E0.05001
G1 X91.962 Y83.768 E0.02559
G1 X91.473 Y83.957 E0.01646
G1 X90.997 Y84.081 E0.01540
G1 X89.961 Y84.593 E0.03625
G1 X89.515 Y84.959 E0.01809
G1 X88.971 Y85.255 E0.01943
G1 X88.046 Y86.013 E0.03747
G1 X86.521 Y88.072 E0.08034
G1 X85.970 Y89.246 E0.04066
G1 X85.700 Y90.166 E0.03007
G1 X85.513 Y91.460 E0.04101
G1 X85.387 Y92.134 E0.02147
G1 X85.455 Y97.795 E0.17753
G1 X85.361 Y121.886 E0.75535
G1 X86.006 Y123.924 E0.06702
G1 X86.479 Y124.573 E0.02517
G1 X87.342 Y125.474 E0.03913
G1 X88.570 Y126.237 E0.04532
G1 X90.058 Y126.619 E0.04817
G1 X91.752 Y126.637 E0.05313
G1 X99.288 Y126.534 E0.23628
G1 X100.165 Y126.329 E0.02824
G1 X100.948 Y125.990 E0.02677
G1 X101.896 Y125.321 E0.03637
G1 X102.247 Y124.845 E0.01855
G1 X102.063 Y124.468 F10800.000
G1 F1200.000
G1 X102.729 Y123.579 E0.03483
G1 X103.251 Y121.814 E0.05770
G1 X103.206 Y101.201 E0.64633
G1 X145.429 Y101.254 E1.32387
G1 X145.797 Y101.292 E0.01161
G1 X146.316 Y101.491 E0.01742
G1 X146.494 Y101.785 E0.01075
G1 X146.629 Y101.951 E0.00672
G1 X146.769 Y102.442 E0.01603
G1 X146.778 Y121.670 E0.60286
G1 X147.002 Y123.028 E0.04316
G1 X147.575 Y124.225 E0.04160
G1 X147.776 Y124.458 E0.00964
G1 X148.101 Y124.835 F10800.000
G1 F1200.000
G1 X148.796 Y125.402 E0.02815
G1 X151.061 Y126.204 E0.07533
G1 X159.791 Y126.263 E0.27374
G1 X161.032 Y126.000 E0.03977
G1 X162.189 Y125.419 E0.04059
G1 X163.012 Y124.709 E0.03408
G1 X163.637 Y123.816 E0.03416
G1 X164.032 Y122.776 E0.03488
G1 X164.176 Y121.655 E0.03544
G1 X164.246 Y110.193 E0.35940
G1 X164.234 Y102.854 E0.23010
G1 X164.212 Y102.117 E0.02311
G1 X164.225 Y101.752 E0.01147
G1 X164.161 Y101.180 E0.01804
G1 X164.142 Y100.587 E0.01860
G1 X163.978 Y99.277 E0.04138
G1 X163.687 Y97.940 E0.04292
G1 X163.611 Y97.709 E0.00762
G1 X163.523 Y97.228 E0.01534
G1 X163.202 Y96.340 E0.02960
G1 X163.113 Y96.149 E0.00661
G1 X162.951 Y95.624 E0.01722
G1 X162.459 Y94.482 E0.03898
G1 X161.797 Y93.283 E0.04295
G1 X161.670 Y92.987 E0.01010
G1 X161.069 Y92.095 E0.03373
G1 X160.647 Y91.399 E0.02551
G1 X160.009 Y90.774 E0.02800
G1 X159.686 Y90.249 E0.01934
G1 X158.833 Y89.279 E0.04050
G1 X158.530 Y89.025 E0.01239
G1 X158.253 Y88.746 E0.01233
G1 X158.002 Y88.560 E0.00978
G1 X157.581 Y88.202 E0.01734
G1 X157.227 Y87.850 E0.01566
G1 X156.526 Y87.367 E0.02669
G1 X156.224 Y87.106 E0.01250
G1 X155.091 Y86.377 E0.04227
G1 X154.662 Y86.157 E0.01511
G1 X154.310 Y85.935 E0.01303
G1 X153.954 Y85.774 E0.01227
G1 X153.660 Y85.601 E0.01071
G1 X152.990 Y85.318 E0.02280
G1 X152.713 Y85.239 E0.00904
G1 X152.164 Y84.994 E0.01885
G1 X151.529 Y84.786 E0.02094
G1 X151.020 Y84.582 E0.01718
G1 X149.518 Y84.219 E0.04845
G1 X149.258 Y84.110 E0.00886
G1 X148.562 Y83.940 E0.02244
G1 X148.021 Y83.893 E0.01703
G1 X147.822 Y83.901 E0.00623
G1 X147.292 Y83.834 E0.01675
G1 X146.460 Y83.809 E0.02610
G1 X145.955 Y83.747 E0.01596
G1 X94.352 Y83.746 E1.61798
G1 X92.834 Y83.961 E0.04808
G1 X92.058 Y84.133 E0.02490
G1 X91.590 Y84.316 E0.01578
G1 X91.112 Y84.441 E0.01548
G1 X90.149 Y84.920 E0.03370
G1 X89.729 Y85.271 E0.01719
G1 X89.171 Y85.576 E0.01992
G1 X88.333 Y86.260 E0.03392
G1 X86.854 Y88.249 E0.07772
G1 X86.318 Y89.393 E0.03960
G1 X86.065 Y90.258 E0.02827
G1 X85.885 Y91.523 E0.04006
G1 X85.765 Y92.149 E0.01997
G1 X85.832 Y97.794 E0.17701
G1 X85.739 Y121.858 E0.75453
G1 X86.329 Y123.727 E0.06146
G1 X86.761 Y124.323 E0.02306
G1 X87.564 Y125.168 E0.03655
G1 X88.694 Y125.879 E0.04187
G1 X90.086 Y126.242 E0.04509
G1 X91.750 Y126.260 E0.05218
G1 X99.261 Y126.157 E0.23554
G1 X100.060 Y125.967 E0.02576
G1 X100.780 Y125.652 E0.02464
G1 X101.612 Y125.070 E0.03184
G1 X101.781 Y124.845 E0.00880
G1 X101.596 Y124.468 F10800.000
G1 F1200.000
G1 X102.378 Y123.437 E0.04058
G1 X102.874 Y121.787 E0.05403
G1 X102.828 Y100.823 E0.65730
G1 X145.449 Y100.877 E1.33635
G1 X145.886 Y100.923 E0.01378
G1 X146.513 Y101.163 E0.02106
G1 X146.612 Y101.251 E0.00415
G1 X146.808 Y101.576 E0.01191
G1 X146.969 Y101.770 E0.00789
G1 X147.146 Y102.390 E0.02020
G1 X147.155 Y121.655 E0.60405
G1 X147.354 Y122.892 E0.03927
G1 X147.877 Y123.998 E0.03838
G1 X148.273 Y124.457 E0.01901
G1 X148.689 Y124.834 F10800.000
G1 F1200.000
G1 X149.006 Y125.088 E0.01274
G1 X151.095 Y125.827 E0.06947
G1 X159.773 Y125.886 E0.27209
G1 X160.929 Y125.637 E0.03708
G1 X161.962 Y125.117 E0.03626
G1 X162.718 Y124.473 E0.03112
G1 X163.314 Y123.620 E0.03262
G1 X163.671 Y122.666 E0.03196
G1 X163.799 Y121.642 E0.03234
G1 X163.869 Y110.193 E0.35899
G1 X163.857 Y102.857 E0.22999
M73 Q0 S108
G1 X163.834 Y102.115 E0.02330
G1 X163.849 Y101.778 E0.01055
G1 X163.785 Y101.207 E0.01804
G1 X163.766 Y100.625 E0.01825
G1 X163.608 Y99.349 E0.04030
G1 X163.321 Y98.030 E0.04231
G1 X163.245 Y97.802 E0.00756
G1 X163.163 Y97.340 E0.01469
G1 X162.850 Y96.477 E0.02881
G1 X162.761 Y96.284 E0.00666
G1 X162.601 Y95.764 E0.01707
G1 X162.116 Y94.640 E0.03836
G1 X161.458 Y93.449 E0.04266
G1 X161.331 Y93.153 E0.01012
G1 X160.751 Y92.299 E0.03234
G1 X160.337 Y91.616 E0.02504
G1 X159.712 Y91.012 E0.02727
G1 X159.392 Y90.485 E0.01933
G1 X158.560 Y89.540 E0.03948
G1 X158.274 Y89.303 E0.01162
G1 X158.016 Y89.040 E0.01156
G1 X157.768 Y88.856 E0.00970
G1 X157.326 Y88.480 E0.01819
G1 X156.974 Y88.130 E0.01557
G1 X156.295 Y87.665 E0.02579
G1 X156.009 Y87.416 E0.01191
G1 X154.895 Y86.699 E0.04152
G1 X154.476 Y86.485 E0.01475
G1 X154.121 Y86.262 E0.01314
G1 X153.780 Y86.109 E0.01172
G1 X153.501 Y85.943 E0.01019
G1 X152.855 Y85.670 E0.02197
G1 X152.585 Y85.595 E0.00878
G1 X152.019 Y85.342 E0.01945
G1 X151.401 Y85.140 E0.02040
G1 X150.890 Y84.936 E0.01723
G1 X150.294 Y84.783 E0.01929
G1 X150.094 Y84.757 E0.00635
G1 X149.680 Y84.634 E0.01352
G1 X149.412 Y84.584 E0.00855
G1 X149.152 Y84.473 E0.00887
G1 X148.487 Y84.310 E0.02145
G1 X148.003 Y84.270 E0.01523
G1 X147.808 Y84.280 E0.00613
G1 X147.272 Y84.210 E0.01696
G1 X146.431 Y84.185 E0.02637
G1 X145.943 Y84.124 E0.01542
G1 X94.365 Y84.123 E1.61718
G1 X92.908 Y84.331 E0.04615
G1 X92.155 Y84.498 E0.02419
G1 X91.707 Y84.675 E0.01509
G1 X91.227 Y84.801 E0.01558
G1 X90.340 Y85.246 E0.03110
G1 X89.945 Y85.583 E0.01630
G1 X89.371 Y85.896 E0.02049
G1 X89.067 Y86.163 E0.01268
G1 X88.619 Y86.507 E0.01771
G1 X87.188 Y88.427 E0.07508
G1 X86.665 Y89.539 E0.03853
G1 X86.431 Y90.350 E0.02645
G1 X86.257 Y91.587 E0.03917
G1 X86.142 Y92.164 E0.01847
G1 X86.209 Y97.792 E0.17646
G1 X86.116 Y121.830 E0.75371
G1 X86.653 Y123.531 E0.05593
G1 X87.044 Y124.074 E0.02098
G1 X87.787 Y124.863 E0.03400
G1 X88.820 Y125.523 E0.03841
G1 X90.113 Y125.865 E0.04196
G1 X91.747 Y125.883 E0.05122
G1 X99.234 Y125.780 E0.23479
G1 X99.954 Y125.605 E0.02323
G1 X100.612 Y125.314 E0.02255
G1 X101.291 Y124.845 E0.02586
G1 X101.133 Y124.468 F10800.000
G1 F1200.000
G1 X102.056 Y123.238 E0.04821
G1 X102.497 Y121.760 E0.04835
G1 X102.450 Y100.446 E0.66831
G1 X145.449 Y100.499 E1.34820
G1 X145.657 Y100.507 E0.00654
G1 X145.998 Y100.559 E0.01081
G1 X146.241 Y100.663 E0.00829
G1 X146.502 Y100.741 E0.00852
G1 X146.732 Y100.852 E0.00802
G1 X146.907 Y101.009 E0.00737
G1 X147.108 Y101.347 E0.01233
G1 X147.314 Y101.595 E0.01010
G1 X147.455 Y102.130 E0.01735
G1 X147.523 Y102.314 E0.00615
G1 X147.532 Y121.640 E0.60598
G1 X147.707 Y122.757 E0.03544
G1 X148.181 Y123.773 E0.03515
G1 X148.648 Y124.319 E0.02253
G1 X148.821 Y124.457 E0.00693
G1 X149.388 Y124.834 F10800.000
G1 F1200.000
G1 X151.129 Y125.451 E0.05789
G1 X159.755 Y125.509 E0.27046
G1 X160.783 Y125.288 E0.03296
G1 X161.737 Y124.813 E0.03343
G1 X162.424 Y124.235 E0.02816
G1 X162.970 Y123.463 E0.02963
G1 X163.300 Y122.596 E0.02909
G1 X163.422 Y121.628 E0.03057
G1 X163.492 Y110.193 E0.35857
M73 P1 R108
M73 Q1 S108
G1 X163.480 Y102.857 E0.23001
G1 X163.474 Y102.287 E0.01787
G1 X163.456 Y102.137 E0.00475
G1 X163.472 Y101.804 E0.01042
G1 X163.409 Y101.233 E0.01802
G1 X163.391 Y100.662 E0.01791
G1 X163.237 Y99.421 E0.03922
G1 X162.955 Y98.121 E0.04169
G1 X162.878 Y97.894 E0.00751
G1 X162.803 Y97.452 E0.01406
G1 X162.499 Y96.614 E0.02798
G1 X162.408 Y96.420 E0.00670
G1 X162.250 Y95.903 E0.01695
G1 X161.774 Y94.798 E0.03773
G1 X161.119 Y93.615 E0.04238
G1 X160.991 Y93.319 E0.01013
G1 X160.434 Y92.504 E0.03095
G1 X160.028 Y91.834 E0.02457
G1 X159.415 Y91.250 E0.02655
G1 X159.097 Y90.720 E0.01938
G1 X158.308 Y89.820 E0.03751
G1 X158.017 Y89.580 E0.01183
G1 X157.779 Y89.333 E0.01076
G1 X157.533 Y89.151 E0.00959
G1 X157.069 Y88.757 E0.01910
G1 X156.745 Y88.431 E0.01440
G1 X156.062 Y87.963 E0.02596
G1 X155.792 Y87.725 E0.01130
G1 X154.699 Y87.021 E0.04075
G1 X154.290 Y86.814 E0.01440
G1 X153.932 Y86.588 E0.01324
G1 X153.606 Y86.444 E0.01119
G1 X153.341 Y86.285 E0.00970
G1 X152.721 Y86.022 E0.02111
G1 X152.459 Y85.952 E0.00851
G1 X151.892 Y85.697 E0.01946
G1 X151.271 Y85.495 E0.02049
G1 X150.784 Y85.298 E0.01645
G1 X150.213 Y85.151 E0.01849
G1 X150.016 Y85.127 E0.00622
G1 X149.601 Y85.003 E0.01360
G1 X149.299 Y84.946 E0.00962
G1 X149.045 Y84.834 E0.00873
G1 X148.441 Y84.685 E0.01950
G1 X147.986 Y84.647 E0.01430
G1 X147.796 Y84.658 E0.00599
G1 X147.251 Y84.587 E0.01723
G1 X146.401 Y84.561 E0.02665
G1 X145.931 Y84.501 E0.01487
G1 X94.379 Y84.500 E1.61637
G1 X92.969 Y84.703 E0.04466
G1 X92.252 Y84.863 E0.02303
G1 X91.824 Y85.034 E0.01447
G1 X91.375 Y85.148 E0.01453
G1 X90.567 Y85.548 E0.02827
G1 X90.158 Y85.897 E0.01685
G1 X89.603 Y86.194 E0.01974
G1 X89.306 Y86.455 E0.01238
G1 X88.869 Y86.790 E0.01727
G1 X87.502 Y88.636 E0.07201
G1 X87.014 Y89.684 E0.03628
G1 X86.798 Y90.440 E0.02465
G1 X86.629 Y91.649 E0.03828
G1 X86.516 Y92.218 E0.01819
G1 X86.586 Y97.790 E0.17472
G1 X86.493 Y121.803 E0.75289
G1 X86.976 Y123.336 E0.05041
G1 X87.328 Y123.824 E0.01887
G1 X88.045 Y124.587 E0.03284
G1 X88.996 Y125.188 E0.03526
G1 X90.140 Y125.488 E0.03710
G1 X91.744 Y125.506 E0.05029
G1 X99.167 Y125.408 E0.23277
G1 X99.818 Y125.253 E0.02098
G1 X100.443 Y124.977 E0.02142
G1 X100.631 Y124.846 E0.00720
G1 X100.516 Y124.469 F10800.000
G1 F1200.000
G1 X100.848 Y124.236 E0.01270
G1 X101.733 Y123.041 E0.04662
G1 X102.120 Y121.734 E0.04274
G1 X102.072 Y100.068 E0.67932
M73 P1 R107
G1 X145.456 Y100.122 E1.36026
G1 X145.693 Y100.131 E0.00744
G1 X146.103 Y100.194 E0.01300
G1 X146.379 Y100.312 E0.00940
G1 X146.637 Y100.387 E0.00845
G1 X146.944 Y100.536 E0.01069
G1 X147.201 Y100.767 E0.01083
G1 X147.424 Y101.140 E0.01362
G1 X147.657 Y101.416 E0.01132
G1 X147.817 Y102.024 E0.01972
G1 X147.900 Y102.244 E0.00737
G1 X147.909 Y121.625 E0.60770
G1 X148.076 Y122.672 E0.03322
G1 X148.484 Y123.548 E0.03031
G1 X148.922 Y124.060 E0.02114
G1 X149.425 Y124.457 E0.02007
;WIPE_START
G1 F8640.000
G1 X148.922 Y124.060 E-0.14782
G1 X148.484 Y123.548 E-0.15568
G1 X148.076 Y122.672 E-0.22319
G1 X147.917 Y121.674 E-0.23331
;WIPE_END
G1 E-0.04000 F2100.000
G1 Z0.600 F10800.000
G1 X150.486 Y124.834
G1 Z0.200
G1 E0.80000 F2100.000
G1 F1200.000
G1 X151.163 Y125.074 E0.02251
G1 X159.736 Y125.131 E0.26880
G1 X160.679 Y124.925 E0.03026
G1 X161.511 Y124.510 E0.02917
G1 X162.162 Y123.963 E0.02667
G1 X162.647 Y123.268 E0.02656
G1 X162.938 Y122.486 E0.02618
G1 X163.045 Y121.616 E0.02748
