; generated by PrusaSlicer 2.3.0+win64 on 2021-04-24 at 08:57:30 UTC

; 

; external perimeters extrusion width = 0.45mm
; perimeters extrusion width = 0.45mm
; infill extrusion width = 0.45mm
; solid infill extrusion width = 0.45mm
; top infill extrusion width = 0.40mm
; support material extrusion width = 0.35mm
; first layer extrusion width = 0.42mm

M73 P0 R83
M73 Q0 S84
M201 X1000 Y1000 Z200 E5000 ; sets maximum accelerations, mm/sec^2
M203 X200 Y200 Z12 E120 ; sets maximum feedrates, mm/sec
M204 P1250 R1250 T1250 ; sets acceleration (P, T) and retract acceleration (R), mm/sec^2
M205 X8.00 Y8.00 Z0.40 E4.50 ; sets the jerk limits, mm/sec
M205 S0 T0 ; sets the minimum extruding and travel feed rate, mm/sec
M107
;TYPE:Custom
M862.3 P "MK3S" ; printer model check
M862.1 P0.4 ; nozzle diameter check
M115 U3.9.2 ; tell printer latest fw version
G90 ; use absolute coordinates
M83 ; extruder relative mode
M104 S215 ; set extruder temp
M140 S60 ; set bed temp
M190 S60 ; wait for bed temp
M109 S215 ; wait for extruder temp
G28 W ; home all without mesh bed level
G80 ; mesh bed leveling
G1 Y-3.0 F1000.0 ; go outside print area
G92 E0.0
G1 X60.0 E9.0 F1000.0 ; intro line
G1 X100.0 E12.5 F1000.0 ; intro line
G92 E0.0
M221 S95

; Don't change E values below. Excessive value can damage the printer.

G21 ; set units to millimeters
G90 ; use absolute coordinates
M83 ; use relative distances for extrusion
M900 K0.05 ; Filament gcode LA 1.5
M900 K30 ; Filament gcode LA 1.0
;LAYER_CHANGE
;Z:0.2
;HEIGHT:0.2
;BEFORE_LAYER_CHANGE
G92 E0.0
;0.2


G1 E-0.80000 F2100.000
G1 Z0.400 F10800.000
;AFTER_LAYER_CHANGE
;0.2
G1 X114.330 Y88.161
M73 Q0 S83
G1 Z0.200
G1 E0.80000 F2100.000
M204 S1000
;TYPE:Skirt
;WIDTH:0.42
G1 F1200.000
G1 X116.065 Y87.287 E0.06091
G1 X117.237 Y86.907 E0.03862
G1 X122.182 Y86.871 E0.15507
G1 X122.816 Y86.946 E0.02001
G1 X123.653 Y87.220 E0.02762
G1 X125.254 Y87.987 E0.05565
G1 X125.843 Y88.420 E0.02294
G1 X139.312 Y103.393 E0.63145
G1 X139.712 Y104.063 E0.02447
G1 X139.908 Y104.818 E0.02447
G1 X139.919 Y108.813 E0.12527
G1 X139.696 Y109.725 E0.02942
G1 X139.181 Y110.509 E0.02942
G1 X129.370 Y120.047 E0.42904
G1 X124.852 Y122.339 E0.15882
G1 X120.268 Y123.097 E0.14569
G1 X119.667 Y123.121 E0.01886
G1 X115.193 Y122.426 E0.14195
G1 X114.485 Y122.198 E0.02333
G1 X110.305 Y120.034 E0.14760
G1 X108.490 Y118.267 E0.07942
G1 X108.010 Y117.546 E0.02714
G1 X107.827 Y117.003 E0.01796
G1 X107.760 Y116.434 E0.01796
G1 X107.766 Y97.162 E0.60426
G1 X107.925 Y96.411 E0.02409
G1 X108.288 Y95.729 E0.02422
G1 X113.778 Y88.684 E0.28005
G1 X114.286 Y88.202 E0.02195
G1 X114.544 Y88.475 F10800.000
G1 F1200.000
G1 X116.214 Y87.633 E0.05863
G1 X117.310 Y87.278 E0.03612
G1 X122.182 Y87.248 E0.15278
G1 X122.737 Y87.314 E0.01752
G1 X123.512 Y87.570 E0.02561
G1 X125.068 Y88.315 E0.05408
G1 X125.591 Y88.700 E0.02036
G1 X139.023 Y103.634 E0.62977
G1 X139.370 Y104.222 E0.02142
G1 X139.536 Y104.885 E0.02142
G1 X139.543 Y108.792 E0.12251
G1 X139.347 Y109.583 E0.02555
G1 X138.895 Y110.262 E0.02555
G1 X129.147 Y119.743 E0.42636
G1 X124.739 Y121.979 E0.15499
G1 X120.214 Y122.723 E0.14377
G1 X119.690 Y122.745 E0.01645
G1 X115.263 Y122.055 E0.14047
G1 X114.659 Y121.863 E0.01989
G1 X110.533 Y119.734 E0.14557
G1 X108.772 Y118.017 E0.07711
G1 X108.348 Y117.379 E0.02402
G1 X108.193 Y116.914 E0.01538
G1 X108.137 Y116.423 E0.01550
G1 X108.143 Y97.183 E0.60323
G1 X108.283 Y96.530 E0.02095
G1 X108.600 Y95.942 E0.02095
G1 X114.072 Y88.920 E0.27911
G1 X114.500 Y88.516 E0.01847
;WIPE_START
G1 F8640.000
G1 X116.214 Y87.633 E-0.44510
G1 X117.310 Y87.278 E-0.26601
G1 X117.521 Y87.276 E-0.04889
;WIPE_END
G1 E-0.04000 F2100.000
G1 Z0.600 F10800.000
G1 X107.577 Y101.120
G1 Z0.200
G1 E0.80000 F2100.000
G1 F1200.000
G1 X107.321 Y100.921 E0.01016
G1 X106.164 Y99.347 E0.06125
G1 X105.733 Y98.053 E0.04276
G1 X105.667 Y97.312 E0.02334
G1 X105.874 Y95.960 E0.04287
G1 X106.494 Y94.749 E0.04266
G1 X108.927 Y92.300 E0.10824
G1 X111.438 Y90.933 E0.08965
G1 X111.487 Y89.609 E0.04153
G1 X111.870 Y88.501 E0.03676
G1 X112.377 Y87.688 E0.03004
G1 X113.028 Y86.986 E0.03002
G1 X114.535 Y86.112 E0.05462
G1 X116.116 Y85.474 E0.05346
G1 X116.832 Y85.252 E0.02353
G1 X117.105 Y85.190 E0.00877
G1 X117.341 Y85.096 E0.00795
G1 X117.792 Y84.976 E0.01464
G1 X121.252 Y84.924 E0.10849
G1 X121.966 Y85.011 E0.02257
G1 X122.851 Y85.198 E0.02836
G1 X123.464 Y85.380 E0.02003
G1 X124.616 Y85.791 E0.03836
G1 X126.090 Y86.470 E0.05087
G1 X127.016 Y87.159 E0.03618
G1 X127.870 Y88.270 E0.04395
G1 X128.362 Y89.556 E0.04317
G1 X128.428 Y91.011 E0.04565
G1 X128.464 Y91.051 F10800.000
G1 F1200.000
G1 X130.817 Y92.336 E0.08406
G1 X134.341 Y95.845 E0.15592
G1 X136.678 Y100.182 E0.15446
G1 X136.945 Y100.478 F10800.000
G1 F1200.000
G1 X137.190 Y100.500 E0.00773
G1 X138.151 Y100.835 E0.03189
G1 X138.953 Y101.329 E0.02955
G1 X139.815 Y102.167 E0.03769
G1 X140.459 Y103.210 E0.03844
G1 X140.811 Y104.469 E0.04099
G1 X140.830 Y109.151 E0.14682
G1 X140.375 Y110.725 E0.05138
G1 X139.807 Y111.589 E0.03241
G1 X138.882 Y112.476 E0.04018
G1 X137.806 Y113.062 E0.03843
G1 X136.815 Y113.322 E0.03211
G1 X134.676 Y117.449 E0.14574
G1 X130.731 Y121.477 E0.17678
G1 X125.368 Y124.229 E0.18898
G1 X119.432 Y125.083 E0.18803
G1 X114.192 Y124.186 E0.16669
G1 X109.395 Y121.789 E0.16815
G1 X106.674 Y119.214 E0.11744
G1 X106.267 Y118.660 E0.02158
G1 X105.735 Y117.258 E0.04702
G1 X105.666 Y116.253 E0.03156
G1 X105.819 Y115.256 E0.03163
G1 X106.237 Y114.287 E0.03311
G1 X107.163 Y113.012 E0.04940
G1 X107.573 Y112.583 E0.01859
G1 X108.327 Y112.123 F10800.000
G1 F1200.000
G1 X108.657 Y111.922 E0.01214
G1 X109.937 Y111.588 E0.04146
G1 X110.889 Y111.582 E0.02985
G1 X111.897 Y111.825 E0.03252
G1 X114.768 Y113.276 E0.10085
G1 X116.847 Y113.606 E0.06601
G1 X118.926 Y113.276 E0.06601
G1 X120.803 Y112.320 E0.06604
G1 X122.292 Y110.831 E0.06603
G1 X123.248 Y108.954 E0.06604
G1 X123.578 Y106.875 E0.06601
G1 X123.248 Y104.796 E0.06601
G1 X122.292 Y102.919 E0.06604
G1 X120.803 Y101.430 E0.06603
G1 X118.926 Y100.474 E0.06604
G1 X116.847 Y100.144 E0.06601
G1 X114.768 Y100.474 E0.06601
G1 X111.977 Y101.895 E0.09819
G1 X110.923 Y102.164 E0.03412
G1 X110.068 Y102.174 E0.02681
G1 X108.694 Y101.850 E0.04424
G1 X108.330 Y101.657 E0.01293
G1 X108.330 Y101.230 F10800.000
G1 F1200.000
G1 X108.848 Y101.505 E0.01838
G1 X110.130 Y101.802 E0.04127
G1 X110.853 Y101.793 E0.02266
G1 X111.825 Y101.550 E0.03144
G1 X114.650 Y100.111 E0.09938
G1 X116.847 Y99.762 E0.06975
G1 X119.044 Y100.111 E0.06975
G1 X121.027 Y101.121 E0.06979
G1 X122.601 Y102.695 E0.06978
G1 X123.611 Y104.678 E0.06979
G1 X123.959 Y106.875 E0.06975
G1 X123.611 Y109.072 E0.06975
G1 X122.601 Y111.055 E0.06979
G1 X121.027 Y112.629 E0.06978
G1 X119.044 Y113.639 E0.06979
G1 X116.847 Y113.988 E0.06975
G1 X114.650 Y113.639 E0.06975
G1 X111.786 Y112.186 E0.10071
G1 X110.865 Y111.959 E0.02973
G1 X110.006 Y111.959 E0.02693
G1 X108.828 Y112.259 E0.03813
G1 X108.327 Y112.561 E0.01834
G1 X107.573 Y113.127 F10800.000
G1 F1200.000
G1 X107.461 Y113.244 E0.00508
G1 X106.554 Y114.492 E0.04834
G1 X106.187 Y115.339 E0.02896
G1 X106.043 Y116.249 E0.02888
G1 X106.109 Y117.203 E0.02998
G1 X106.609 Y118.499 E0.04356
G1 X106.945 Y118.951 E0.01766
G1 X109.634 Y121.496 E0.11606
G1 X114.335 Y123.836 E0.16467
G1 X119.466 Y124.707 E0.16318
G1 X125.283 Y123.860 E0.18431
G1 X130.482 Y121.191 E0.18325
G1 X134.386 Y117.205 E0.17494
G1 X136.223 Y113.648 E0.12552
;WIPE_START
G1 F8640.000
G1 X134.713 Y116.572 E-0.76000
;WIPE_END
G1 E-0.04000 F2100.000
G1 Z0.600 F10800.000
G1 X137.009 Y112.883
G1 Z0.200
G1 E0.80000 F2100.000
G1 F1200.000
G1 X137.646 Y112.720 E0.02061
G1 X138.679 Y112.157 E0.03688
G1 X139.505 Y111.362 E0.03594
G1 X140.021 Y110.590 E0.02912
G1 X140.453 Y109.124 E0.04791
G1 X140.441 Y104.543 E0.14363
G1 X140.123 Y103.383 E0.03773
G1 X139.534 Y102.420 E0.03538
G1 X138.706 Y101.614 E0.03625
G1 X137.973 Y101.168 E0.02691
G1 X137.382 Y100.965 E0.01957
;WIPE_START
G1 F8640.000
G1 X137.973 Y101.168 E-0.14412
G1 X138.706 Y101.614 E-0.19816
G1 X139.534 Y102.420 E-0.26699
G1 X139.875 Y102.977 E-0.15073
;WIPE_END
G1 E-0.04000 F2100.000
G1 Z0.600 F10800.000
G1 X135.617 Y99.003
G1 Z0.200
G1 E0.80000 F2100.000
G1 F1200.000
G1 X134.055 Y96.092 E0.10358
G1 X130.570 Y92.623 E0.15418
G1 X129.218 Y91.889 E0.04824
;WIPE_START
G1 F8640.000
G1 X130.570 Y92.623 E-0.35523
G1 X131.812 Y93.860 E-0.40477
;WIPE_END
G1 E-0.04000 F2100.000
G1 Z0.600 F10800.000
G1 X128.033 Y90.572
G1 Z0.200
G1 E0.80000 F2100.000
G1 F1200.000
G1 X127.999 Y89.659 E0.02864
G1 X127.553 Y88.476 E0.03965
G1 X126.768 Y87.444 E0.04064
G1 X125.913 Y86.804 E0.03348
G1 X124.481 Y86.143 E0.04944
G1 X123.342 Y85.737 E0.03794
G1 X122.751 Y85.561 E0.01931
G1 X121.897 Y85.382 E0.02737
G1 X121.219 Y85.299 E0.02142
G1 X117.866 Y85.347 E0.10513
G1 X117.450 Y85.457 E0.01352
G1 X117.218 Y85.551 E0.00782
G1 X116.937 Y85.614 E0.00906
G1 X116.235 Y85.832 E0.02304
G1 X114.688 Y86.457 E0.05232
G1 X113.284 Y87.264 E0.05078
G1 X112.686 Y87.905 E0.02748
G1 X112.220 Y88.646 E0.02745
G1 X111.853 Y89.705 E0.03515
G1 X111.817 Y90.893 E0.03727
G1 X111.462 Y91.349 F10800.000
G1 F1200.000
G1 X109.175 Y92.586 E0.08153
G1 X106.783 Y94.993 E0.10641
G1 X106.225 Y96.102 E0.03890
G1 X106.043 Y97.344 E0.03937
G1 X106.098 Y97.957 E0.01932
G1 X106.486 Y99.150 E0.03932
G1 X107.577 Y100.643 E0.05796
G1 X107.577 Y100.014 F10800.000
G1 F1200.000
G1 X106.810 Y98.954 E0.04102
G1 X106.464 Y97.864 E0.03588
G1 X106.419 Y97.374 E0.01543
G1 X106.577 Y96.240 E0.03588
G1 X107.072 Y95.237 E0.03508
G1 X109.422 Y92.871 E0.10454
G1 X110.890 Y92.083 E0.05223
;WIPE_START
G1 F8640.000
G1 X109.422 Y92.871 E-0.38464
G1 X108.277 Y94.025 E-0.37536
;WIPE_END
G1 E-0.04000 F2100.000
G1 Z0.600 F10800.000
G1 X112.210 Y90.390
G1 Z0.200
G1 E0.80000 F2100.000
G1 F1200.000
G1 X112.229 Y89.746 E0.02018
G1 X112.567 Y88.793 E0.03172
G1 X112.994 Y88.123 E0.02490
G1 X113.539 Y87.543 E0.02494
G1 X114.840 Y86.802 E0.04697
G1 X116.354 Y86.189 E0.05120
G1 X117.041 Y85.977 E0.02254
G1 X117.332 Y85.912 E0.00937
G1 X117.559 Y85.818 E0.00768
G1 X117.941 Y85.717 E0.01238
G1 X121.186 Y85.675 E0.10177
G1 X121.828 Y85.753 E0.02027
G1 X122.652 Y85.925 E0.02639
G1 X123.220 Y86.094 E0.01859
G1 X124.347 Y86.496 E0.03751
G1 X125.736 Y87.138 E0.04800
G1 X126.519 Y87.729 E0.03075
G1 X127.234 Y88.680 E0.03730
G1 X127.634 Y89.760 E0.03613
G1 X127.646 Y90.142 E0.01197
;WIPE_START
G1 F8640.000
G1 X127.634 Y89.760 E-0.08813
G1 X127.234 Y88.680 E-0.26607
G1 X126.519 Y87.729 E-0.27472
G1 X126.066 Y87.387 E-0.13107
;WIPE_END
G1 E-0.04000 F2100.000
G1 Z0.600 F10800.000
G1 X127.683 Y91.308
G1 Z0.200
G1 E0.80000 F2100.000
G1 F1200.000
G1 X127.688 Y91.490 E0.00570
G1 X127.994 Y91.654 E0.01090
;WIPE_START
G1 F8640.000
G1 X127.688 Y91.490 E-0.08027
G1 X127.683 Y91.308 E-0.04198
;WIPE_END
G1 E-0.67776 F2100.000
G1 Z0.600 F10800.000
G1 X129.959 Y92.713
G1 Z0.200
G1 E0.80000 F2100.000
G1 F1200.000
G1 X130.324 Y92.909 E0.01300
G1 X133.769 Y96.340 E0.15244
G1 X134.571 Y97.840 E0.05335
;WIPE_START
G1 F8640.000
G1 X133.769 Y96.340 E-0.39288
G1 X132.642 Y95.218 E-0.36712
;WIPE_END
G1 E-0.04000 F2100.000
G1 Z0.600 F10800.000
G1 X136.058 Y100.619
G1 Z0.200
G1 E0.80000 F2100.000
G1 F1200.000
G1 X136.369 Y101.201 E0.02070
G1 X136.591 Y101.212 E0.00697
;WIPE_START
G1 F8640.000
G1 X136.369 Y101.201 E-0.05133
G1 X136.058 Y100.619 E-0.15245
;WIPE_END
G1 E-0.59622 F2100.000
G1 Z0.600 F10800.000
G1 X137.946 Y101.591
G1 Z0.200
G1 E0.80000 F2100.000
G1 F1200.000
G1 X138.459 Y101.900 E0.01877
G1 X139.254 Y102.673 E0.03479
G1 X139.786 Y103.554 E0.03227
G1 X140.070 Y104.616 E0.03447
G1 X140.070 Y104.690 E0.00230
;WIPE_START
G1 F8640.000
G1 X140.070 Y104.616 E-0.01694
G1 X139.786 Y103.554 E-0.25385
G1 X139.254 Y102.673 E-0.23764
G1 X138.473 Y101.914 E-0.25157
;WIPE_END
G1 E-0.04000 F2100.000
G1 Z0.600 F10800.000
G1 X140.076 Y108.967
G1 Z0.200
G1 E0.80000 F2100.000
G1 F1200.000
G1 X140.076 Y109.097 E0.00406
G1 X139.904 Y109.669 E0.01872
G1 X139.858 Y109.821 F10800.000
G1 F1200.000
G1 X139.669 Y110.453 E0.02067
G1 X139.205 Y111.134 E0.02583
G1 X138.475 Y111.839 E0.03184
G1 X137.570 Y112.338 E0.03240
;WIPE_START
G1 F8640.000
G1 X138.475 Y111.839 E-0.23857
G1 X139.205 Y111.134 E-0.23447
G1 X139.669 Y110.453 E-0.19021
G1 X139.789 Y110.052 E-0.09675
;WIPE_END
G1 E-0.04000 F2100.000
G1 Z0.600 F10800.000
G1 X135.378 Y114.469
G1 Z0.200
G1 E0.80000 F2100.000
G1 F1200.000
G1 X134.097 Y116.962 E0.08787
G1 X130.235 Y120.905 E0.17308
G1 X125.139 Y123.510 E0.17943
G1 X119.499 Y124.330 E0.17869
G1 X114.477 Y123.486 E0.15967
G1 X109.872 Y121.203 E0.16117
G1 X107.215 Y118.688 E0.11471
G1 X106.950 Y118.337 E0.01380
G1 X106.483 Y117.146 E0.04010
G1 X106.419 Y116.286 E0.02703
G1 X106.556 Y115.422 E0.02743
G1 X106.871 Y114.697 E0.02480
G1 X107.572 Y113.732 E0.03740
;WIPE_START
G1 F8640.000
G1 X106.871 Y114.697 E-0.27539
G1 X106.556 Y115.422 E-0.18262
G1 X106.419 Y116.286 E-0.20198
G1 X106.451 Y116.718 E-0.10001
;WIPE_END
G1 E-0.04000 F2100.000
G1 Z0.600 F10800.000
G1 X108.327 Y112.997
G1 Z0.200
G1 E0.80000 F2100.000
G1 F1200.000
G1 X108.996 Y112.598 E0.02442
G1 X110.074 Y112.331 E0.03483
G1 X110.797 Y112.331 E0.02267
G1 X111.674 Y112.547 E0.02833
G1 X114.532 Y114.003 E0.10055
G1 X116.847 Y114.369 E0.07350
G1 X119.162 Y114.003 E0.07350
G1 X121.252 Y112.938 E0.07353
G1 X122.910 Y111.280 E0.07352
G1 X123.974 Y109.190 E0.07353
G1 X124.341 Y106.875 E0.07350
G1 X123.974 Y104.560 E0.07350
G1 X122.910 Y102.470 E0.07353
G1 X121.252 Y100.812 E0.07352
G1 X119.162 Y99.747 E0.07353
G1 X116.847 Y99.381 E0.07350
G1 X114.532 Y99.747 E0.07350
G1 X111.674 Y101.203 E0.10056
G1 X110.784 Y101.421 E0.02872
G1 X110.191 Y101.429 E0.01860
G1 X108.999 Y101.159 E0.03832
G1 X108.561 Y100.932 E0.01546
G1 X108.330 Y100.752 E0.00918
G1 X108.331 Y100.274 F10800.000
G1 F1200.000
G1 X108.779 Y100.623 E0.01781
G1 X109.148 Y100.812 E0.01302
G1 X110.251 Y101.056 E0.03540
G1 X110.717 Y101.050 E0.01463
G1 X111.523 Y100.857 E0.02598
G1 X114.414 Y99.384 E0.10171
G1 X116.847 Y98.999 E0.07724
G1 X119.280 Y99.384 E0.07724
G1 X121.476 Y100.503 E0.07728
G1 X123.219 Y102.246 E0.07727
G1 X124.338 Y104.442 E0.07728
G1 X124.723 Y106.875 E0.07724
G1 X124.338 Y109.308 E0.07724
G1 X123.219 Y111.504 E0.07728
G1 X121.476 Y113.247 E0.07727
G1 X119.280 Y114.366 E0.07728
G1 X116.847 Y114.751 E0.07724
G1 X114.414 Y114.366 E0.07724
G1 X111.524 Y112.893 E0.10171
G1 X110.731 Y112.703 E0.02556
G1 X110.140 Y112.702 E0.01854
G1 X109.162 Y112.937 E0.03154
G1 X108.327 Y113.430 E0.03039
;WIPE_START
G1 F8640.000
G1 X109.162 Y112.937 E-0.22382
G1 X110.140 Y112.702 E-0.23226
G1 X110.731 Y112.703 E-0.13656
G1 X111.436 Y112.872 E-0.16736
;WIPE_END
G1 E-0.04000 F2100.000
G1 Z0.600 F10800.000
G1 X107.572 Y114.374
G1 Z0.200
G1 E0.80000 F2100.000
G1 F1200.000
G1 X107.188 Y114.902 E0.02048
G1 X106.924 Y115.507 E0.02070
G1 X106.797 Y116.281 E0.02459
G1 X106.857 Y117.088 E0.02539
G1 X107.290 Y118.171 E0.03655
G1 X107.485 Y118.424 E0.01003
G1 X110.066 Y120.878 E0.11166
G1 X114.568 Y123.119 E0.15767
G1 X119.533 Y123.953 E0.15786
G1 X125.054 Y123.142 E0.17496
G1 X129.986 Y120.620 E0.17371
G1 X133.807 Y116.718 E0.17122
G1 X134.543 Y115.281 E0.05063
;WIPE_START
G1 F8640.000
G1 X133.807 Y116.718 E-0.37288
G1 X132.634 Y117.916 E-0.38712
;WIPE_END
G1 E-0.04000 F2100.000
G1 Z0.600 F10800.000
G1 X135.611 Y113.193
G1 Z0.200
G1 E0.80000 F2100.000
G1 F1200.000
G1 X135.992 Y112.449 E0.02621
G1 X136.061 Y112.200 E0.00808
G1 X136.645 Y112.188 E0.01832
;WIPE_START
G1 F8640.000
G1 X136.061 Y112.200 E-0.13492
G1 X135.992 Y112.449 E-0.05948
G1 X135.611 Y113.193 E-0.19299
;WIPE_END
G1 E-0.41260 F2100.000
G1 Z0.600 F10800.000
G1 X136.952 Y101.613
M73 Q1 S83
G1 Z0.200
G1 E0.80000 F2100.000
G1 F1200.000
G1 X136.061 Y101.570 E0.02795
G1 X135.983 Y101.279 E0.00945
G1 X135.012 Y99.456 E0.06475
;WIPE_START
G1 F8640.000
G1 X135.983 Y101.279 E-0.47680
M73 P1 R83
G1 X136.061 Y101.570 E-0.06958
G1 X136.952 Y101.613 E-0.20585
;WIPE_END
G1 E-0.04776 F2100.000
G1 Z0.600 F10800.000
G1 X133.539 Y96.693
G1 Z0.200
G1 E0.80000 F2100.000
G1 F1200.000
G1 X133.483 Y96.587 E0.00375
G1 X133.111 Y96.217 E0.01645
;WIPE_START
G1 F8640.000
