; generated by PrusaSlicer 2.3.0+win64 on 2021-04-27 at 18:59:57 UTC

; 

; external perimeters extrusion width = 0.45mm
; perimeters extrusion width = 0.45mm
; infill extrusion width = 0.45mm
; solid infill extrusion width = 0.45mm
; top infill extrusion width = 0.40mm
; first layer extrusion width = 0.42mm

M73 P0 R49
M73 Q0 S49
M201 X1000 Y1000 Z200 E5000 ; sets maximum accelerations, mm/sec^2
M203 X200 Y200 Z12 E120 ; sets maximum feedrates, mm/sec
M204 P1250 R1250 T1250 ; sets acceleration (P, T) and retract acceleration (R), mm/sec^2
M205 X8.00 Y8.00 Z0.40 E4.50 ; sets the jerk limits, mm/sec
M205 S0 T0 ; sets the minimum extruding and travel feed rate, mm/sec
M107
;TYPE:Custom
M862.3 P "MK3S" ; printer model check
M862.1 P0.4 ; nozzle diameter check
M115 U3.9.2 ; tell printer latest fw version
G90 ; use absolute coordinates
M83 ; extruder relative mode
M104 S215 ; set extruder temp
M140 S60 ; set bed temp
M190 S60 ; wait for bed temp
M109 S215 ; wait for extruder temp
G28 W ; home all without mesh bed level
G80 ; mesh bed leveling
G1 Y-3.0 F1000.0 ; go outside print area
G92 E0.0
G1 X60.0 E9.0 F1000.0 ; intro line
G1 X100.0 E12.5 F1000.0 ; intro line
G92 E0.0
M221 S95

; Don't change E values below. Excessive value can damage the printer.

G21 ; set units to millimeters
G90 ; use absolute coordinates
M83 ; use relative distances for extrusion
M900 K0.05 ; Filament gcode LA 1.5
M900 K30 ; Filament gcode LA 1.0
;LAYER_CHANGE
;Z:0.2
;HEIGHT:0.2
;BEFORE_LAYER_CHANGE
G92 E0.0
;0.2


G1 E-0.80000 F2100.000
G1 Z0.400 F10800.000
;AFTER_LAYER_CHANGE
;0.2
G1 X114.219 Y94.619
G1 Z0.200
G1 E0.80000 F2100.000
M204 S1000
;TYPE:Skirt
;WIDTH:0.42
G1 F1200.000
G1 X119.478 Y90.197 E0.21541
G1 X120.666 Y89.596 E0.04174
G1 X121.444 Y89.409 E0.02511
G1 X128.374 Y89.398 E0.21727
G1 X129.329 Y89.571 E0.03044
G1 X130.563 Y90.213 E0.04361
G1 X135.421 Y94.253 E0.19812
G1 X135.813 Y94.660 E0.01771
G1 X137.976 Y97.518 E0.11239
G1 X139.369 Y100.824 E0.11248
G1 X139.537 Y101.469 E0.02090
G1 X139.978 Y105.016 E0.11208
G1 X139.493 Y108.774 E0.11879
G1 X137.988 Y112.461 E0.12488
G1 X135.773 Y115.391 E0.11515
G1 X135.394 Y115.770 E0.01681
G1 X130.494 Y119.736 E0.19765
G1 X129.133 Y120.406 E0.04756
G1 X128.350 Y120.591 E0.02523
G1 X121.878 Y120.602 E0.20291
G1 X121.293 Y120.533 E0.01848
G1 X120.754 Y120.351 E0.01784
G1 X119.398 Y119.663 E0.04768
G1 X114.549 Y115.722 E0.19593
G1 X114.183 Y115.335 E0.01669
G1 X112.008 Y112.453 E0.11320
G1 X110.630 Y109.172 E0.11159
G1 X110.462 Y108.527 E0.02090
G1 X110.022 Y104.983 E0.11198
G1 X110.507 Y101.226 E0.11876
G1 X112.012 Y97.539 E0.12488
G1 X114.183 Y94.667 E0.11289
G1 X114.484 Y94.894 F10800.000
G1 F1200.000
G1 X119.693 Y90.507 E0.21354
G1 X120.802 Y89.947 E0.03895
G1 X121.489 Y89.784 E0.02213
G1 X128.373 Y89.775 E0.21586
G1 X129.215 Y89.931 E0.02684
G1 X130.365 Y90.534 E0.04070
G1 X135.190 Y94.551 E0.19687
G1 X137.653 Y97.714 E0.12567
G1 X139.017 Y100.958 E0.11035
G1 X139.164 Y101.521 E0.01823
G1 X139.601 Y105.012 E0.11033
G1 X139.124 Y108.699 E0.11657
G1 X137.656 Y112.282 E0.12140
G1 X135.478 Y115.156 E0.11307
G1 X130.292 Y119.418 E0.21045
G1 X128.999 Y120.053 E0.04516
G1 X128.309 Y120.216 E0.02225
G1 X121.884 Y120.225 E0.20145
G1 X121.370 Y120.164 E0.01621
G1 X120.906 Y120.006 E0.01538
G1 X119.612 Y119.352 E0.04544
G1 X114.792 Y115.433 E0.19480
G1 X112.336 Y112.267 E0.12565
G1 X110.982 Y109.038 E0.10976
G1 X110.836 Y108.479 E0.01811
G1 X110.399 Y104.987 E0.11037
G1 X110.877 Y101.301 E0.11653
G1 X112.344 Y97.718 E0.12139
G1 X114.448 Y94.942 E0.10920
;WIPE_START
G1 F8640.000
G1 X116.961 Y92.817 E-0.76000
;WIPE_END
G1 E-0.04000 F2100.000
G1 Z0.600 F10800.000
G1 X117.158 Y90.239
G1 Z0.200
G1 E0.80000 F2100.000
G1 F1200.000
G1 X117.530 Y89.662 E0.02151
G1 X118.469 Y88.792 E0.04015
G1 X120.127 Y87.941 E0.05841
M73 P0 R48
G1 X121.904 Y87.452 E0.05780
G1 X128.044 Y87.447 E0.19250
G1 X129.372 Y87.738 E0.04261
G1 X130.675 Y88.311 E0.04464
G1 X131.559 Y88.806 E0.03177
G1 X132.467 Y89.659 E0.03906
G1 X132.843 Y90.237 E0.02164
G1 X133.687 Y90.640 E0.02932
G1 X136.636 Y92.903 E0.11653
G1 X139.435 Y96.441 E0.14147
G1 X141.131 Y100.371 E0.13421
G1 X141.779 Y104.636 E0.13525
G1 X141.302 Y108.986 E0.13721
G1 X139.716 Y113.068 E0.13733
G1 X137.126 Y116.602 E0.13737
G1 X133.719 Y119.338 E0.13702
G1 X132.754 Y119.801 E0.03354
G1 X132.396 Y120.327 E0.01996
G1 X131.400 Y121.207 E0.04168
G1 X130.369 Y121.724 E0.03616
G1 X128.974 Y122.290 E0.04721
G1 X128.075 Y122.514 E0.02905
G1 X121.361 Y122.409 E0.21052
G1 X120.068 Y121.931 E0.04322
G1 X118.647 Y121.239 E0.04956
G1 X117.606 Y120.329 E0.04336
G1 X117.248 Y119.804 E0.01993
G1 X116.313 Y119.360 E0.03244
G1 X113.369 Y117.101 E0.11637
G1 X110.647 Y113.699 E0.13661
G1 X108.703 Y109.017 E0.15894
G1 X108.217 Y105.025 E0.12608
G1 X108.701 Y100.997 E0.12721
G1 X110.285 Y96.931 E0.13681
G1 X112.874 Y93.398 E0.13735
G1 X116.281 Y90.662 E0.13701
G1 X117.104 Y90.265 E0.02865
G1 X117.419 Y90.533 F10800.000
G1 F1200.000
G1 X117.806 Y89.922 E0.02266
G1 X118.706 Y89.086 E0.03852
G1 X120.280 Y88.286 E0.05536
G1 X121.979 Y87.822 E0.05522
G1 X127.984 Y87.820 E0.18829
G1 X129.237 Y88.090 E0.04020
G1 X130.516 Y88.652 E0.04378
G1 X131.318 Y89.097 E0.02877
G1 X132.191 Y89.917 E0.03755
G1 X132.583 Y90.532 E0.02287
G1 X133.474 Y90.952 E0.03087
G1 X136.387 Y93.187 E0.11514
G1 X139.123 Y96.655 E0.13850
G1 X140.775 Y100.497 E0.13113
G1 X141.402 Y104.667 E0.13221
M73 Q0 S48
G1 X140.930 Y108.919 E0.13414
G1 X139.373 Y112.908 E0.13425
G1 X136.837 Y116.359 E0.13429
G1 X133.501 Y119.030 E0.13401
G1 X132.497 Y119.505 E0.03480
G1 X132.127 Y120.062 E0.02096
G1 X131.169 Y120.908 E0.04008
G1 X130.221 Y121.377 E0.03317
G1 X128.845 Y121.936 E0.04658
G1 X128.008 Y122.142 E0.02702
G1 X121.462 Y122.044 E0.20527
G1 X120.225 Y121.588 E0.04134
G1 X118.835 Y120.912 E0.04845
G1 X117.875 Y120.064 E0.04017
G1 X117.505 Y119.507 E0.02096
G1 X116.526 Y119.048 E0.03388
G1 X113.617 Y116.815 E0.11500
G1 X110.958 Y113.484 E0.13363
G1 X109.075 Y108.946 E0.15407
G1 X108.594 Y105.003 E0.12456
G1 X109.073 Y101.066 E0.12432
G1 X110.627 Y97.092 E0.13381
G1 X113.163 Y93.641 E0.13427
G1 X116.499 Y90.970 E0.13400
G1 X117.365 Y90.558 E0.03006
G1 X117.681 Y90.826 F10800.000
G1 F1200.000
G1 X118.081 Y90.180 E0.02382
G1 X118.943 Y89.381 E0.03685
G1 X120.432 Y88.631 E0.05227
G1 X122.053 Y88.193 E0.05265
G1 X127.964 Y88.197 E0.18533
G1 X129.103 Y88.443 E0.03654
G1 X130.357 Y88.995 E0.04295
G1 X131.078 Y89.389 E0.02577
G1 X131.915 Y90.174 E0.03599
G1 X132.322 Y90.827 E0.02410
G1 X133.261 Y91.264 E0.03248
G1 X136.139 Y93.472 E0.11374
G1 X138.812 Y96.869 E0.13551
G1 X140.419 Y100.623 E0.12806
M73 Q1 S48
G1 X141.026 Y104.698 E0.12917
M73 P1 R48
G1 X140.558 Y108.852 E0.13107
G1 X139.032 Y112.747 E0.13116
G1 X136.548 Y116.115 E0.13120
G1 X133.283 Y118.721 E0.13098
G1 X132.239 Y119.209 E0.03613
G1 X131.857 Y119.798 E0.02202
G1 X130.979 Y120.581 E0.03689
G1 X130.073 Y121.030 E0.03170
G1 X128.716 Y121.581 E0.04592
G1 X127.942 Y121.770 E0.02498
G1 X121.562 Y121.680 E0.20006
G1 X120.381 Y121.244 E0.03945
G1 X119.024 Y120.584 E0.04733
G1 X118.145 Y119.800 E0.03692
G1 X117.762 Y119.211 E0.02204
G1 X116.739 Y118.736 E0.03537
G1 X113.864 Y116.530 E0.11361
G1 X111.269 Y113.270 E0.13065
G1 X109.446 Y108.874 E0.14922
G1 X108.971 Y105.025 E0.12160
G1 X109.444 Y101.136 E0.12284
G1 X110.969 Y97.253 E0.13080
G1 X113.452 Y93.885 E0.13119
G1 X116.717 Y91.279 E0.13098
G1 X117.627 Y90.852 E0.03154
G1 X117.945 Y91.120 F10800.000
G1 F1200.000
G1 X118.358 Y90.438 E0.02499
G1 X119.179 Y89.676 E0.03514
G1 X120.583 Y88.977 E0.04917
G1 X122.078 Y88.570 E0.04858
G1 X127.943 Y88.574 E0.18390
G1 X128.969 Y88.796 E0.03289
G1 X130.199 Y89.337 E0.04214
G1 X130.838 Y89.681 E0.02277
G1 X131.638 Y90.432 E0.03438
G1 X132.059 Y91.121 E0.02534
G1 X133.048 Y91.576 E0.03414
G1 X135.891 Y93.757 E0.11232
G1 X138.499 Y97.082 E0.13251
G1 X140.063 Y100.749 E0.12498
G1 X140.649 Y104.729 E0.12614
G1 X140.186 Y108.785 E0.12800
G1 X138.690 Y112.585 E0.12808
G1 X136.260 Y115.871 E0.12811
G1 X133.067 Y118.411 E0.12795
G1 X131.980 Y118.913 E0.03753
G1 X131.584 Y119.536 E0.02315
G1 X130.788 Y120.255 E0.03364
G1 X129.924 Y120.683 E0.03021
G1 X128.587 Y121.226 E0.04525
G1 X127.876 Y121.398 E0.02293
G1 X121.662 Y121.315 E0.19487
G1 X120.538 Y120.901 E0.03756
G1 X119.213 Y120.257 E0.04618
G1 X118.418 Y119.539 E0.03360
G1 X118.022 Y118.915 E0.02318
G1 X116.952 Y118.424 E0.03691
G1 X114.112 Y116.245 E0.11220
G1 X111.581 Y113.057 E0.12766
G1 X109.817 Y108.803 E0.14439
G1 X109.349 Y105.002 E0.12007
G1 X109.815 Y101.206 E0.11993
G1 X111.310 Y97.414 E0.12779
G1 X113.740 Y94.129 E0.12811
G1 X116.933 Y91.589 E0.12795
G1 X117.891 Y91.145 E0.03308
;WIPE_START
G1 F8640.000
G1 X118.358 Y90.438 E-0.19565
G1 X119.179 Y89.676 E-0.25876
G1 X120.364 Y89.086 E-0.30559
;WIPE_END
G1 E-0.04000 F2100.000
G1 Z0.600 F10800.000
G1 X118.988 Y90.363
G1 Z0.200
G1 E0.80000 F2100.000
G1 F1200.000
G1 X119.373 Y90.001 E0.01660
G1 X120.702 Y89.335 E0.04659
G1 X122.104 Y88.947 E0.04561
G1 X127.923 Y88.951 E0.18246
G1 X128.834 Y89.149 E0.02923
G1 X129.383 Y89.390 E0.01879
G1 X129.431 Y89.411 F10800.000
G1 F1200.000
G1 X130.042 Y89.680 E0.02093
G1 X130.599 Y89.974 E0.01977
G1 X130.823 Y90.184 E0.00961
;WIPE_START
G1 F8640.000
G1 X130.599 Y89.974 E-0.07078
G1 X130.042 Y89.680 E-0.14559
G1 X129.431 Y89.411 E-0.15413
;WIPE_END
G1 E-0.42950 F2100.000
G1 Z0.600 F10800.000
G1 X133.314 Y92.255
G1 Z0.200
G1 E0.80000 F2100.000
G1 F1200.000
G1 X135.642 Y94.041 E0.09200
G1 X138.187 Y97.294 E0.12950
G1 X139.706 Y100.873 E0.12190
G1 X140.273 Y104.758 E0.12310
G1 X139.815 Y108.716 E0.12493
G1 X138.348 Y112.424 E0.12500
G1 X135.972 Y115.626 E0.12503
G1 X132.851 Y118.101 E0.12491
G1 X132.765 Y118.141 E0.00297
;WIPE_START
G1 F8640.000
G1 X132.851 Y118.101 E-0.02184
G1 X135.356 Y116.115 E-0.73816
;WIPE_END
G1 E-0.04000 F2100.000
G1 Z0.600 F10800.000
G1 X130.853 Y119.688
G1 Z0.200
G1 E0.80000 F2100.000
G1 F1200.000
G1 X130.555 Y119.957 E0.01260
G1 X129.777 Y120.336 E0.02713
G1 X129.343 Y120.512 E0.01470
G1 X129.123 Y120.602 F10800.000
G1 F1200.000
G1 X128.459 Y120.871 E0.02247
G1 X127.812 Y121.026 E0.02086
G1 X121.762 Y120.950 E0.18971
G1 X120.694 Y120.558 E0.03565
G1 X119.403 Y119.930 E0.04500
G1 X119.210 Y119.753 E0.00821
;WIPE_START
G1 F8640.000
G1 X119.403 Y119.930 E-0.06043
G1 X120.694 Y120.558 E-0.33138
G1 X121.762 Y120.950 E-0.26257
G1 X122.219 Y120.955 E-0.10562
;WIPE_END
G1 E-0.04000 F2100.000
G1 Z0.600 F10800.000
G1 X117.223 Y118.138
G1 Z0.200
G1 E0.80000 F2100.000
G1 F1200.000
G1 X117.164 Y118.111 E0.00205
G1 X114.361 Y115.961 E0.11078
G1 X111.893 Y112.843 E0.12466
G1 X110.188 Y108.731 E0.13958
G1 X109.726 Y105.025 E0.11710
G1 X110.187 Y101.276 E0.11843
G1 X111.652 Y97.576 E0.12476
G1 X114.028 Y94.374 E0.12502
G1 X117.177 Y91.886 E0.12583
G1 X117.598 Y92.512 F10800.000
G1 F1200.000
G1 X118.833 Y91.962 E0.04237
G1 X118.914 Y91.703 E0.00853
G1 X119.197 Y91.201 E0.01807
G1 X119.464 Y90.946 E0.01157
;WIPE_START
G1 F8640.000
G1 X119.197 Y91.201 E-0.08517
G1 X118.914 Y91.703 E-0.13307
G1 X118.833 Y91.962 E-0.06280
G1 X117.598 Y92.512 E-0.31203
;WIPE_END
G1 E-0.20693 F2100.000
G1 Z0.600 F10800.000
G1 X129.146 Y90.110
G1 Z0.200
G1 E0.80000 F2100.000
G1 F1200.000
G1 X129.174 Y90.122 E0.00095
;WIPE_START
G1 F8640.000
G1 X129.146 Y90.110 E-0.00701
;WIPE_END
G1 E-0.79299 F2100.000
G1 Z0.600 F10800.000
G1 X130.397 Y90.807
G1 Z0.200
G1 E0.80000 F2100.000
G1 F1200.000
G1 X130.798 Y91.193 E0.01745
G1 X131.081 Y91.687 E0.01784
G1 X131.168 Y91.962 E0.00903
G1 X132.413 Y92.515 E0.04272
G1 X132.871 Y92.866 E0.01810
;WIPE_START
G1 F8640.000
G1 X132.413 Y92.515 E-0.13327
G1 X131.168 Y91.962 E-0.31462
G1 X131.081 Y91.687 E-0.06653
G1 X130.798 Y91.193 E-0.13139
G1 X130.442 Y90.850 E-0.11419
;WIPE_END
G1 E-0.04000 F2100.000
G1 Z0.600 F10800.000
G1 X132.273 Y117.546
G1 Z0.200
G1 E0.80000 F2100.000
G1 F1200.000
G1 X131.137 Y118.051 E0.03896
G1 X131.063 Y118.257 E0.00686
G1 X130.759 Y118.759 E0.01840
G1 X130.474 Y119.024 E0.01220
;WIPE_START
G1 F8640.000
G1 X130.759 Y118.759 E-0.08988
G1 X131.063 Y118.257 E-0.13551
G1 X131.137 Y118.051 E-0.05055
G1 X132.273 Y117.546 E-0.28692
;WIPE_END
G1 E-0.23714 F2100.000
G1 Z0.600 F10800.000
G1 X129.056 Y119.815
G1 Z0.200
G1 E0.80000 F2100.000
G1 F1200.000
G1 X128.874 Y119.889 E0.00616
;WIPE_START
G1 F8640.000
G1 X129.056 Y119.815 E-0.04533
;WIPE_END
G1 E-0.75467 F2100.000
G1 Z0.600 F10800.000
G1 X119.590 Y119.091
G1 Z0.200
G1 E0.80000 F2100.000
G1 F1200.000
G1 X119.248 Y118.766 E0.01479
G1 X118.941 Y118.266 E0.01840
G1 X118.863 Y118.051 E0.00716
G1 X117.648 Y117.512 E0.04167
;WIPE_START
G1 F8640.000
G1 X118.863 Y118.051 E-0.30689
G1 X118.941 Y118.266 E-0.05273
G1 X119.248 Y118.766 E-0.13549
G1 X119.590 Y119.091 E-0.10893
;WIPE_END
G1 E-0.19597 F2100.000
G1 Z0.600 F10800.000
G1 X119.172 Y117.775
G1 Z0.200
G1 E0.80000 F2100.000
G1 F1200.000
G1 X117.798 Y117.172 E0.04703
G1 X115.106 Y115.106 E0.10641
G1 X112.830 Y112.205 E0.11561
G1 X111.301 Y108.514 E0.12526
G1 X110.857 Y105.001 E0.11103
G1 X111.300 Y101.489 E0.11100
G1 X112.674 Y98.066 E0.11566
G1 X114.889 Y95.111 E0.11577
G1 X117.792 Y92.832 E0.11574
G1 X119.148 Y92.236 E0.04645
G1 X119.255 Y91.867 E0.01204
G1 X119.512 Y91.410 E0.01644
G1 X119.999 Y90.944 E0.02111
G1 X121.127 Y90.384 E0.03950
G1 X122.183 Y90.079 E0.03447
G1 X127.861 Y90.082 E0.17804
G1 X128.430 Y90.207 E0.01826
G1 X129.567 Y90.707 E0.03894
G1 X129.999 Y90.936 E0.01532
G1 X130.484 Y91.404 E0.02114
G1 X130.741 Y91.853 E0.01623
G1 X130.852 Y92.236 E0.01249
G1 X132.202 Y92.828 E0.04621
G1 X134.896 Y94.895 E0.10646
G1 X137.248 Y97.929 E0.12038
G1 X138.635 Y101.244 E0.11266
G1 X139.142 Y104.844 E0.11400
G1 X138.700 Y108.508 E0.11572
G1 X137.326 Y111.934 E0.11574
G1 X135.111 Y114.889 E0.11577
G1 X132.208 Y117.168 E0.11574
G1 X130.828 Y117.775 E0.04726
G1 X130.728 Y118.083 E0.01015
G1 X130.450 Y118.541 E0.01682
G1 X129.982 Y118.978 E0.02005
G1 X129.333 Y119.295 E0.02265
G1 X128.072 Y119.807 E0.04267
G1 X127.662 Y119.904 E0.01324
G1 X122.058 Y119.854 E0.17569
G1 X121.163 Y119.528 E0.02989
G1 X119.978 Y118.951 E0.04131
G1 X119.556 Y118.549 E0.01827
G1 X119.275 Y118.090 E0.01686
G1 X119.191 Y117.832 E0.00853
;WIPE_START
G1 F8640.000
G1 X117.798 Y117.172 E-0.35576
G1 X116.409 Y116.106 E-0.40424
;WIPE_END
G1 E-0.04000 F2100.000
G1 Z0.600 F10800.000
G1 X130.515 Y117.499
G1 Z0.200
G1 E0.80000 F2100.000
G1 F1200.000
G1 X130.392 Y117.909 E0.01343
G1 X130.140 Y118.324 E0.01520
G1 X129.791 Y118.652 E0.01502
G1 X129.185 Y118.948 E0.02115
G1 X127.945 Y119.452 E0.04198
G1 X127.599 Y119.532 E0.01114
G1 X122.157 Y119.488 E0.17064
G1 X121.318 Y119.184 E0.02795
G1 X120.170 Y118.626 E0.04005
G1 X119.866 Y118.332 E0.01326
G1 X119.611 Y117.916 E0.01531
G1 X119.484 Y117.499 E0.01365
G1 X118.009 Y116.859 E0.05043
G1 X115.354 Y114.822 E0.10492
G1 X113.143 Y111.993 E0.11258
G1 X111.671 Y108.441 E0.12053
G1 X111.234 Y105.024 E0.10801
G1 X111.671 Y101.560 E0.10948
G1 X113.015 Y98.230 E0.11260
G1 X115.175 Y95.358 E0.11268
G1 X118.005 Y93.144 E0.11267
G1 X119.468 Y92.509 E0.04999
G1 X119.596 Y92.030 E0.01555
G1 X119.826 Y91.621 E0.01469
G1 X120.234 Y91.240 E0.01751
G1 X121.278 Y90.730 E0.03643
G1 X122.210 Y90.456 E0.03047
G1 X127.841 Y90.459 E0.17654
G1 X128.295 Y90.560 E0.01460
G1 X129.409 Y91.049 E0.03814
G1 X129.798 Y91.257 E0.01384
G1 X130.170 Y91.615 E0.01619
G1 X130.401 Y92.018 E0.01457
G1 X130.534 Y92.509 E0.01594
G1 X131.991 Y93.141 E0.04981
G1 X134.647 Y95.179 E0.10495
G1 X136.934 Y98.140 E0.11731
G1 X138.277 Y101.366 E0.10958
G1 X138.765 Y104.872 E0.11097
G1 X138.329 Y108.438 E0.11265
G1 X136.985 Y111.770 E0.11266
G1 X134.825 Y114.642 E0.11268
G1 X131.995 Y116.856 E0.11267
G1 X130.570 Y117.475 E0.04871
;WIPE_START
G1 F8640.000
G1 X130.392 Y117.909 E-0.10839
G1 X130.140 Y118.324 E-0.11190
G1 X129.791 Y118.652 E-0.11063
G1 X129.185 Y118.948 E-0.15573
G1 X128.088 Y119.394 E-0.27335
;WIPE_END
G1 E-0.04000 F2100.000
G1 Z0.600 F10800.000
G1 X130.136 Y92.749
G1 Z0.200
G1 E0.80000 F2100.000
G1 F1200.000
G1 X131.780 Y93.455 E0.05613
G1 X134.397 Y95.463 E0.10343
G1 X136.620 Y98.350 E0.11423
G1 X137.919 Y101.488 E0.10649
