; generated by PrusaSlicer 2.3.0+win64 on 2021-04-25 at 18:12:04 UTC

; 

; external perimeters extrusion width = 0.45mm
; perimeters extrusion width = 0.45mm
; infill extrusion width = 0.45mm
; solid infill extrusion width = 0.45mm
; top infill extrusion width = 0.40mm
; first layer extrusion width = 0.42mm

M73 P0 R92
M73 Q0 S92
M201 X1000 Y1000 Z200 E5000 ; sets maximum accelerations, mm/sec^2
M203 X200 Y200 Z12 E120 ; sets maximum feedrates, mm/sec
M204 P1250 R1250 T1250 ; sets acceleration (P, T) and retract acceleration (R), mm/sec^2
M205 X8.00 Y8.00 Z0.40 E4.50 ; sets the jerk limits, mm/sec
M205 S0 T0 ; sets the minimum extruding and travel feed rate, mm/sec
M107
;TYPE:Custom
M862.3 P "MK3S" ; printer model check
M862.1 P0.4 ; nozzle diameter check
M115 U3.9.2 ; tell printer latest fw version
G90 ; use absolute coordinates
M83 ; extruder relative mode
M104 S215 ; set extruder temp
M140 S60 ; set bed temp
M190 S60 ; wait for bed temp
M109 S215 ; wait for extruder temp
G28 W ; home all without mesh bed level
G80 ; mesh bed leveling
G1 Y-3.0 F1000.0 ; go outside print area
G92 E0.0
G1 X60.0 E9.0 F1000.0 ; intro line
G1 X100.0 E12.5 F1000.0 ; intro line
G92 E0.0
M221 S95

; Don't change E values below. Excessive value can damage the printer.

G21 ; set units to millimeters
G90 ; use absolute coordinates
M83 ; use relative distances for extrusion
M900 K0.05 ; Filament gcode LA 1.5
M900 K30 ; Filament gcode LA 1.0
;LAYER_CHANGE
;Z:0.2
;HEIGHT:0.2
;BEFORE_LAYER_CHANGE
G92 E0.0
;0.2


G1 E-0.80000 F2100.000
G1 Z0.400 F10800.000
;AFTER_LAYER_CHANGE
;0.2
G1 X108.033 Y111.483
G1 Z0.200
G1 E0.80000 F2100.000
M204 S1000
;TYPE:Skirt
;WIDTH:0.42
G1 F1200.000
G1 X107.816 Y110.562 E0.02968
G1 X107.811 Y99.700 E0.34056
G1 X107.872 Y99.122 E0.01822
G1 X108.053 Y98.570 E0.01822
G1 X108.344 Y98.071 E0.01809
G1 X108.735 Y97.642 E0.01822
G1 X119.516 Y89.302 E0.42738
G1 X124.716 Y86.685 E0.18251
G1 X130.659 Y85.746 E0.18864
G1 X136.200 Y86.591 E0.17576
G1 X136.881 Y86.799 E0.02231
G1 X141.912 Y89.384 E0.17735
G1 X143.763 Y91.171 E0.08068
G1 X144.258 Y91.925 E0.02828
G1 X144.432 Y92.458 E0.01758
G1 X144.494 Y93.011 E0.01745
G1 X144.503 Y116.950 E0.75059
G1 X144.362 Y117.821 E0.02765
G1 X143.953 Y118.602 E0.02765
G1 X142.239 Y120.354 E0.07684
G1 X141.634 Y120.786 E0.02333
G1 X136.581 Y123.318 E0.17721
G1 X130.651 Y124.254 E0.18824
G1 X124.724 Y123.318 E0.18814
G1 X119.646 Y120.773 E0.17811
G1 X108.549 Y112.276 E0.43820
G1 X108.066 Y111.533 E0.02780
G1 X108.379 Y111.330 F10800.000
G1 F1200.000
G1 X108.191 Y110.521 E0.02606
G1 X108.188 Y99.700 E0.33928
G1 X108.242 Y99.197 E0.01585
G1 X108.401 Y98.717 E0.01585
G1 X108.658 Y98.282 E0.01585
G1 X109.001 Y97.910 E0.01585
G1 X119.724 Y89.617 E0.42504
G1 X124.830 Y87.044 E0.17926
G1 X130.656 Y86.123 E0.18496
G1 X136.135 Y86.962 E0.17380
G1 X136.717 Y87.139 E0.01906
G1 X141.698 Y89.693 E0.17550
G1 X143.493 Y91.434 E0.07843
G1 X143.927 Y92.097 E0.02484
G1 X144.126 Y93.029 E0.02989
G1 X144.126 Y116.951 E0.75005
G1 X144.000 Y117.714 E0.02426
G1 X143.635 Y118.397 E0.02426
G1 X141.980 Y120.080 E0.07403
G1 X141.437 Y120.463 E0.02083
G1 X136.468 Y122.959 E0.17433
G1 X130.653 Y123.877 E0.18459
G1 X124.834 Y122.957 E0.18473
G1 X119.821 Y120.439 E0.17588
G1 X108.825 Y112.019 E0.43424
G1 X108.411 Y111.381 E0.02386
;WIPE_START
G1 F8640.000
G1 X108.191 Y110.521 E-0.20499
G1 X108.190 Y108.117 E-0.55501
;WIPE_END
G1 E-0.04000 F2100.000
G1 Z0.600 F10800.000
G1 X111.845 Y94.998
G1 Z0.200
G1 E0.80000 F2100.000
G1 F1200.000
G1 X110.960 Y95.011 E0.02774
G1 X109.882 Y95.282 E0.03486
G1 X108.871 Y95.837 E0.03616
G1 X107.999 Y96.652 E0.03741
G1 X107.320 Y97.689 E0.03888
G1 X106.906 Y99.192 E0.04887
G1 X106.926 Y103.856 E0.14625
G1 X107.263 Y105.056 E0.03907
G1 X107.138 Y105.335 E0.00960
G1 X106.911 Y106.402 E0.03418
G1 X106.906 Y110.908 E0.14128
G1 X107.238 Y112.226 E0.04263
G1 X107.965 Y113.411 E0.04356
G1 X108.569 Y114.014 E0.02678
G1 X109.135 Y114.452 E0.02245
G1 X110.415 Y114.994 E0.04358
G1 X111.879 Y115.063 E0.04595
G1 X112.500 Y115.539 F10800.000
G1 F1200.000
G1 X113.750 Y117.814 E0.08141
G1 X118.521 Y122.401 E0.20751
G1 X124.126 Y125.182 E0.19619
G1 X130.249 Y126.210 E0.19466
G1 X137.173 Y125.183 E0.21949
G1 X142.938 Y122.291 E0.20222
G1 X145.863 Y119.420 E0.12851
G1 X146.421 Y118.238 E0.04098
G1 X146.598 Y116.905 E0.04216
G1 X146.531 Y116.253 E0.02056
G1 X146.182 Y115.121 E0.03713
G1 X145.056 Y113.501 E0.06186
G1 X144.690 Y113.203 E0.01481
G1 X143.937 Y112.648 F10800.000
G1 F1200.000
G1 X143.567 Y112.451 E0.01316
G1 X142.141 Y112.122 E0.04588
G1 X141.334 Y112.140 E0.02530
G1 X140.285 Y112.407 E0.03394
G1 X136.659 Y114.254 E0.12760
G1 X133.653 Y114.730 E0.09545
G1 X130.645 Y114.254 E0.09547
G1 X127.933 Y112.872 E0.09543
G1 X125.781 Y110.719 E0.09546
G1 X124.398 Y108.006 E0.09547
G1 X123.922 Y105.000 E0.09543
G1 X124.398 Y101.993 E0.09546
G1 X125.781 Y99.281 E0.09544
G1 X127.933 Y97.128 E0.09546
G1 X130.645 Y95.746 E0.09545
G1 X133.653 Y95.269 E0.09546
G1 X136.663 Y95.746 E0.09557
G1 X140.413 Y97.634 E0.13164
G1 X141.342 Y97.864 E0.03001
G1 X142.410 Y97.854 E0.03350
G1 X143.622 Y97.521 E0.03940
G1 X143.938 Y97.332 E0.01154
G1 X144.684 Y96.858 F10800.000
G1 F1200.000
G1 X145.092 Y96.448 E0.01812
G1 X146.011 Y95.182 E0.04905
G1 X146.378 Y94.414 E0.02669
G1 X146.593 Y93.304 E0.03545
G1 X146.532 Y92.218 E0.03410
G1 X146.056 Y90.899 E0.04398
G1 X145.600 Y90.245 E0.02498
G1 X142.880 Y87.667 E0.11752
G1 X137.242 Y84.838 E0.19776
G1 X131.068 Y83.792 E0.19634
G1 X124.507 Y84.699 E0.20770
G1 X118.535 Y87.590 E0.20802
G1 X113.750 Y92.184 E0.20798
M73 P0 R91
G1 X112.475 Y94.511 E0.08319
G1 X113.214 Y93.938 F10800.000
G1 F1200.000
G1 X114.033 Y92.436 E0.05366
G1 X118.727 Y87.916 E0.20430
G1 X124.588 Y85.068 E0.20433
G1 X131.035 Y84.168 E0.20408
G1 X137.099 Y85.188 E0.19281
G1 X142.640 Y87.960 E0.19428
G1 X145.327 Y90.506 E0.11607
G1 X145.711 Y91.052 E0.02093
G1 X146.158 Y92.267 E0.04058
G1 X146.215 Y93.301 E0.03245
G1 X146.013 Y94.316 E0.03247
G1 X145.696 Y94.974 E0.02288
G1 X144.796 Y96.214 E0.04806
G1 X144.684 Y96.326 E0.00495
G1 X143.938 Y96.895 F10800.000
G1 F1200.000
G1 X143.453 Y97.183 E0.01769
G1 X142.337 Y97.483 E0.03621
G1 X141.365 Y97.487 E0.03047
G1 X140.526 Y97.274 E0.02714
G1 X136.781 Y95.383 E0.13157
G1 X133.653 Y94.887 E0.09930
G1 X130.527 Y95.383 E0.09921
G1 X127.709 Y96.819 E0.09919
G1 X125.472 Y99.056 E0.09921
G1 X124.035 Y101.875 E0.09919
G1 X123.540 Y105.000 E0.09920
G1 X124.035 Y108.124 E0.09918
G1 X125.472 Y110.944 E0.09922
G1 X127.709 Y113.181 E0.09920
G1 X130.527 Y114.617 E0.09918
G1 X133.653 Y115.112 E0.09922
G1 X136.777 Y114.617 E0.09919
G1 X140.437 Y112.753 E0.12879
G1 X141.405 Y112.510 E0.03129
G1 X142.081 Y112.495 E0.02120
G1 X143.414 Y112.796 E0.04284
G1 X143.937 Y113.077 E0.01862
G1 X144.690 Y113.681 F10800.000
G1 F1200.000
G1 X144.764 Y113.740 E0.00296
G1 X145.830 Y115.261 E0.05824
G1 X146.165 Y116.345 E0.03558
G1 X146.220 Y116.919 E0.01807
G1 X146.051 Y118.157 E0.03918
G1 X145.538 Y119.227 E0.03721
G1 X142.742 Y121.968 E0.12275
G1 X137.088 Y124.815 E0.19851
G1 X130.282 Y125.833 E0.21577
G1 X124.216 Y124.815 E0.19285
G1 X118.715 Y122.077 E0.19267
G1 X114.033 Y117.563 E0.20391
G1 X113.235 Y116.102 E0.05219
;WIPE_START
G1 F8640.000
G1 X114.033 Y117.563 E-0.38432
G1 X115.204 Y118.692 E-0.37568
;WIPE_END
G1 E-0.04000 F2100.000
G1 Z0.600 F10800.000
G1 X111.361 Y114.667
G1 Z0.200
G1 E0.80000 F2100.000
G1 F1200.000
G1 X110.529 Y114.633 E0.02611
G1 X109.345 Y114.138 E0.04022
G1 X108.826 Y113.739 E0.02052
G1 X108.247 Y113.159 E0.02571
G1 X107.596 Y112.104 E0.03886
G1 X107.284 Y110.884 E0.03951
G1 X107.288 Y106.422 E0.13989
G1 X107.501 Y105.438 E0.03157
G1 X107.625 Y105.176 E0.00908
G1 X107.625 Y104.947 F10800.000
G1 F1200.000
G1 X107.303 Y103.828 E0.03651
G1 X107.283 Y99.217 E0.14458
G1 X107.675 Y97.820 E0.04550
G1 X108.273 Y96.912 E0.03408
G1 X109.110 Y96.129 E0.03595
G1 X110.040 Y95.625 E0.03314
G1 X111.028 Y95.382 E0.03192
G1 X111.352 Y95.379 E0.01016
G1 X110.771 Y95.828 F10800.000
G1 F1200.000
G1 X110.196 Y95.969 E0.01857
G1 X109.350 Y96.422 E0.03009
G1 X108.546 Y97.173 E0.03448
G1 X108.029 Y97.952 E0.02932
G1 X107.833 Y98.636 E0.02232
G1 X107.676 Y99.188 F10800.000
G1 F1200.000
G1 X107.661 Y99.330 E0.00448
;WIPE_START
G1 F8640.000
G1 X107.676 Y99.188 E-0.03300
;WIPE_END
G1 E-0.76700 F2100.000
G1 Z0.600 F10800.000
G1 X112.104 Y95.748
G1 Z0.200
G1 E0.80000 F2100.000
G1 F1200.000
G1 X112.662 Y95.743 E0.01748
G1 X113.058 Y95.011 E0.02610
;WIPE_START
G1 F8640.000
G1 X112.662 Y95.743 E-0.19217
G1 X112.104 Y95.748 E-0.12876
;WIPE_END
G1 E-0.47907 F2100.000
G1 Z0.600 F10800.000
G1 X113.944 Y93.374
G1 Z0.200
G1 E0.80000 F2100.000
G1 F1200.000
G1 X114.316 Y92.686 E0.02451
G1 X118.919 Y88.242 E0.20062
G1 X124.671 Y85.437 E0.20063
G1 X131.001 Y84.545 E0.20044
G1 X137.008 Y85.555 E0.19101
G1 X142.446 Y88.284 E0.19076
G1 X145.054 Y90.767 E0.11291
G1 X145.367 Y91.208 E0.01696
G1 X145.783 Y92.320 E0.03720
G1 X145.840 Y93.251 E0.02928
G1 X145.648 Y94.219 E0.03092
G1 X145.382 Y94.765 E0.01907
G1 X144.684 Y95.727 E0.03725
;WIPE_START
G1 F8640.000
G1 X145.382 Y94.765 E-0.27432
G1 X145.648 Y94.219 E-0.14041
G1 X145.840 Y93.251 E-0.22771
G1 X145.809 Y92.743 E-0.11756
;WIPE_END
G1 E-0.04000 F2100.000
G1 Z0.600 F10800.000
G1 X143.938 Y96.461
G1 Z0.200
G1 E0.80000 F2100.000
G1 F1200.000
G1 X143.285 Y96.845 E0.02373
G1 X142.266 Y97.112 E0.03302
G1 X141.391 Y97.110 E0.02744
G1 X140.641 Y96.915 E0.02429
G1 X136.898 Y95.020 E0.13155
G1 X133.653 Y94.506 E0.10303
G1 X130.409 Y95.019 E0.10295
G1 X127.484 Y96.510 E0.10294
G1 X125.163 Y98.832 E0.10295
G1 X123.672 Y101.757 E0.10293
G1 X123.158 Y105.000 E0.10295
G1 X123.672 Y108.242 E0.10293
G1 X125.163 Y111.168 E0.10296
G1 X127.484 Y113.490 E0.10295
G1 X130.409 Y114.980 E0.10293
G1 X133.653 Y115.493 E0.10296
G1 X136.895 Y114.980 E0.10293
G1 X140.588 Y113.099 E0.12996
G1 X141.475 Y112.882 E0.02861
G1 X142.022 Y112.868 E0.01718
G1 X143.263 Y113.142 E0.03983
G1 X143.700 Y113.370 E0.01547
G1 X143.937 Y113.557 E0.00946
;WIPE_START
G1 F8640.000
G1 X143.700 Y113.370 E-0.06968
G1 X143.263 Y113.142 E-0.11393
G1 X142.022 Y112.868 E-0.29331
G1 X141.475 Y112.882 E-0.12649
G1 X140.816 Y113.043 E-0.15659
;WIPE_END
G1 E-0.04000 F2100.000
G1 Z0.600 F10800.000
G1 X144.690 Y114.288
G1 Z0.200
G1 E0.80000 F2100.000
G1 F1200.000
G1 X145.479 Y115.401 E0.04277
G1 X145.799 Y116.438 E0.03403
G1 X145.844 Y116.892 E0.01431
G1 X145.698 Y118.022 E0.03570
G1 X145.212 Y119.034 E0.03521
G1 X142.546 Y121.644 E0.11698
G1 X137.001 Y124.446 E0.19480
G1 X130.314 Y125.456 E0.21205
G1 X124.359 Y124.465 E0.18929
G1 X118.909 Y121.752 E0.19088
G1 X114.316 Y117.312 E0.20030
G1 X113.961 Y116.657 E0.02336
;WIPE_START
G1 F8640.000
G1 X114.316 Y117.312 E-0.17200
G1 X116.147 Y119.082 E-0.58800
;WIPE_END
G1 E-0.04000 F2100.000
G1 Z0.600 F10800.000
G1 X113.087 Y115.045
G1 Z0.200
G1 E0.80000 F2100.000
G1 F1200.000
G1 X112.706 Y114.342 E0.02506
G1 X112.143 Y114.323 E0.01764
;WIPE_START
G1 F8640.000
G1 X112.706 Y114.342 E-0.12987
G1 X113.087 Y115.045 E-0.18456
;WIPE_END
G1 E-0.48557 F2100.000
G1 Z0.600 F10800.000
G1 X110.853 Y114.278
G1 Z0.200
G1 E0.80000 F2100.000
G1 F1200.000
G1 X110.640 Y114.271 E0.00669
G1 X109.554 Y113.823 E0.03683
G1 X109.084 Y113.463 E0.01855
G1 X108.529 Y112.909 E0.02460
M73 Q0 S91
G1 X107.933 Y111.933 E0.03587
G1 X107.661 Y110.861 E0.03467
G1 X107.661 Y110.726 E0.00423
;WIPE_START
G1 F8640.000
G1 X107.661 Y110.861 E-0.03115
G1 X107.933 Y111.933 E-0.25532
G1 X108.529 Y112.909 E-0.26415
G1 X109.084 Y113.463 E-0.18113
G1 X109.181 Y113.538 E-0.02825
;WIPE_END
G1 E-0.04000 F2100.000
G1 Z0.600 F10800.000
G1 X109.056 Y112.902
G1 Z0.200
G1 E0.80000 F2100.000
G1 F1200.000
G1 X109.342 Y113.188 E0.01267
G1 X109.762 Y113.508 E0.01656
G1 X109.943 Y113.581 E0.00612
;WIPE_START
G1 F8640.000
G1 X109.762 Y113.508 E-0.04510
G1 X109.342 Y113.188 E-0.12196
G1 X109.056 Y112.902 E-0.09332
;WIPE_END
G1 E-0.53962 F2100.000
G1 Z0.600 F10800.000
G1 X111.635 Y113.934
G1 Z0.200
G1 E0.80000 F2100.000
G1 F1200.000
G1 X112.934 Y113.971 E0.04074
G1 X113.812 Y115.600 E0.05803
;WIPE_START
G1 F8640.000
G1 X112.934 Y113.971 E-0.42736
G1 X111.635 Y113.934 E-0.30001
;WIPE_END
G1 E-0.07263 F2100.000
G1 Z0.600 F10800.000
G1 X115.014 Y117.463
G1 Z0.200
G1 E0.80000 F2100.000
G1 F1200.000
G1 X119.103 Y121.428 E0.17859
G1 X124.449 Y124.097 E0.18734
G1 X130.346 Y125.079 E0.18746
G1 X136.915 Y124.078 E0.20832
G1 X142.350 Y121.321 E0.19110
G1 X144.887 Y118.841 E0.11122
G1 X145.344 Y117.887 E0.03318
G1 X145.467 Y116.869 E0.03216
G1 X145.433 Y116.531 E0.01063
G1 X145.128 Y115.542 E0.03248
G1 X144.691 Y114.932 E0.02353
;WIPE_START
G1 F8640.000
G1 X145.128 Y115.542 E-0.17330
G1 X145.433 Y116.531 E-0.23918
G1 X145.467 Y116.869 E-0.07830
G1 X145.344 Y117.887 E-0.23684
G1 X145.284 Y118.014 E-0.03238
;WIPE_END
G1 E-0.04000 F2100.000
G1 Z0.600 F10800.000
G1 X143.937 Y114.032
G1 Z0.200
G1 E0.80000 F2100.000
G1 F1200.000
G1 X143.484 Y113.679 E0.01801
G1 X143.114 Y113.490 E0.01304
G1 X141.966 Y113.241 E0.03683
G1 X141.543 Y113.253 E0.01325
G1 X140.739 Y113.445 E0.02591
G1 X137.013 Y115.343 E0.13112
G1 X133.653 Y115.875 E0.10668
G1 X130.291 Y115.343 E0.10671
G1 X127.260 Y113.799 E0.10667
G1 X124.854 Y111.392 E0.10669
G1 X123.309 Y108.360 E0.10671
G1 X122.777 Y105.000 E0.10667
G1 X123.309 Y101.639 E0.10669
G1 X124.854 Y98.608 E0.10668
G1 X127.260 Y96.201 E0.10670
G1 X130.291 Y94.656 E0.10669
G1 X133.653 Y94.124 E0.10670
G1 X137.016 Y94.657 E0.10676
G1 X140.794 Y96.569 E0.13279
G1 X141.419 Y96.733 E0.02025
G1 X142.198 Y96.740 E0.02443
G1 X143.119 Y96.505 E0.02982
G1 X143.878 Y96.065 E0.02748
G1 X143.938 Y96.007 E0.00264
;WIPE_START
G1 F8640.000
G1 X143.878 Y96.065 E-0.01943
G1 X143.119 Y96.505 E-0.20234
G1 X142.198 Y96.740 E-0.21962
G1 X141.419 Y96.733 E-0.17992
G1 X140.838 Y96.581 E-0.13869
;WIPE_END
G1 E-0.04000 F2100.000
G1 Z0.600 F10800.000
G1 X144.683 Y95.085
G1 Z0.200
G1 E0.80000 F2100.000
G1 F1200.000
G1 X145.067 Y94.556 E0.02050
G1 X145.284 Y94.118 E0.01532
G1 X145.462 Y93.249 E0.02782
G1 X145.409 Y92.372 E0.02755
G1 X145.024 Y91.367 E0.03374
G1 X144.781 Y91.028 E0.01308
G1 X142.252 Y88.609 E0.10974
M73 Q1 S91
G1 X136.865 Y85.905 E0.18898
M73 P1 R91
G1 X130.968 Y84.922 E0.18745
G1 X124.753 Y85.807 E0.19681
G1 X119.112 Y88.567 E0.19694
G1 X114.959 Y92.589 E0.18126
;WIPE_START
G1 F8640.000
G1 X117.323 Y90.299 E-0.76000
;WIPE_END
G1 E-0.04000 F2100.000
G1 Z0.600 F10800.000
G1 X113.788 Y94.446
G1 Z0.200
G1 E0.80000 F2100.000
G1 F1200.000
G1 X112.888 Y96.118 E0.05953
G1 X111.614 Y96.127 E0.03995
;WIPE_START
G1 F8640.000
G1 X112.888 Y96.118 E-0.29422
G1 X113.788 Y94.446 E-0.43837
;WIPE_END
G1 E-0.06741 F2100.000
G1 Z0.600 F10800.000
G1 X109.703 Y96.654
G1 Z0.200
G1 E0.80000 F2100.000
G1 F1200.000
G1 X109.588 Y96.715 E0.00408
G1 X109.412 Y96.880 E0.00757
;WIPE_START
G1 F8640.000
G1 X109.588 Y96.715 E-0.05573
G1 X109.703 Y96.654 E-0.03005
;WIPE_END
G1 E-0.71422 F2100.000
G1 Z0.600 F10800.000
G1 X108.378 Y104.782
G1 Z0.200
G1 E0.80000 F2100.000
G1 F1200.000
G1 X108.531 Y105.049 E0.00965
G1 X108.378 Y105.351 E0.01059
;WIPE_START
G1 F8640.000
G1 X108.531 Y105.049 E-0.07802
G1 X108.378 Y104.782 E-0.07109
;WIPE_END
G1 E-0.65090 F2100.000
G1 Z0.600 F10800.000
G1 X108.415 Y110.653
G1 Z0.200
G1 E0.80000 F2100.000
G1 F1200.000
G1 X108.419 Y106.488 E0.13060
G1 X108.588 Y105.761 E0.02340
G1 X108.963 Y105.036 E0.02558
G1 X108.678 Y104.554 E0.01757
G1 X108.434 Y103.743 E0.02656
G1 X108.415 Y99.352 E0.13766
G1 X108.425 Y99.254 F10800.000
G1 F1200.000
G1 X108.448 Y99.175 E0.00258
;WIPE_START
G1 F8640.000
G1 X108.425 Y99.254 E-0.01897
;WIPE_END
G1 E-0.78103 F2100.000
G1 Z0.600 F10800.000
G1 X111.105 Y96.521
G1 Z0.200
G1 E0.80000 F2100.000
G1 F1200.000
G1 X111.183 Y96.503 E0.00249
G1 X113.115 Y96.495 E0.06059
G1 X114.508 Y93.889 E0.09263
;WIPE_START
G1 F8640.000
G1 X113.115 Y96.495 E-0.68217
G1 X112.778 Y96.496 E-0.07783
;WIPE_END
G1 E-0.04000 F2100.000
G1 Z0.600 F10800.000
G1 X117.612 Y90.536
G1 Z0.200
G1 E0.80000 F2100.000
G1 F1200.000
G1 X119.305 Y88.892 E0.07397
G1 X124.837 Y86.175 E0.19324
G1 X130.934 Y85.299 E0.19316
G1 X136.774 Y86.272 E0.18564
