; generated by PrusaSlicer 2.3.0+win64 on 2021-04-27 at 17:06:49 UTC

; 

; external perimeters extrusion width = 0.45mm
; perimeters extrusion width = 0.45mm
; infill extrusion width = 0.45mm
; solid infill extrusion width = 0.45mm
; top infill extrusion width = 0.40mm
; first layer extrusion width = 0.42mm

M73 P0 R48
M73 Q0 S49
M201 X1000 Y1000 Z200 E5000 ; sets maximum accelerations, mm/sec^2
M203 X200 Y200 Z12 E120 ; sets maximum feedrates, mm/sec
M204 P1250 R1250 T1250 ; sets acceleration (P, T) and retract acceleration (R), mm/sec^2
M205 X8.00 Y8.00 Z0.40 E4.50 ; sets the jerk limits, mm/sec
M205 S0 T0 ; sets the minimum extruding and travel feed rate, mm/sec
M107
;TYPE:Custom
M862.3 P "MK3S" ; printer model check
M862.1 P0.4 ; nozzle diameter check
M115 U3.9.2 ; tell printer latest fw version
G90 ; use absolute coordinates
M83 ; extruder relative mode
M104 S215 ; set extruder temp
M140 S60 ; set bed temp
M190 S60 ; wait for bed temp
M109 S215 ; wait for extruder temp
G28 W ; home all without mesh bed level
G80 ; mesh bed leveling
G1 Y-3.0 F1000.0 ; go outside print area
G92 E0.0
G1 X60.0 E9.0 F1000.0 ; intro line
M73 Q0 S48
G1 X100.0 E12.5 F1000.0 ; intro line
G92 E0.0
M221 S95

; Don't change E values below. Excessive value can damage the printer.

G21 ; set units to millimeters
G90 ; use absolute coordinates
M83 ; use relative distances for extrusion
M900 K0.05 ; Filament gcode LA 1.5
M900 K30 ; Filament gcode LA 1.0
;LAYER_CHANGE
;Z:0.2
;HEIGHT:0.2
;BEFORE_LAYER_CHANGE
G92 E0.0
;0.2


G1 E-0.80000 F2100.000
G1 Z0.400 F10800.000
;AFTER_LAYER_CHANGE
;0.2
G1 X110.506 Y99.079
G1 Z0.200
G1 E0.80000 F2100.000
M204 S1000
;TYPE:Skirt
;WIDTH:0.42
G1 F1200.000
G1 X115.274 Y94.926 E0.19826
G1 X117.821 Y92.975 E0.10059
G1 X118.291 Y92.718 E0.01681
G1 X121.354 Y91.471 E0.10366
G1 X125.005 Y90.989 E0.11549
G1 X128.626 Y91.466 E0.11451
G1 X131.982 Y92.852 E0.11383
G1 X134.733 Y94.932 E0.10813
G1 X139.457 Y99.143 E0.19844
G1 X139.823 Y99.651 E0.01963
G1 X140.342 Y100.721 E0.03728
G1 X140.580 Y101.540 E0.02676
G1 X140.602 Y108.097 E0.20559
G1 X140.547 Y108.643 E0.01720
G1 X140.385 Y109.167 E0.01720
G1 X139.827 Y110.342 E0.04079
G1 X139.426 Y110.890 E0.02129
G1 X134.742 Y115.060 E0.19664
G1 X132.209 Y117.004 E0.10010
G1 X131.712 Y117.281 E0.01784
G1 X128.650 Y118.528 E0.10367
G1 X125.000 Y119.011 E0.11545
G1 X121.378 Y118.535 E0.11454
G1 X118.022 Y117.150 E0.11384
G1 X115.277 Y115.076 E0.10787
G1 X110.442 Y110.839 E0.20156
G1 X110.106 Y110.375 E0.01796
G1 X109.653 Y109.466 E0.03184
G1 X109.416 Y108.621 E0.02752
G1 X109.398 Y101.630 E0.21919
G1 X109.455 Y101.073 E0.01758
G1 X109.626 Y100.534 E0.01771
G1 X110.126 Y99.571 E0.03401
G1 X110.470 Y99.127 E0.01762
G1 X110.767 Y99.359 F10800.000
G1 F1200.000
G1 X115.516 Y95.216 E0.19760
G1 X118.042 Y93.281 E0.09977
G1 X121.457 Y91.834 E0.11631
G1 X125.006 Y91.366 E0.11223
G1 X128.530 Y91.830 E0.11144
G1 X131.802 Y93.184 E0.11104
G1 X134.493 Y95.223 E0.10587
G1 X139.181 Y99.400 E0.19686
G1 X139.502 Y99.848 E0.01728
G1 X140.003 Y100.885 E0.03611
G1 X140.208 Y101.604 E0.02343
G1 X140.225 Y108.097 E0.20359
G1 X140.035 Y109.028 E0.02977
G1 X139.501 Y110.153 E0.03905
G1 X139.138 Y110.645 E0.01917
G1 X134.495 Y114.775 E0.19485
G1 X131.980 Y116.704 E0.09937
G1 X128.546 Y118.165 E0.11701
G1 X124.999 Y118.634 E0.11219
G1 X121.474 Y118.171 E0.11147
G1 X118.204 Y116.820 E0.11093
G1 X115.518 Y114.786 E0.10563
G1 X110.721 Y110.585 E0.19996
G1 X110.426 Y110.174 E0.01585
G1 X109.993 Y109.303 E0.03051
G1 X109.789 Y108.560 E0.02414
G1 X109.775 Y101.630 E0.21729
G1 X109.826 Y101.143 E0.01538
G1 X109.977 Y100.672 E0.01550
G1 X110.449 Y99.766 E0.03202
G1 X110.730 Y99.406 E0.01431
;WIPE_START
G1 F8640.000
G1 X113.206 Y97.238 E-0.76000
;WIPE_END
G1 E-0.04000 F2100.000
G1 Z0.600 F10800.000
G1 X111.657 Y96.551
G1 Z0.200
G1 E0.80000 F2100.000
G1 F1200.000
G1 X113.707 Y93.915 E0.10471
G1 X116.775 Y91.481 E0.12278
G1 X120.878 Y89.723 E0.13998
G1 X125.357 Y89.179 E0.14144
G1 X129.191 Y89.741 E0.12150
G1 X132.774 Y91.216 E0.12149
G1 X136.281 Y93.904 E0.13855
G1 X138.371 Y96.590 E0.10670
G1 X138.504 Y96.619 E0.00426
G1 X139.419 Y96.992 E0.03100
G1 X140.744 Y97.991 E0.05203
G1 X141.270 Y98.705 E0.02781
G1 X141.680 Y99.532 E0.02894
G1 X142.284 Y101.010 E0.05006
G1 X142.492 Y101.774 E0.02483
G1 X142.562 Y107.714 E0.18625
G1 X141.978 Y109.827 E0.06872
G1 X141.360 Y111.144 E0.04561
G1 X140.767 Y111.983 E0.03223
G1 X139.437 Y112.999 E0.05247
G1 X138.516 Y113.378 E0.03125
G1 X138.372 Y113.409 E0.00461
G1 X136.293 Y116.085 E0.10626
G1 X133.225 Y118.519 E0.12278
G1 X129.122 Y120.277 E0.13997
G1 X124.645 Y120.821 E0.14139
G1 X120.811 Y120.259 E0.12152
G1 X117.227 Y118.784 E0.12151
G1 X113.719 Y116.096 E0.13857
G1 X111.640 Y113.426 E0.10610
G1 X110.673 Y113.103 E0.03197
G1 X109.838 Y112.608 E0.03043
G1 X109.128 Y111.976 E0.02981
G1 X108.003 Y110.022 E0.07069
G1 X107.477 Y108.270 E0.05736
G1 X107.439 Y101.968 E0.19758
G1 X107.781 Y100.562 E0.04537
G1 X108.321 Y99.305 E0.04292
G1 X108.749 Y98.523 E0.02795
G1 X109.283 Y97.860 E0.02668
G1 X110.583 Y96.941 E0.04993
G1 X111.601 Y96.572 E0.03394
G1 X111.848 Y96.921 F10800.000
G1 F1200.000
G1 X113.960 Y94.196 E0.10808
G1 X116.989 Y91.792 E0.12126
G1 X121.002 Y90.080 E0.13678
G1 X125.327 Y89.556 E0.13660
G1 X129.113 Y90.111 E0.11998
G1 X132.606 Y91.555 E0.11853
G1 X136.032 Y94.188 E0.13547
G1 X138.167 Y96.943 E0.10929
G1 X138.388 Y96.979 E0.00702
G1 X139.214 Y97.309 E0.02790
G1 X140.457 Y98.237 E0.04864
G1 X140.956 Y98.915 E0.02639
G1 X141.338 Y99.693 E0.02716
G1 X141.930 Y101.142 E0.04909
G1 X142.122 Y101.850 E0.02299
G1 X142.185 Y107.691 E0.18317
G1 X141.630 Y109.681 E0.06476
G1 X141.026 Y110.968 E0.04459
G1 X140.477 Y111.741 E0.02972
G1 X139.231 Y112.683 E0.04898
G1 X138.399 Y113.019 E0.02813
G1 X138.168 Y113.056 E0.00733
G1 X136.040 Y115.804 E0.10896
G1 X133.011 Y118.208 E0.12126
G1 X128.999 Y119.920 E0.13677
G1 X124.675 Y120.444 E0.13655
G1 X120.888 Y119.889 E0.12000
G1 X117.394 Y118.445 E0.11855
G1 X113.968 Y115.812 E0.13549
G1 X111.867 Y113.104 E0.10747
G1 X110.846 Y112.767 E0.03372
G1 X110.075 Y112.314 E0.02805
G1 X109.402 Y111.715 E0.02824
G1 X108.342 Y109.854 E0.06714
G1 X107.846 Y108.188 E0.05450
G1 X107.816 Y101.990 E0.19433
G1 X108.143 Y100.668 E0.04270
G1 X108.663 Y99.462 E0.04120
G1 X109.054 Y98.746 E0.02556
G1 X109.560 Y98.118 E0.02530
G1 X110.779 Y97.264 E0.04667
G1 X111.641 Y96.950 E0.02878
G1 X111.789 Y96.929 E0.00467
G1 X112.046 Y97.282 F10800.000
G1 F1200.000
G1 X114.212 Y94.477 E0.11112
G1 X117.204 Y92.103 E0.11975
G1 X121.074 Y90.451 E0.13194
G1 X125.298 Y89.933 E0.13343
G1 X128.990 Y90.468 E0.11699
G1 X132.439 Y91.894 E0.11700
G1 X135.782 Y94.472 E0.13237
G1 X137.966 Y97.300 E0.11204
G1 X138.276 Y97.340 E0.00978
G1 X139.011 Y97.628 E0.02476
M73 Q1 S48
G1 X140.171 Y98.484 E0.04520
G1 X140.642 Y99.125 E0.02494
G1 X140.996 Y99.852 E0.02535
G1 X141.577 Y101.274 E0.04815
G1 X141.752 Y101.924 E0.02113
G1 X141.808 Y107.668 E0.18009
M73 P1 R48
G1 X141.282 Y109.535 E0.06080
G1 X140.692 Y110.792 E0.04356
G1 X140.188 Y111.497 E0.02717
G1 X139.026 Y112.365 E0.04547
G1 X138.286 Y112.658 E0.02498
G1 X137.967 Y112.699 E0.01007
G1 X135.788 Y115.523 E0.11183
G1 X132.796 Y117.897 E0.11975
G1 X128.926 Y119.549 E0.13194
G1 X124.704 Y120.067 E0.13337
G1 X121.011 Y119.532 E0.11701
G1 X117.561 Y118.107 E0.11702
G1 X114.218 Y115.528 E0.13238
G1 X112.056 Y112.732 E0.11083
G1 X111.869 Y112.710 E0.00591
G1 X111.019 Y112.432 E0.02803
G1 X110.282 Y111.999 E0.02680
G1 X109.677 Y111.456 E0.02548
G1 X108.681 Y109.689 E0.06361
G1 X108.215 Y108.108 E0.05167
G1 X108.193 Y102.013 E0.19109
G1 X108.504 Y100.776 E0.04001
G1 X109.006 Y99.620 E0.03950
G1 X109.376 Y98.943 E0.02421
G1 X109.835 Y98.377 E0.02285
G1 X110.972 Y97.589 E0.04337
G1 X111.743 Y97.314 E0.02566
G1 X111.986 Y97.288 E0.00766
;WIPE_START
G1 F8640.000
G1 X114.029 Y94.708 E-0.76000
;WIPE_END
G1 E-0.04000 F2100.000
G1 Z0.600 F10800.000
G1 X125.269 Y90.310
G1 Z0.200
G1 E0.80000 F2100.000
G1 F1200.000
G1 X128.868 Y90.826 E0.11401
G1 X132.272 Y92.233 E0.11547
G1 X135.532 Y94.755 E0.12925
G1 X137.098 Y96.788 E0.08044
;WIPE_START
G1 F8640.000
G1 X135.532 Y94.755 E-0.59237
G1 X134.958 Y94.311 E-0.16763
;WIPE_END
G1 E-0.04000 F2100.000
G1 Z0.600 F10800.000
G1 X138.117 Y97.696
G1 Z0.200
G1 E0.80000 F2100.000
G1 F1200.000
G1 X138.851 Y97.970 E0.02456
G1 X139.884 Y98.731 E0.04024
G1 X140.328 Y99.334 E0.02348
G1 X140.654 Y100.010 E0.02353
G1 X141.223 Y101.405 E0.04723
G1 X141.381 Y101.998 E0.01926
G1 X141.430 Y107.644 E0.17702
G1 X140.934 Y109.388 E0.05686
G1 X140.359 Y110.616 E0.04253
G1 X139.899 Y111.253 E0.02462
G1 X138.865 Y112.024 E0.04046
G1 X138.173 Y112.297 E0.02331
G1 X138.123 Y112.302 E0.00158
;WIPE_START
G1 F8640.000
G1 X138.173 Y112.297 E-0.01165
G1 X138.865 Y112.024 E-0.17163
G1 X139.899 Y111.253 E-0.29794
G1 X140.359 Y110.616 E-0.18128
G1 X140.538 Y110.234 E-0.09750
;WIPE_END
G1 E-0.04000 F2100.000
G1 Z0.600 F10800.000
G1 X137.091 Y113.221
G1 Z0.200
G1 E0.80000 F2100.000
G1 F1200.000
G1 X135.535 Y115.242 E0.07994
G1 X132.582 Y117.586 E0.11822
G1 X128.803 Y119.191 E0.12873
G1 X124.733 Y119.690 E0.12858
G1 X121.133 Y119.174 E0.11403
G1 X117.729 Y117.768 E0.11549
G1 X114.468 Y115.245 E0.12927
G1 X112.981 Y113.315 E0.07639
;WIPE_START
G1 F8640.000
G1 X114.468 Y115.245 E-0.56254
G1 X115.144 Y115.768 E-0.19746
;WIPE_END
G1 E-0.04000 F2100.000
G1 Z0.600 F10800.000
G1 X111.822 Y112.299
G1 Z0.200
G1 E0.80000 F2100.000
G1 F1200.000
G1 X111.190 Y112.095 E0.02081
G1 X110.519 Y111.705 E0.02434
G1 X109.953 Y111.196 E0.02387
G1 X109.021 Y109.524 E0.06002
G1 X108.585 Y108.028 E0.04887
G1 X108.570 Y102.037 E0.18785
G1 X108.866 Y100.885 E0.03729
G1 X109.348 Y99.778 E0.03785
G1 X109.680 Y99.167 E0.02182
G1 X110.111 Y98.635 E0.02145
G1 X111.123 Y97.936 E0.03855
G1 X111.817 Y97.687 E0.02314
;WIPE_START
G1 F8640.000
G1 X111.123 Y97.936 E-0.17038
G1 X110.111 Y98.635 E-0.28391
G1 X109.680 Y99.167 E-0.15798
G1 X109.375 Y99.729 E-0.14773
;WIPE_END
G1 E-0.04000 F2100.000
G1 Z0.600 F10800.000
G1 X113.008 Y96.650
G1 Z0.200
G1 E0.80000 F2100.000
G1 F1200.000
G1 X114.465 Y94.758 E0.07487
G1 X117.418 Y92.414 E0.11822
G1 X121.197 Y90.809 E0.12874
G1 X125.269 Y90.310 E0.12863
;WIPE_START
G1 F8640.000
G1 X122.002 Y90.710 E-0.76000
;WIPE_END
G1 E-0.04000 F2100.000
G1 Z0.600 F10800.000
G1 X128.791 Y91.196
G1 Z0.200
G1 E0.80000 F2100.000
G1 F1200.000
G1 X125.241 Y90.687 E0.11247
G1 X121.270 Y91.180 E0.12546
G1 X117.633 Y92.726 E0.12391
G1 X114.717 Y95.039 E0.11669
G1 X114.435 Y95.407 E0.01456
;WIPE_START
G1 F8640.000
G1 X114.717 Y95.039 E-0.10721
G1 X116.932 Y93.282 E-0.65279
;WIPE_END
G1 E-0.04000 F2100.000
G1 Z0.600 F10800.000
G1 X110.608 Y98.741
G1 Z0.200
G1 E0.80000 F2100.000
G1 F1200.000
G1 X110.387 Y98.894 E0.00840
G1 X109.985 Y99.390 E0.02004
G1 X109.691 Y99.936 E0.01945
G1 X109.510 Y100.348 E0.01411
G1 X109.427 Y100.538 F10800.000
G1 F1200.000
G1 X109.227 Y100.995 E0.01566
G1 X108.947 Y102.061 E0.03455
G1 X108.955 Y107.949 E0.18462
G1 X109.362 Y109.362 E0.04609
G1 X109.662 Y109.908 E0.01954
G1 X110.065 Y110.638 F10800.000
G1 F1200.000
G1 X110.229 Y110.937 E0.01070
G1 X110.756 Y111.411 E0.02222
G1 X110.909 Y111.499 E0.00553
;WIPE_START
G1 F8640.000
G1 X110.756 Y111.411 E-0.04073
G1 X110.229 Y110.937 E-0.16362
G1 X110.065 Y110.638 E-0.07877
;WIPE_END
G1 E-0.51689 F2100.000
G1 Z0.600 F10800.000
G1 X114.426 Y114.581
G1 Z0.200
G1 E0.80000 F2100.000
G1 F1200.000
G1 X114.718 Y114.962 E0.01508
G1 X117.897 Y117.429 E0.12616
G1 X121.210 Y118.805 E0.11247
G1 X124.761 Y119.314 E0.11249
G1 X128.730 Y118.820 E0.12541
G1 X132.367 Y117.274 E0.12391
G1 X135.283 Y114.961 E0.11669
G1 X135.597 Y114.552 E0.01617
;WIPE_START
G1 F8640.000
G1 X135.283 Y114.961 E-0.11909
G1 X133.108 Y116.686 E-0.64091
;WIPE_END
G1 E-0.04000 F2100.000
G1 Z0.600 F10800.000
G1 X139.405 Y111.161
G1 Z0.200
G1 E0.80000 F2100.000
G1 F1200.000
G1 X139.612 Y111.008 E0.00808
G1 X140.025 Y110.439 E0.02203
G1 X140.587 Y109.241 E0.04149
G1 X141.053 Y107.619 E0.05292
G1 X141.011 Y102.071 E0.17395
G1 X140.869 Y101.536 E0.01738
G1 X140.542 Y100.733 E0.02717
G1 X140.459 Y100.530 F10800.000
G1 F1200.000
G1 X140.311 Y100.167 E0.01231
G1 X140.014 Y99.543 E0.02167
G1 X139.598 Y98.978 E0.02200
G1 X139.353 Y98.798 E0.00952
;WIPE_START
G1 F8640.000
G1 X139.598 Y98.978 E-0.07012
G1 X140.014 Y99.543 E-0.16204
G1 X140.311 Y100.167 E-0.15960
G1 X140.459 Y100.530 E-0.09063
;WIPE_END
G1 E-0.31760 F2100.000
G1 Z0.600 F10800.000
G1 X135.600 Y95.452
G1 Z0.200
G1 E0.80000 F2100.000
G1 F1200.000
G1 X135.282 Y95.038 E0.01638
G1 X132.104 Y92.571 E0.12614
G1 X128.791 Y91.196 E0.11246
;WIPE_START
G1 F8640.000
G1 X131.831 Y92.458 E-0.76000
;WIPE_END
G1 E-0.04000 F2100.000
G1 Z0.600 F10800.000
G1 X136.546 Y97.305
G1 Z0.200
G1 E0.80000 F2100.000
G1 F1200.000
G1 X136.967 Y97.853 E0.02169
G1 X137.214 Y98.381 E0.01826
G1 X137.793 Y98.416 E0.01817
;WIPE_START
G1 F8640.000
G1 X137.214 Y98.381 E-0.13379
G1 X136.967 Y97.853 E-0.13449
G1 X136.546 Y97.305 E-0.15971
;WIPE_END
G1 E-0.37200 F2100.000
G1 Z0.600 F10800.000
G1 X137.801 Y111.583
G1 Z0.200
G1 E0.80000 F2100.000
G1 F1200.000
G1 X137.215 Y111.619 E0.01841
G1 X136.967 Y112.147 E0.01827
G1 X136.537 Y112.707 E0.02214
;WIPE_START
G1 F8640.000
G1 X136.967 Y112.147 E-0.16306
G1 X137.215 Y111.619 E-0.13457
G1 X137.801 Y111.583 E-0.13557
;WIPE_END
G1 E-0.36681 F2100.000
G1 Z0.600 F10800.000
G1 X113.531 Y112.795
G1 Z0.200
G1 E0.80000 F2100.000
G1 F1200.000
G1 X113.033 Y112.147 E0.02564
G1 X112.789 Y111.628 E0.01799
G1 X112.176 Y111.609 E0.01923
;WIPE_START
G1 F8640.000
G1 X112.789 Y111.628 E-0.14159
G1 X113.033 Y112.147 E-0.13245
G1 X113.531 Y112.795 E-0.18879
;WIPE_END
G1 E-0.33717 F2100.000
G1 Z0.600 F10800.000
G1 X112.139 Y98.404
G1 Z0.200
G1 E0.80000 F2100.000
G1 F1200.000
G1 X112.786 Y98.379 E0.02031
G1 X113.033 Y97.853 E0.01821
G1 X113.558 Y97.169 E0.02704
;WIPE_START
G1 F8640.000
G1 X113.033 Y97.853 E-0.19913
G1 X112.786 Y98.379 E-0.13411
G1 X112.139 Y98.404 E-0.14954
;WIPE_END
G1 E-0.31722 F2100.000
G1 Z0.600 F10800.000
G1 X114.989 Y95.924
G1 Z0.200
G1 E0.80000 F2100.000
G1 F1200.000
G1 X113.346 Y98.065 E0.08461
G1 X113.034 Y98.747 E0.02350
G1 X112.088 Y98.784 E0.02968
G1 X111.577 Y98.974 E0.01710
G1 X111.142 Y99.272 E0.01651
;WIPE_START
G1 F8640.000
G1 X111.577 Y98.974 E-0.12155
G1 X112.088 Y98.784 E-0.12594
G1 X113.034 Y98.747 E-0.21861
G1 X113.346 Y98.065 E-0.17305
G1 X113.665 Y97.650 E-0.12086
;WIPE_END
G1 E-0.04000 F2100.000
G1 Z0.600 F10800.000
G1 X110.189 Y100.674
G1 Z0.200
G1 E0.80000 F2100.000
G1 F1200.000
G1 X110.137 Y100.791 E0.00400
;WIPE_START
G1 F8640.000
G1 X110.189 Y100.674 E-0.02944
;WIPE_END
G1 E-0.77056 F2100.000
G1 Z0.600 F10800.000
G1 X110.439 Y109.777
G1 Z0.200
G1 E0.80000 F2100.000
G1 F1200.000
G1 X110.631 Y110.137 E0.01280
;WIPE_START
G1 F8640.000
G1 X110.439 Y109.777 E-0.09423
;WIPE_END
G1 E-0.70577 F2100.000
G1 Z0.600 F10800.000
G1 X111.352 Y110.887
G1 Z0.200
G1 E0.80000 F2100.000
G1 F1200.000
G1 X111.696 Y111.081 E0.01238
G1 X112.215 Y111.238 E0.01701
G1 X113.034 Y111.253 E0.02568
G1 X113.346 Y111.935 E0.02350
G1 X114.980 Y114.064 E0.08416
;WIPE_START
G1 F8640.000
G1 X113.346 Y111.935 E-0.61978
G1 X113.093 Y111.383 E-0.14022
;WIPE_END
G1 E-0.04000 F2100.000
G1 Z0.600 F10800.000
G1 X135.040 Y114.038
G1 Z0.200
G1 E0.80000 F2100.000
G1 F1200.000
G1 X136.654 Y111.935 E0.08312
G1 X136.967 Y111.251 E0.02356
G1 X137.845 Y111.211 E0.02755
G1 X138.380 Y110.999 E0.01806
G1 X138.827 Y110.670 E0.01738
;WIPE_START
G1 F8640.000
G1 X138.380 Y110.999 E-0.12802
G1 X137.845 Y111.211 E-0.13300
G1 X136.967 Y111.251 E-0.20286
G1 X136.654 Y111.935 E-0.17353
G1 X136.331 Y112.356 E-0.12258
;WIPE_END
G1 E-0.04000 F2100.000
G1 Z0.600 F10800.000
G1 X139.846 Y101.022
G1 Z0.200
G1 E0.80000 F2100.000
G1 F1200.000
G1 X139.772 Y100.842 E0.00611
;WIPE_START
G1 F8640.000
G1 X139.846 Y101.022 E-0.04498
;WIPE_END
G1 E-0.75502 F2100.000
G1 Z0.600 F10800.000
G1 X138.773 Y99.290
G1 Z0.200
G1 E0.80000 F2100.000
G1 F1200.000
G1 X138.371 Y98.997 E0.01561
G1 X137.839 Y98.788 E0.01790
G1 X136.967 Y98.748 E0.02737
G1 X136.654 Y98.065 E0.02356
G1 X135.043 Y95.966 E0.08297
;WIPE_START
