; generated by PrusaSlicer 2.3.0+win64 on 2021-04-27 at 16:21:02 UTC

; 

; external perimeters extrusion width = 0.45mm
; perimeters extrusion width = 0.45mm
; infill extrusion width = 0.45mm
; solid infill extrusion width = 0.45mm
; top infill extrusion width = 0.40mm
; first layer extrusion width = 0.42mm

M73 P0 R47
M73 Q0 S47
M201 X1000 Y1000 Z200 E5000 ; sets maximum accelerations, mm/sec^2
M203 X200 Y200 Z12 E120 ; sets maximum feedrates, mm/sec
M204 P1250 R1250 T1250 ; sets acceleration (P, T) and retract acceleration (R), mm/sec^2
M205 X8.00 Y8.00 Z0.40 E4.50 ; sets the jerk limits, mm/sec
M205 S0 T0 ; sets the minimum extruding and travel feed rate, mm/sec
M107
;TYPE:Custom
M862.3 P "MK3S" ; printer model check
M862.1 P0.4 ; nozzle diameter check
M115 U3.9.2 ; tell printer latest fw version
G90 ; use absolute coordinates
M83 ; extruder relative mode
M104 S215 ; set extruder temp
M140 S60 ; set bed temp
M190 S60 ; wait for bed temp
M109 S215 ; wait for extruder temp
G28 W ; home all without mesh bed level
G80 ; mesh bed leveling
G1 Y-3.0 F1000.0 ; go outside print area
G92 E0.0
G1 X60.0 E9.0 F1000.0 ; intro line
G1 X100.0 E12.5 F1000.0 ; intro line
G92 E0.0
M221 S95

; Don't change E values below. Excessive value can damage the printer.

G21 ; set units to millimeters
G90 ; use absolute coordinates
M83 ; use relative distances for extrusion
M900 K0.05 ; Filament gcode LA 1.5
M900 K30 ; Filament gcode LA 1.0
;LAYER_CHANGE
;Z:0.2
;HEIGHT:0.2
;BEFORE_LAYER_CHANGE
G92 E0.0
;0.2


G1 E-0.80000 F2100.000
G1 Z0.400 F10800.000
;AFTER_LAYER_CHANGE
;0.2
G1 X110.296 Y99.351
G1 Z0.200
G1 E0.80000 F2100.000
M204 S1000
;TYPE:Skirt
;WIDTH:0.42
G1 F1200.000
G1 X110.792 Y98.841 E0.02231
G1 X111.406 Y98.473 E0.02243
G1 X111.928 Y98.306 E0.01720
G1 X112.477 Y98.245 E0.01733
G1 X137.226 Y98.245 E0.77598
G1 X137.772 Y98.300 E0.01720
G1 X138.295 Y98.463 E0.01720
G1 X138.777 Y98.726 E0.01720
G1 X139.196 Y99.079 E0.01720
G1 X139.585 Y99.585 E0.02001
G1 X139.999 Y100.422 E0.02928
G1 X140.242 Y101.349 E0.03006
G1 X140.203 Y108.917 E0.23729
G1 X140.018 Y109.515 E0.01963
G1 X139.456 Y110.612 E0.03864
G1 X138.949 Y111.146 E0.02307
G1 X138.320 Y111.527 E0.02307
G1 X137.794 Y111.695 E0.01733
G1 X137.244 Y111.755 E0.01733
G1 X112.363 Y111.751 E0.78013
G1 X111.612 Y111.607 E0.02396
G1 X110.934 Y111.264 E0.02383
G1 X110.375 Y110.749 E0.02383
G1 X109.976 Y110.097 E0.02396
G1 X109.812 Y109.591 E0.01669
G1 X109.749 Y109.063 E0.01669
G1 X109.769 Y100.664 E0.26334
G1 X109.946 Y99.975 E0.02231
G1 X110.267 Y99.403 E0.02055
;WIPE_START
G1 F8640.000
G1 X110.792 Y98.841 E-0.17769
G1 X111.406 Y98.473 E-0.16520
G1 X111.928 Y98.306 E-0.12665
G1 X112.477 Y98.245 E-0.12759
G1 X113.183 Y98.245 E-0.16287
;WIPE_END
G1 E-0.04000 F2100.000
G1 Z0.600 F10800.000
G1 X111.582 Y98.808
G1 Z0.200
G1 E0.80000 F2100.000
G1 F1200.000
G1 X112.486 Y98.622 E0.02896
G1 X137.226 Y98.622 E0.77569
G1 X138.163 Y98.816 E0.03001
G1 X138.945 Y99.362 E0.02989
G1 X139.276 Y99.802 E0.01728
G1 X139.662 Y100.593 E0.02760
G1 X139.868 Y101.401 E0.02614
G1 X139.838 Y108.817 E0.23253
G1 X139.677 Y109.352 E0.01752
G1 X139.156 Y110.382 E0.03620
G1 X138.705 Y110.859 E0.02060
G1 X138.143 Y111.192 E0.02048
G1 X137.238 Y111.378 E0.02896
G1 X112.396 Y111.375 E0.77892
G1 X111.739 Y111.252 E0.02095
G1 X111.143 Y110.950 E0.02095
G1 X110.654 Y110.495 E0.02095
G1 X110.311 Y109.921 E0.02095
G1 X110.126 Y109.043 E0.02813
G1 X110.141 Y100.729 E0.26068
G1 X110.293 Y100.122 E0.01965
G1 X110.602 Y99.572 E0.01977
G1 X111.041 Y99.125 E0.01965
G1 X111.530 Y98.838 E0.01777
;WIPE_START
G1 F8640.000
G1 X112.486 Y98.622 E-0.22640
G1 X114.797 Y98.622 E-0.53360
;WIPE_END
G1 E-0.04000 F2100.000
G1 Z0.600 F10800.000
G1 X128.950 Y98.056
G1 Z0.200
G1 E0.80000 F2100.000
G1 F1200.000
G1 X129.451 Y97.534 E0.02268
G1 X130.386 Y96.937 E0.03478
G1 X131.416 Y96.569 E0.03430
G1 X138.050 Y96.562 E0.20801
G1 X139.251 Y97.003 E0.04012
G1 X140.047 Y97.533 E0.02998
G1 X140.736 Y98.221 E0.03054
G1 X141.496 Y99.568 E0.04849
G1 X141.945 Y100.668 E0.03726
G1 X142.165 Y101.573 E0.02921
G1 X142.212 Y108.118 E0.20522
G1 X141.828 Y109.690 E0.05073
G1 X141.143 Y111.180 E0.05143
G1 X140.347 Y112.199 E0.04054
G1 X139.304 Y112.971 E0.04069
G1 X137.768 Y113.483 E0.05078
G1 X132.052 Y113.526 E0.17921
G1 X130.369 Y113.054 E0.05482
G1 X129.288 Y112.323 E0.04092
G1 X128.970 Y111.942 E0.01556
G1 X128.389 Y111.188 F10800.000
G1 F1200.000
G1 X127.713 Y109.804 E0.04830
G1 X127.432 Y109.030 E0.02581
G1 X127.268 Y108.304 E0.02335
G1 X127.281 Y106.991 E0.04116
G1 X127.655 Y105.508 E0.04798
G1 X127.699 Y105.001 E0.01594
G1 X127.655 Y104.492 E0.01602
G1 X127.283 Y103.051 E0.04667
G1 X127.245 Y101.835 E0.03815
G1 X127.494 Y100.751 E0.03486
G1 X128.140 Y99.264 E0.05083
G1 X128.406 Y98.811 E0.01649
G1 X128.842 Y98.811 F10800.000
G1 F1200.000
G1 X128.481 Y99.425 E0.02235
G1 X127.847 Y100.886 E0.04994
G1 X127.623 Y101.848 E0.03097
G1 X127.659 Y103.018 E0.03669
G1 X128.028 Y104.427 E0.04568
G1 X128.078 Y105.001 E0.01806
G1 X128.028 Y105.571 E0.01795
G1 X127.657 Y107.020 E0.04687
G1 X127.640 Y108.244 E0.03838
G1 X127.791 Y108.913 E0.02152
G1 X128.064 Y109.667 E0.02513
G1 X128.764 Y111.108 E0.05024
G1 X128.830 Y111.188 E0.00326
G1 X129.453 Y111.942 F10800.000
G1 F1200.000
G1 X129.524 Y112.028 E0.00348
G1 X130.503 Y112.700 E0.03724
G1 X132.077 Y113.149 E0.05134
G1 X137.679 Y113.115 E0.17564
G1 X139.106 Y112.648 E0.04709
G1 X140.068 Y111.945 E0.03734
G1 X140.811 Y111.002 E0.03766
G1 X141.467 Y109.581 E0.04905
G1 X141.834 Y108.097 E0.04796
G1 X141.793 Y101.640 E0.20245
G1 X141.590 Y100.797 E0.02719
G1 X141.151 Y99.721 E0.03645
G1 X140.450 Y98.468 E0.04501
G1 X139.822 Y97.836 E0.02794
G1 X139.061 Y97.329 E0.02865
G1 X137.953 Y96.928 E0.03697
G1 X131.511 Y96.935 E0.20198
G1 X130.568 Y97.268 E0.03133
G1 X129.705 Y97.813 E0.03202
G1 X129.470 Y98.056 E0.01061
G1 X130.025 Y98.056 F10800.000
G1 F1200.000
G1 X130.715 Y97.616 E0.02566
G1 X131.606 Y97.301 E0.02964
G1 X137.857 Y97.294 E0.19598
G1 X138.873 Y97.657 E0.03385
G1 X139.568 Y98.115 E0.02611
G1 X140.164 Y98.715 E0.02649
G1 X140.806 Y99.873 E0.04153
G1 X141.236 Y100.926 E0.03565
G1 X141.421 Y101.706 E0.02515
G1 X141.457 Y108.075 E0.19968
G1 X141.106 Y109.472 E0.04517
G1 X140.478 Y110.823 E0.04672
G1 X139.824 Y111.656 E0.03321
G1 X138.909 Y112.326 E0.03556
G1 X137.592 Y112.748 E0.04335
G1 X132.102 Y112.772 E0.17214
G1 X130.689 Y112.371 E0.04606
G1 X130.057 Y111.942 E0.02394
;WIPE_START
G1 F8640.000
G1 X130.689 Y112.371 E-0.17633
G1 X132.102 Y112.772 E-0.33922
G1 X133.161 Y112.767 E-0.24445
;WIPE_END
G1 E-0.04000 F2100.000
G1 Z0.600 F10800.000
G1 X129.314 Y111.189
G1 Z0.200
G1 E0.80000 F2100.000
G1 F1200.000
G1 X129.092 Y110.923 E0.01086
G1 X128.415 Y109.529 E0.04858
G1 X128.150 Y108.796 E0.02443
G1 X128.013 Y108.184 E0.01967
G1 X128.034 Y107.049 E0.03558
G1 X128.401 Y105.636 E0.04579
G1 X128.456 Y105.001 E0.01998
G1 X128.400 Y104.362 E0.02012
G1 X128.035 Y102.982 E0.04475
G1 X127.996 Y101.908 E0.03372
G1 X128.200 Y101.020 E0.02855
G1 X128.822 Y99.585 E0.04905
G1 X129.274 Y98.811 E0.02811
G1 X129.784 Y98.811 F10800.000
G1 F1200.000
G1 X129.579 Y99.028 E0.00937
G1 X129.164 Y99.745 E0.02596
G1 X128.553 Y101.154 E0.04816
G1 X128.369 Y101.966 E0.02610
G1 X128.411 Y102.945 E0.03072
G1 X128.773 Y104.296 E0.04386
G1 X128.835 Y105.001 E0.02219
G1 X128.774 Y105.701 E0.02203
G1 X128.410 Y107.081 E0.04474
G1 X128.387 Y108.126 E0.03276
G1 X128.509 Y108.679 E0.01778
G1 X128.767 Y109.391 E0.02375
G1 X129.398 Y110.701 E0.04559
G1 X129.800 Y111.189 E0.01979
;WIPE_START
G1 F8640.000
G1 X129.398 Y110.701 E-0.14577
G1 X128.767 Y109.391 E-0.33574
G1 X128.509 Y108.679 E-0.17489
G1 X128.412 Y108.241 E-0.10360
;WIPE_END
G1 E-0.04000 F2100.000
G1 Z0.600 F10800.000
G1 X130.729 Y111.943
G1 Z0.200
G1 E0.80000 F2100.000
G1 F1200.000
G1 X130.875 Y112.042 E0.00556
G1 X132.127 Y112.395 E0.04078
G1 X137.507 Y112.379 E0.16869
G1 X138.714 Y112.002 E0.03963
G1 X139.545 Y111.401 E0.03216
G1 X140.146 Y110.643 E0.03032
G1 X140.745 Y109.360 E0.04438
G1 X141.080 Y108.052 E0.04236
G1 X141.049 Y101.771 E0.19692
G1 X140.881 Y101.054 E0.02309
G1 X140.461 Y100.025 E0.03485
G1 X139.876 Y98.960 E0.03810
G1 X139.344 Y98.419 E0.02380
G1 X138.685 Y97.985 E0.02473
G1 X137.762 Y97.660 E0.03068
G1 X131.700 Y97.667 E0.19009
G1 X130.899 Y97.946 E0.02659
G1 X130.726 Y98.056 E0.00644
G1 X130.302 Y98.811 F10800.000
G1 F1200.000
G1 X129.893 Y99.237 E0.01852
G1 X129.506 Y99.905 E0.02421
G1 X128.906 Y101.288 E0.04729
G1 X128.747 Y101.977 E0.02217
G1 X128.780 Y102.868 E0.02795
G1 X129.146 Y104.230 E0.04422
G1 X129.213 Y105.001 E0.02426
G1 X129.146 Y105.767 E0.02411
G1 X128.786 Y107.114 E0.04372
G1 X128.760 Y108.069 E0.02994
G1 X128.867 Y108.563 E0.01587
G1 X129.118 Y109.254 E0.02304
G1 X129.728 Y110.516 E0.04395
G1 X130.288 Y111.189 E0.02744
;WIPE_START
G1 F8640.000
G1 X129.728 Y110.516 E-0.20210
G1 X129.118 Y109.254 E-0.32364
G1 X128.867 Y108.563 E-0.16967
G1 X128.808 Y108.290 E-0.06459
;WIPE_END
G1 E-0.04000 F2100.000
G1 Z0.600 F10800.000
G1 X131.884 Y111.943
M73 Q1 S47
G1 Z0.200
G1 E0.80000 F2100.000
G1 F1200.000
G1 X132.153 Y112.018 E0.00874
G1 X137.425 Y112.010 E0.16531
M73 P1 R47
G1 X138.521 Y111.676 E0.03593
G1 X138.995 Y111.339 E0.01823
G1 X139.092 Y111.270 F10800.000
G1 F1200.000
G1 X139.268 Y111.144 E0.00678
G1 X139.578 Y110.757 E0.01556
G1 X139.620 Y110.705 F10800.000
G1 F1200.000
G1 X139.814 Y110.462 E0.00976
G1 X140.385 Y109.248 E0.04205
G1 X140.703 Y108.028 E0.03952
G1 X140.677 Y101.836 E0.19417
G1 X140.526 Y101.183 E0.02102
G1 X140.115 Y100.177 E0.03406
G1 X139.809 Y99.612 E0.02014
G1 X139.725 Y99.458 F10800.000
G1 F1200.000
G1 X139.588 Y99.205 E0.00900
G1 X139.090 Y98.698 E0.02230
G1 X138.500 Y98.314 E0.02208
G1 X137.669 Y98.027 E0.02754
G1 X131.792 Y98.034 E0.18429
G1 X131.727 Y98.056 E0.00215
;WIPE_START
G1 F8640.000
G1 X131.792 Y98.034 E-0.01583
G1 X135.015 Y98.030 E-0.74417
;WIPE_END
G1 E-0.04000 F2100.000
G1 Z0.600 F10800.000
G1 X130.949 Y111.189
G1 Z0.200
G1 E0.80000 F2100.000
G1 F1200.000
G1 X130.572 Y110.941 E0.01416
G1 X130.057 Y110.330 E0.02506
G1 X129.469 Y109.116 E0.04228
G1 X129.226 Y108.447 E0.02232
G1 X129.134 Y108.013 E0.01391
G1 X129.162 Y107.149 E0.02710
G1 X129.519 Y105.834 E0.04274
G1 X129.592 Y105.001 E0.02620
G1 X129.519 Y104.164 E0.02636
G1 X129.156 Y102.829 E0.04335
G1 X129.120 Y102.035 E0.02494
G1 X129.259 Y101.422 E0.01970
G1 X129.848 Y100.064 E0.04641
G1 X130.182 Y99.481 E0.02107
G1 X130.661 Y98.981 E0.02173
G1 X130.935 Y98.811 E0.01011
;WIPE_START
G1 F8640.000
G1 X130.661 Y98.981 E-0.07446
G1 X130.182 Y99.481 E-0.16002
G1 X129.848 Y100.064 E-0.15514
G1 X129.259 Y101.422 E-0.34177
G1 X129.232 Y101.543 E-0.02861
;WIPE_END
G1 E-0.04000 F2100.000
G1 Z0.600 F10800.000
G1 X131.932 Y111.189
G1 Z0.200
G1 E0.80000 F2100.000
G1 F1200.000
G1 X131.420 Y111.047 E0.01668
G1 X130.839 Y110.674 E0.02164
G1 X130.385 Y110.143 E0.02191
G1 X129.820 Y108.978 E0.04058
G1 X129.586 Y108.331 E0.02158
G1 X129.507 Y107.958 E0.01195
G1 X129.532 Y107.227 E0.02294
G1 X129.892 Y105.900 E0.04311
G1 X129.970 Y105.001 E0.02829
G1 X129.891 Y104.096 E0.02848
G1 X129.532 Y102.791 E0.04245
G1 X129.498 Y102.044 E0.02344
G1 X129.611 Y101.557 E0.01569
G1 X130.190 Y100.222 E0.04560
G1 X130.472 Y99.722 E0.01802
G1 X130.884 Y99.286 E0.01879
G1 X131.401 Y98.960 E0.01917
G1 X131.848 Y98.811 E0.01477
G1 X131.964 Y99.168 F10800.000
G1 F1200.000
G1 X132.060 Y99.137 E0.00318
G1 X137.403 Y99.129 E0.16751
G1 X137.952 Y99.306 E0.01809
G1 X138.356 Y99.561 E0.01499
G1 X138.719 Y99.933 E0.01630
G1 X139.084 Y100.643 E0.02503
G1 X139.460 Y101.565 E0.03122
G1 X139.560 Y102.021 E0.01464
G1 X139.571 Y107.956 E0.18607
G1 X139.340 Y108.812 E0.02781
G1 X138.821 Y109.915 E0.03822
G1 X138.448 Y110.361 E0.01824
G1 X137.957 Y110.692 E0.01856
G1 X137.291 Y110.887 E0.02176
G1 X132.229 Y110.887 E0.15873
G1 X131.596 Y110.713 E0.02059
G1 X131.104 Y110.404 E0.01820
G1 X130.713 Y109.955 E0.01867
G1 X130.171 Y108.840 E0.03885
G1 X129.945 Y108.216 E0.02082
G1 X129.882 Y107.906 E0.00992
G1 X129.908 Y107.265 E0.02013
G1 X130.264 Y105.967 E0.04220
G1 X130.349 Y105.001 E0.03040
G1 X130.264 Y104.028 E0.03062
G1 X129.907 Y102.752 E0.04154
G1 X129.876 Y102.054 E0.02190
G1 X129.963 Y101.693 E0.01167
G1 X130.532 Y100.382 E0.04480
G1 X130.788 Y99.929 E0.01631
G1 X131.138 Y99.566 E0.01581
G1 X131.578 Y99.293 E0.01624
G1 X131.907 Y99.187 E0.01083
G1 X132.019 Y99.544 F10800.000
G1 F1200.000
G1 X132.145 Y99.505 E0.00414
G1 X137.319 Y99.498 E0.16224
G1 X137.773 Y99.639 E0.01489
G1 X138.135 Y99.867 E0.01342
G1 X138.425 Y100.172 E0.01321
G1 X138.744 Y100.805 E0.02222
G1 X139.104 Y101.691 E0.03000
G1 X139.187 Y102.080 E0.01247
G1 X139.194 Y107.930 E0.18343
G1 X138.992 Y108.665 E0.02392
G1 X138.491 Y109.731 E0.03690
G1 X138.180 Y110.094 E0.01500
G1 X137.775 Y110.361 E0.01522
G1 X137.264 Y110.510 E0.01667
G1 X132.254 Y110.510 E0.15711
G1 X131.772 Y110.378 E0.01564
G1 X131.328 Y110.100 E0.01643
G1 X131.041 Y109.768 E0.01376
G1 X130.522 Y108.702 E0.03716
G1 X130.305 Y108.102 E0.02004
G1 X130.256 Y107.857 E0.00782
G1 X130.283 Y107.305 E0.01731
G1 X130.637 Y106.035 E0.04135
G1 X130.727 Y105.001 E0.03254
G1 X130.637 Y103.963 E0.03266
G1 X130.282 Y102.700 E0.04115
G1 X130.250 Y102.112 E0.01844
G1 X130.316 Y101.826 E0.00922
G1 X130.867 Y100.555 E0.04343
G1 X131.081 Y100.168 E0.01386
G1 X131.358 Y99.873 E0.01271
G1 X131.756 Y99.627 E0.01465
G1 X131.962 Y99.562 E0.00677
G1 X132.069 Y99.921 F10800.000
G1 F1200.000
G1 X132.225 Y99.874 E0.00511
G1 X137.290 Y99.875 E0.15880
G1 X137.592 Y99.970 E0.00993
G1 X137.912 Y100.172 E0.01186
G1 X138.129 Y100.406 E0.01000
G1 X138.402 Y100.964 E0.01948
G1 X138.748 Y101.816 E0.02885
G1 X138.814 Y102.136 E0.01025
G1 X138.817 Y107.904 E0.18083
G1 X138.644 Y108.519 E0.02003
G1 X138.162 Y109.545 E0.03556
G1 X137.917 Y109.824 E0.01163
G1 X137.596 Y110.028 E0.01193
G1 X137.238 Y110.133 E0.01170
G1 X132.278 Y110.133 E0.15550
G1 X131.944 Y110.042 E0.01086
G1 X131.589 Y109.826 E0.01302
G1 X131.368 Y109.578 E0.01042
G1 X130.874 Y108.564 E0.03536
G1 X130.664 Y107.988 E0.01923
G1 X130.631 Y107.810 E0.00569
G1 X130.652 Y107.387 E0.01328
G1 X131.010 Y106.103 E0.04179
G1 X131.106 Y105.001 E0.03467
G1 X131.009 Y103.898 E0.03472
G1 X130.717 Y102.806 E0.03545
G1 X130.656 Y102.643 E0.00545
G1 X130.624 Y102.166 E0.01499
G1 X130.670 Y101.959 E0.00666
G1 X131.203 Y100.726 E0.04212
G1 X131.377 Y100.402 E0.01150
G1 X131.580 Y100.179 E0.00948
G1 X131.931 Y99.962 E0.01295
G1 X132.011 Y99.938 E0.00260
G1 X131.802 Y100.485 F10800.000
G1 F1200.000
G1 X132.105 Y100.298 E0.01117
G1 X132.298 Y100.245 E0.00628
G1 X137.258 Y100.252 E0.15552
G1 X137.410 Y100.301 E0.00499
G1 X137.687 Y100.476 E0.01027
G1 X137.828 Y100.634 E0.00664
G1 X138.054 Y101.110 E0.01652
G1 X138.391 Y101.940 E0.02811
G1 X138.440 Y102.190 E0.00797
G1 X138.440 Y107.876 E0.17829
G1 X138.297 Y108.371 E0.01615
G1 X137.832 Y109.361 E0.03428
G1 X137.692 Y109.520 E0.00666
G1 X137.416 Y109.696 E0.01026
G1 X137.211 Y109.756 E0.00670
G1 X132.303 Y109.755 E0.15387
G1 X132.111 Y109.703 E0.00624
G1 X131.844 Y109.547 E0.00971
G1 X131.694 Y109.386 E0.00691
G1 X131.225 Y108.426 E0.03348
G1 X131.025 Y107.876 E0.01836
G1 X131.006 Y107.766 E0.00349
G1 X131.021 Y107.468 E0.00938
G1 X131.382 Y106.170 E0.04223
G1 X131.484 Y105.001 E0.03679
G1 X131.382 Y103.832 E0.03679
G1 X131.076 Y102.691 E0.03704
G1 X131.019 Y102.537 E0.00514
G1 X130.998 Y102.217 E0.01008
G1 X131.024 Y102.089 E0.00408
G1 X131.539 Y100.897 E0.04072
G1 X131.699 Y100.600 E0.01056
G1 X131.762 Y100.530 E0.00296
G1 X132.275 Y100.635 F10800.000
G1 F1200.000
G1 X132.324 Y100.622 E0.00160
G1 X137.183 Y100.622 E0.15235
G1 X137.463 Y100.781 E0.01012
G1 X137.499 Y100.821 E0.00167
G1 X137.707 Y101.257 E0.01516
G1 X138.035 Y102.065 E0.02736
G1 X138.063 Y102.208 E0.00456
G1 X138.063 Y107.848 E0.17682
G1 X137.950 Y108.222 E0.01227
G1 X137.502 Y109.176 E0.03304
G1 X137.467 Y109.216 E0.00168
G1 X137.236 Y109.363 E0.00858
G1 X137.184 Y109.378 E0.00169
G1 X132.328 Y109.378 E0.15225
G1 X132.058 Y109.235 E0.00959
G1 X132.020 Y109.195 E0.00174
G1 X131.576 Y108.288 E0.03166
G1 X131.381 Y107.731 E0.01851
