; generated by PrusaSlicer 2.3.0+win64 on 2021-04-27 at 14:23:47 UTC

; 

; external perimeters extrusion width = 0.45mm
; perimeters extrusion width = 0.45mm
; infill extrusion width = 0.45mm
; solid infill extrusion width = 0.45mm
; top infill extrusion width = 0.40mm
; first layer extrusion width = 0.42mm

M73 P0 R13
M73 Q0 S13
M201 X1000 Y1000 Z200 E5000 ; sets maximum accelerations, mm/sec^2
M203 X200 Y200 Z12 E120 ; sets maximum feedrates, mm/sec
M204 P1250 R1250 T1250 ; sets acceleration (P, T) and retract acceleration (R), mm/sec^2
M205 X8.00 Y8.00 Z0.40 E4.50 ; sets the jerk limits, mm/sec
M205 S0 T0 ; sets the minimum extruding and travel feed rate, mm/sec
M107
;TYPE:Custom
M862.3 P "MK3S" ; printer model check
M862.1 P0.4 ; nozzle diameter check
M115 U3.9.2 ; tell printer latest fw version
G90 ; use absolute coordinates
M83 ; extruder relative mode
M104 S215 ; set extruder temp
M140 S60 ; set bed temp
M190 S60 ; wait for bed temp
M109 S215 ; wait for extruder temp
G28 W ; home all without mesh bed level
G80 ; mesh bed leveling
G1 Y-3.0 F1000.0 ; go outside print area
G92 E0.0
G1 X60.0 E9.0 F1000.0 ; intro line
G1 X100.0 E12.5 F1000.0 ; intro line
G92 E0.0
M221 S95

; Don't change E values below. Excessive value can damage the printer.

G21 ; set units to millimeters
G90 ; use absolute coordinates
M83 ; use relative distances for extrusion
M900 K0.05 ; Filament gcode LA 1.5
M900 K30 ; Filament gcode LA 1.0
;LAYER_CHANGE
;Z:0.2
;HEIGHT:0.2
;BEFORE_LAYER_CHANGE
G92 E0.0
;0.2


G1 E-0.80000 F2100.000
G1 Z0.400 F10800.000
;AFTER_LAYER_CHANGE
;0.2
G1 X119.533 Y99.900
G1 Z0.200
G1 E0.80000 F2100.000
M204 S1000
;TYPE:Skirt
;WIDTH:0.42
G1 F1200.000
G1 X120.638 Y98.927 E0.04615
G1 X121.913 Y98.193 E0.04614
G1 X123.337 Y97.714 E0.04710
G1 X124.955 Y97.527 E0.05105
M73 Q1 S13
G1 X126.503 Y97.677 E0.04877
G1 X127.807 Y98.073 E0.04273
G1 X129.147 Y98.783 E0.04753
G1 X130.111 Y99.542 E0.03848
G1 X130.991 Y100.530 E0.04148
M73 P1 R13
G1 X131.716 Y101.727 E0.04390
G1 X132.276 Y103.276 E0.05162
G1 X132.476 Y104.876 E0.05057
G1 X132.401 Y106.054 E0.03700
G1 X132.231 Y106.899 E0.02704
G1 X131.942 Y107.777 E0.02897
G1 X131.218 Y109.152 E0.04872
G1 X130.483 Y110.086 E0.03728
G1 X129.397 Y111.052 E0.04555
G1 X128.051 Y111.831 E0.04877
G1 X126.957 Y112.211 E0.03630
G1 X126.005 Y112.409 E0.03051
G1 X125.107 Y112.477 E0.02823
G1 X123.917 Y112.396 E0.03741
G1 X123.102 Y112.231 E0.02606
G1 X122.188 Y111.929 E0.03019
G1 X121.128 Y111.400 E0.03713
G1 X119.898 Y110.471 E0.04833
G1 X118.931 Y109.374 E0.04585
G1 X118.169 Y108.050 E0.04790
G1 X117.751 Y106.818 E0.04079
G1 X117.582 Y105.941 E0.02800
G1 X117.523 Y105.118 E0.02589
G1 X117.652 Y103.614 E0.04730
G1 X118.064 Y102.209 E0.04593
G1 X118.775 Y100.862 E0.04774
G1 X119.496 Y99.947 E0.03655
G1 X119.791 Y100.179 F10800.000
G1 F1200.000
G1 X120.858 Y99.233 E0.04473
G1 X122.066 Y98.538 E0.04370
G1 X123.418 Y98.082 E0.04470
G1 X124.955 Y97.905 E0.04851
G1 X126.433 Y98.048 E0.04656
G1 X127.669 Y98.424 E0.04052
G1 X128.942 Y99.099 E0.04518
G1 X129.846 Y99.811 E0.03607
G1 X130.682 Y100.746 E0.03933
G1 X131.370 Y101.877 E0.04153
G1 X131.908 Y103.359 E0.04942
G1 X132.099 Y104.878 E0.04800
G1 X132.031 Y105.982 E0.03468
G1 X131.868 Y106.797 E0.02607
G1 X131.591 Y107.637 E0.02773
G1 X130.901 Y108.948 E0.04646
G1 X130.214 Y109.822 E0.03483
G1 X129.179 Y110.744 E0.04347
G1 X127.901 Y111.485 E0.04632
G1 X126.881 Y111.842 E0.03387
G1 X125.956 Y112.035 E0.02966
G1 X125.104 Y112.100 E0.02676
G1 X123.984 Y112.025 E0.03519
G1 X123.204 Y111.868 E0.02498
G1 X122.328 Y111.579 E0.02892
G1 X121.334 Y111.084 E0.03479
G1 X120.162 Y110.201 E0.04603
G1 X119.239 Y109.157 E0.04369
G1 X118.514 Y107.900 E0.04548
G1 X118.120 Y106.737 E0.03851
G1 X117.900 Y105.116 E0.05130
G1 X118.023 Y103.684 E0.04505
G1 X118.414 Y102.349 E0.04362
G1 X119.094 Y101.063 E0.04561
G1 X119.754 Y100.226 E0.03341
G1 X120.048 Y100.457 F10800.000
G1 F1200.000
G1 X121.072 Y99.543 E0.04304
G1 X122.212 Y98.885 E0.04127
G1 X123.491 Y98.452 E0.04233
G1 X124.954 Y98.282 E0.04619
G1 X126.362 Y98.418 E0.04436
G1 X127.527 Y98.774 E0.03819
G1 X128.737 Y99.416 E0.04295
G1 X129.582 Y100.080 E0.03369
G1 X130.376 Y100.966 E0.03732
G1 X131.024 Y102.028 E0.03901
G1 X131.540 Y103.444 E0.04723
G1 X131.722 Y104.881 E0.04542
G1 X131.660 Y105.916 E0.03253
G1 X131.504 Y106.700 E0.02507
G1 X131.239 Y107.502 E0.02647
G1 X130.583 Y108.745 E0.04406
G1 X129.945 Y109.558 E0.03242
G1 X128.961 Y110.437 E0.04136
G1 X127.750 Y111.139 E0.04388
G1 X126.800 Y111.474 E0.03157
G1 X125.905 Y111.662 E0.02869
G1 X125.101 Y111.723 E0.02528
G1 X124.056 Y111.655 E0.03284
G1 X123.300 Y111.504 E0.02417
G1 X122.463 Y111.227 E0.02765
G1 X121.536 Y110.765 E0.03246
G1 X120.424 Y109.930 E0.04359
G1 X119.549 Y108.942 E0.04140
G1 X118.860 Y107.749 E0.04320
G1 X118.488 Y106.655 E0.03623
G1 X118.277 Y105.113 E0.04880
G1 X118.394 Y103.753 E0.04279
G1 X118.765 Y102.488 E0.04133
G1 X119.409 Y101.271 E0.04319
G1 X120.011 Y100.505 E0.03055
G1 X120.306 Y100.736 F10800.000
G1 F1200.000
G1 X121.290 Y99.851 E0.04150
G1 X122.363 Y99.231 E0.03886
G1 X123.574 Y98.820 E0.04010
G1 X124.954 Y98.659 E0.04355
G1 X126.292 Y98.789 E0.04216
G1 X127.391 Y99.125 E0.03602
G1 X128.533 Y99.733 E0.04056
G1 X129.316 Y100.348 E0.03122
G1 X130.069 Y101.185 E0.03529
G1 X130.678 Y102.177 E0.03649
G1 X131.173 Y103.529 E0.04517
G1 X131.345 Y104.884 E0.04283
G1 X131.289 Y105.848 E0.03027
G1 X130.888 Y107.364 E0.04917
G1 X130.265 Y108.542 E0.04176
G1 X129.674 Y109.296 E0.03005
G1 X128.741 Y110.130 E0.03924
G1 X127.598 Y110.794 E0.04145
G1 X126.719 Y111.105 E0.02925
G1 X125.853 Y111.288 E0.02774
G1 X125.097 Y111.346 E0.02378
G1 X124.121 Y111.283 E0.03066
G1 X122.601 Y110.876 E0.04933
M73 Q2 S13
G1 X121.740 Y110.448 E0.03015
G1 X120.689 Y109.662 E0.04115
G1 X119.856 Y108.723 E0.03936
G1 X119.205 Y107.597 E0.04077
G1 X118.856 Y106.575 E0.03385
M73 P2 R13
G1 X118.654 Y105.109 E0.04640
G1 X118.764 Y103.821 E0.04052
G1 X119.117 Y102.623 E0.03916
G1 X119.729 Y101.471 E0.04090
G1 X120.269 Y100.783 E0.02742
;WIPE_START
G1 F8640.000
G1 X121.290 Y99.851 E-0.31930
G1 X122.363 Y99.231 E-0.28618
G1 X122.997 Y99.016 E-0.15452
;WIPE_END
G1 E-0.04000 F2100.000
G1 Z0.600 F10800.000
G1 X119.323 Y98.948
G1 Z0.200
G1 E0.80000 F2100.000
G1 F1200.000
G1 X120.359 Y98.133 E0.04133
G1 X120.900 Y97.791 E0.02006
G1 X121.666 Y97.405 E0.02690
G1 X122.472 Y97.099 E0.02703
G1 X123.992 Y96.767 E0.04877
G1 X125.526 Y96.726 E0.04813
G1 X126.214 Y96.796 E0.02169
G1 X127.358 Y97.049 E0.03672
G1 X128.018 Y97.279 E0.02193
G1 X128.910 Y97.682 E0.03069
G1 X130.269 Y98.594 E0.05132
G1 X131.246 Y99.542 E0.04268
G1 X132.285 Y101.023 E0.05673
G1 X132.650 Y101.790 E0.02660
G1 X132.940 Y102.599 E0.02697
G1 X133.243 Y104.040 E0.04616
G1 X133.283 Y105.536 E0.04693
G1 X133.025 Y107.097 E0.04961
G1 X132.458 Y108.628 E0.05117
G1 X131.665 Y109.943 E0.04817
G1 X130.655 Y111.077 E0.04761
G1 X129.205 Y112.147 E0.05651
G1 X127.875 Y112.785 E0.04625
G1 X126.296 Y113.195 E0.05114
G1 X125.369 Y113.288 E0.02923
G1 X124.748 Y113.294 E0.01946
G1 X123.200 Y113.100 E0.04891
G1 X121.700 Y112.614 E0.04946
G1 X120.509 Y111.976 E0.04236
G1 X119.200 Y110.937 E0.05238
G1 X118.183 Y109.735 E0.04938
G1 X117.417 Y108.360 E0.04936
G1 X116.929 Y106.921 E0.04762
G1 X116.753 Y105.859 E0.03375
G1 X116.717 Y104.818 E0.03267
G1 X116.836 Y103.520 E0.04087
G1 X117.021 Y102.724 E0.02562
G1 X117.284 Y101.964 E0.02523
G1 X117.644 Y101.167 E0.02740
G1 X118.064 Y100.456 E0.02591
G1 X118.642 Y99.676 E0.03044
G1 X119.282 Y98.991 E0.02938
G1 X119.556 Y99.247 F10800.000
G1 F1200.000
G1 X120.585 Y98.435 E0.04107
G1 X121.093 Y98.115 E0.01885
G1 X121.827 Y97.746 E0.02574
G1 X122.593 Y97.457 E0.02567
G1 X124.020 Y97.143 E0.04583
G1 X125.501 Y97.102 E0.04643
G1 X126.144 Y97.167 E0.02027
G1 X127.265 Y97.414 E0.03602
G1 X127.871 Y97.626 E0.02009
G1 X128.740 Y98.019 E0.02993
G1 X130.044 Y98.897 E0.04929
G1 X130.970 Y99.800 E0.04054
G1 X131.951 Y101.199 E0.05361
G1 X132.305 Y101.943 E0.02581
G1 X132.580 Y102.714 E0.02567
G1 X132.870 Y104.100 E0.04441
G1 X132.905 Y105.527 E0.04476
G1 X132.657 Y107.017 E0.04736
G1 X132.111 Y108.479 E0.04892
G1 X131.352 Y109.733 E0.04596
G1 X130.388 Y110.811 E0.04536
G1 X128.996 Y111.832 E0.05411
G1 X127.729 Y112.437 E0.04402
G1 X126.244 Y112.821 E0.04809
G1 X125.340 Y112.912 E0.02850
G1 X124.758 Y112.917 E0.01825
G1 X123.265 Y112.729 E0.04716
G1 X121.862 Y112.273 E0.04625
G1 X120.729 Y111.669 E0.04027
G1 X119.475 Y110.679 E0.05010
G1 X118.503 Y109.534 E0.04708
G1 X117.768 Y108.221 E0.04717
G1 X117.298 Y106.844 E0.04564
G1 X117.129 Y105.833 E0.03212
G1 X117.093 Y104.840 E0.03116
G1 X117.207 Y103.593 E0.03927
G1 X117.386 Y102.819 E0.02490
G1 X117.631 Y102.111 E0.02349
G1 X117.983 Y101.332 E0.02681
G1 X118.373 Y100.672 E0.02404
G1 X118.925 Y99.925 E0.02913
G1 X119.516 Y99.291 E0.02716
;WIPE_START
G1 F8640.000
G1 X120.585 Y98.435 E-0.31614
G1 X121.093 Y98.115 E-0.13885
G1 X121.827 Y97.746 E-0.18953
G1 X122.295 Y97.569 E-0.11548
;WIPE_END
G1 E-0.04000 F2100.000
G1 Z0.600 F10800.000
G1 X120.875 Y100.594
G1 Z0.200
G1 E0.80000 F2100.000
G1 F1200.000
G1 X121.704 Y99.954 E0.03283
G1 X122.052 Y99.739 E0.01282
G1 X122.607 Y99.463 E0.01943
G1 X123.189 Y99.247 E0.01949
G1 X124.264 Y99.013 E0.03447
G1 X125.381 Y98.984 E0.03504
G1 X125.799 Y99.022 E0.01317
G1 X126.723 Y99.221 E0.02963
G1 X127.133 Y99.361 E0.01359
G1 X127.888 Y99.703 E0.02598
G1 X128.910 Y100.405 E0.03887
G1 X129.582 Y101.078 E0.02983
G1 X130.284 Y102.083 E0.03842
G1 X130.568 Y102.675 E0.02060
G1 X130.782 Y103.283 E0.02020
G1 X131.002 Y104.360 E0.03447
G1 X131.019 Y105.471 E0.03483
G1 X130.815 Y106.602 E0.03604
G1 X130.382 Y107.724 E0.03770
G1 X129.811 Y108.644 E0.03395
G1 X129.084 Y109.448 E0.03399
G1 X127.964 Y110.252 E0.04323
G1 X127.012 Y110.691 E0.03288
G1 X125.986 Y110.952 E0.03319
G1 X125.197 Y111.031 E0.02486
G1 X124.811 Y111.032 E0.01211
M73 Q3 S13
G1 X123.691 Y110.892 E0.03538
G1 X122.637 Y110.554 E0.03470
G1 X121.819 Y110.128 E0.02891
G1 X120.843 Y109.378 E0.03861
G1 X120.077 Y108.494 E0.03666
G1 X119.520 Y107.521 E0.03516
G1 X119.145 Y106.453 E0.03549
M73 P3 R13
G1 X118.999 Y105.582 E0.02767
G1 X118.976 Y104.944 E0.02002
G1 X119.059 Y103.953 E0.03119
G1 X119.212 Y103.294 E0.02120
G1 X119.367 Y102.849 E0.01479
G1 X119.680 Y102.155 E0.02385
G1 X119.920 Y101.750 E0.01478
G1 X120.371 Y101.134 E0.02393
G1 X120.834 Y100.638 E0.02127
G1 X121.110 Y100.895 F10800.000
G1 F1200.000
G1 X121.925 Y100.259 E0.03243
G1 X122.241 Y100.065 E0.01162
G1 X122.765 Y99.805 E0.01832
G1 X123.307 Y99.605 E0.01813
G1 X124.326 Y99.385 E0.03267
G1 X125.359 Y99.361 E0.03241
G1 X125.732 Y99.393 E0.01175
G1 X126.612 Y99.581 E0.02821
G1 X126.986 Y99.709 E0.01239
G1 X127.717 Y100.039 E0.02515
G1 X128.681 Y100.705 E0.03672
G1 X129.303 Y101.332 E0.02770
G1 X129.951 Y102.260 E0.03548
G1 X130.215 Y102.811 E0.01916
G1 X130.422 Y103.396 E0.01946
G1 X130.629 Y104.417 E0.03267
G1 X130.641 Y105.457 E0.03259
G1 X130.448 Y106.516 E0.03377
G1 X130.037 Y107.571 E0.03548
G1 X129.520 Y108.404 E0.03074
G1 X128.818 Y109.179 E0.03281
G1 X127.760 Y109.935 E0.04076
G1 X126.871 Y110.341 E0.03066
G1 X125.934 Y110.578 E0.03029
G1 X125.169 Y110.655 E0.02412
G1 X124.823 Y110.655 E0.01084
G1 X123.756 Y110.520 E0.03373
G1 X122.768 Y110.200 E0.03255
G1 X122.035 Y109.819 E0.02593
G1 X121.114 Y109.115 E0.03633
G1 X120.394 Y108.290 E0.03434
G1 X119.870 Y107.378 E0.03297
G1 X119.514 Y106.374 E0.03340
G1 X119.373 Y105.532 E0.02676
G1 X119.353 Y104.964 E0.01784
G1 X119.429 Y104.025 E0.02954
G1 X119.577 Y103.390 E0.02044
G1 X119.714 Y102.996 E0.01305
G1 X120.019 Y102.320 E0.02326
G1 X120.230 Y101.965 E0.01296
G1 X120.655 Y101.383 E0.02259
G1 X121.069 Y100.939 E0.01903
G1 X121.345 Y101.197 F10800.000
G1 F1200.000
G1 X121.405 Y101.132 E0.00277
G1 X122.146 Y100.565 E0.02927
G1 X122.430 Y100.391 E0.01044
G1 X122.905 Y100.155 E0.01661
G1 X123.426 Y99.963 E0.01740
G1 X124.353 Y99.762 E0.02976
G1 X125.339 Y99.738 E0.03092
G1 X125.666 Y99.764 E0.01031
G1 X126.502 Y99.942 E0.02679
G1 X126.840 Y100.056 E0.01118
G1 X127.546 Y100.376 E0.02430
G1 X128.450 Y101.004 E0.03454
G1 X129.023 Y101.585 E0.02557
G1 X129.617 Y102.437 E0.03257
G1 X129.871 Y102.964 E0.01835
G1 X130.062 Y103.508 E0.01806
G1 X130.256 Y104.474 E0.03088
G1 X130.264 Y105.441 E0.03034
G1 X130.081 Y106.429 E0.03150
G1 X129.692 Y107.417 E0.03327
G1 X129.229 Y108.163 E0.02755
G1 X128.553 Y108.911 E0.03161
G1 X127.557 Y109.616 E0.03825
G1 X126.731 Y109.991 E0.02845
G1 X125.883 Y110.204 E0.02742
G1 X125.141 Y110.279 E0.02337
G1 X124.836 Y110.278 E0.00957
G1 X123.854 Y110.155 E0.03103
G1 X122.927 Y109.857 E0.03054
G1 X122.249 Y109.508 E0.02391
G1 X121.384 Y108.852 E0.03404
G1 X120.711 Y108.084 E0.03201
G1 X120.219 Y107.235 E0.03079
G1 X119.883 Y106.295 E0.03128
G1 X119.747 Y105.483 E0.02583
G1 X119.730 Y104.983 E0.01568
G1 X119.800 Y104.096 E0.02789
G1 X119.941 Y103.485 E0.01967
G1 X120.061 Y103.144 E0.01131
G1 X120.358 Y102.485 E0.02267
G1 X120.540 Y102.180 E0.01115
G1 X120.939 Y101.632 E0.02124
G1 X121.304 Y101.240 E0.01678
G1 X121.579 Y101.498 F10800.000
G1 F1200.000
G1 X121.669 Y101.402 E0.00414
G1 X122.366 Y100.871 E0.02747
G1 X122.619 Y100.718 E0.00927
G1 X123.045 Y100.506 E0.01492
G1 X123.543 Y100.322 E0.01665
G1 X124.414 Y100.134 E0.02794
G1 X125.319 Y100.114 E0.02838
G1 X125.601 Y100.136 E0.00886
G1 X126.393 Y100.303 E0.02536
G1 X126.693 Y100.404 E0.00994
G1 X127.374 Y100.712 E0.02344
G1 X128.219 Y101.303 E0.03233
G1 X128.742 Y101.837 E0.02344
G1 X129.285 Y102.615 E0.02973
G1 X129.519 Y103.099 E0.01688
G1 X129.702 Y103.621 E0.01732
G1 X129.879 Y104.495 E0.02797
G1 X129.887 Y105.426 E0.02918
G1 X129.714 Y106.340 E0.02919
G1 X129.348 Y107.262 E0.03108
G1 X128.938 Y107.923 E0.02439
G1 X128.287 Y108.642 E0.03041
G1 X127.356 Y109.297 E0.03571
G1 X126.592 Y109.640 E0.02624
G1 X125.832 Y109.831 E0.02458
G1 X125.114 Y109.903 E0.02261
G1 X124.850 Y109.901 E0.00828
G1 X123.951 Y109.791 E0.02838
G1 X123.084 Y109.514 E0.02855
G1 X122.462 Y109.197 E0.02189
G1 X121.654 Y108.587 E0.03174
G1 X121.027 Y107.878 E0.02968
G1 X120.568 Y107.090 E0.02861
G1 X120.252 Y106.216 E0.02914
G1 X120.121 Y105.433 E0.02489
G1 X120.107 Y105.001 E0.01354
G1 X120.170 Y104.167 E0.02622
G1 X120.306 Y103.580 E0.01888
G1 X120.408 Y103.292 E0.00958
G1 X120.698 Y102.650 E0.02208
G1 X120.850 Y102.394 E0.00934
G1 X121.237 Y101.863 E0.02060
G1 X121.538 Y101.542 E0.01381
G1 X121.933 Y101.671 F10800.000
G1 F1200.000
G1 X122.585 Y101.178 E0.02563
G1 X122.807 Y101.045 E0.00811
G1 X123.185 Y100.856 E0.01327
G1 X123.661 Y100.680 E0.01590
G1 X124.475 Y100.507 E0.02609
G1 X125.301 Y100.491 E0.02591
G1 X125.537 Y100.508 E0.00741
G1 X126.284 Y100.664 E0.02394
G1 X126.547 Y100.752 E0.00868
G1 X127.203 Y101.048 E0.02256
G1 X127.987 Y101.600 E0.03009
G1 X128.460 Y102.089 E0.02131
G1 X128.952 Y102.792 E0.02691
G1 X129.174 Y103.253 E0.01606
G1 X129.341 Y103.732 E0.01589
G1 X129.505 Y104.551 E0.02618
G1 X129.510 Y105.409 E0.02691
G1 X129.356 Y106.218 E0.02581
G1 X129.004 Y107.107 E0.02999
G1 X128.647 Y107.683 E0.02122
G1 X128.023 Y108.373 E0.02919
G1 X127.155 Y108.977 E0.03314
M73 P3 R12
G1 X126.454 Y109.288 E0.02405
G1 X125.780 Y109.457 E0.02178
G1 X125.087 Y109.526 E0.02184
G1 X124.865 Y109.524 E0.00698
G1 X124.048 Y109.426 E0.02580
G1 X123.240 Y109.171 E0.02656
G1 X122.674 Y108.885 E0.01987
G1 X121.922 Y108.322 E0.02945
G1 X121.342 Y107.670 E0.02735
M73 Q3 S12
G1 X120.916 Y106.944 E0.02642
G1 X120.621 Y106.136 E0.02697
G1 X120.495 Y105.383 E0.02393
G1 X120.483 Y105.019 E0.01143
G1 X120.541 Y104.238 E0.02455
G1 X120.671 Y103.676 E0.01809
G1 X120.755 Y103.440 E0.00784
G1 X121.037 Y102.816 E0.02149
G1 X121.160 Y102.609 E0.00756
G1 X121.520 Y102.112 E0.01923
G1 X121.892 Y101.715 E0.01706
G1 X122.167 Y101.973 F10800.000
G1 F1200.000
G1 X122.803 Y101.486 E0.02511
G1 X122.994 Y101.372 E0.00696
G1 X123.326 Y101.206 E0.01165
G1 X123.778 Y101.039 E0.01513
G1 X124.535 Y100.879 E0.02423
G1 X125.285 Y100.868 E0.02353
G1 X125.474 Y100.880 E0.00594
G1 X126.177 Y101.026 E0.02251
G1 X126.401 Y101.100 E0.00739
G1 X127.030 Y101.384 E0.02165
G1 X127.754 Y101.897 E0.02782
G1 X128.178 Y102.339 E0.01919
