; generated by PrusaSlicer 2.3.0+win64 on 2021-04-29 at 16:41:51 UTC

; 

; external perimeters extrusion width = 0.45mm
; perimeters extrusion width = 0.45mm
; infill extrusion width = 0.45mm
; solid infill extrusion width = 0.45mm
; top infill extrusion width = 0.40mm
; first layer extrusion width = 0.42mm

M73 P0 R49
M73 Q0 S49
M201 X1000 Y1000 Z200 E5000 ; sets maximum accelerations, mm/sec^2
M203 X200 Y200 Z12 E120 ; sets maximum feedrates, mm/sec
M204 P1250 R1250 T1250 ; sets acceleration (P, T) and retract acceleration (R), mm/sec^2
M205 X8.00 Y8.00 Z0.40 E4.50 ; sets the jerk limits, mm/sec
M205 S0 T0 ; sets the minimum extruding and travel feed rate, mm/sec
M107
;TYPE:Custom
M862.3 P "MK3S" ; printer model check
M862.1 P0.4 ; nozzle diameter check
M115 U3.9.2 ; tell printer latest fw version
G90 ; use absolute coordinates
M83 ; extruder relative mode
M104 S215 ; set extruder temp
M140 S60 ; set bed temp
M190 S60 ; wait for bed temp
M109 S215 ; wait for extruder temp
G28 W ; home all without mesh bed level
G80 ; mesh bed leveling
G1 Y-3.0 F1000.0 ; go outside print area
G92 E0.0
G1 X60.0 E9.0 F1000.0 ; intro line
G1 X100.0 E12.5 F1000.0 ; intro line
G92 E0.0
M221 S95

; Don't change E values below. Excessive value can damage the printer.

G21 ; set units to millimeters
G90 ; use absolute coordinates
M83 ; use relative distances for extrusion
M900 K0.05 ; Filament gcode LA 1.5
M900 K30 ; Filament gcode LA 1.0
;LAYER_CHANGE
;Z:0.2
;HEIGHT:0.2
;BEFORE_LAYER_CHANGE
G92 E0.0
;0.2


G1 E-0.80000 F2100.000
G1 Z0.400 F10800.000
;AFTER_LAYER_CHANGE
;0.2
G1 X110.532 Y99.097
G1 Z0.200
G1 E0.80000 F2100.000
M204 S1000
;TYPE:Skirt
;WIDTH:0.42
G1 F1200.000
G1 X117.968 Y93.335 E0.29497
G1 X118.475 Y93.050 E0.01822
G1 X121.444 Y91.841 E0.10053
G1 X125.004 Y91.369 E0.11260
G1 X128.521 Y91.832 E0.11120
G1 X131.726 Y93.146 E0.10863
G1 X139.261 Y98.916 E0.29754
G1 X139.652 Y99.334 E0.01796
G1 X139.977 Y99.862 E0.01944
G1 X140.564 Y101.040 E0.04128
G1 X140.905 Y102.048 E0.03335
G1 X141.003 Y102.695 E0.02052
G1 X141.004 Y105.230 E0.07949
G1 X140.470 Y109.090 E0.12218
G1 X139.824 Y110.433 E0.04672
G1 X139.238 Y111.113 E0.02816
G1 X131.725 Y116.854 E0.29647
G1 X128.520 Y118.168 E0.10860
G1 X125.000 Y118.631 E0.11133
G1 X121.479 Y118.168 E0.11133
G1 X118.267 Y116.850 E0.10888
G1 X110.585 Y110.957 E0.30355
G1 X110.047 Y110.203 E0.02904
G1 X109.390 Y108.821 E0.04797
G1 X109.046 Y107.780 E0.03439
G1 X108.996 Y102.744 E0.15792
G1 X109.070 Y102.110 E0.02001
G1 X109.340 Y101.285 E0.02722
G1 X110.108 Y99.679 E0.05582
G1 X110.497 Y99.146 E0.02068
G1 X110.800 Y99.369 F10800.000
G1 F1200.000
G1 X118.195 Y93.636 E0.29336
G1 X118.627 Y93.395 E0.01550
G1 X121.548 Y92.204 E0.09894
G1 X125.005 Y91.746 E0.10932
G1 X128.424 Y92.196 E0.10814
G1 X131.555 Y93.482 E0.10611
G1 X139.010 Y99.197 E0.29453
G1 X139.358 Y99.569 E0.01597
G1 X139.649 Y100.048 E0.01758
G1 X140.217 Y101.188 E0.03992
G1 X140.546 Y102.163 E0.03228
G1 X140.626 Y102.716 E0.01752
G1 X140.627 Y105.230 E0.07882
G1 X140.113 Y108.965 E0.11820
G1 X139.507 Y110.228 E0.04394
G1 X138.993 Y110.827 E0.02473
G1 X131.552 Y116.519 E0.29376
G1 X128.422 Y117.804 E0.10608
G1 X124.999 Y118.254 E0.10826
G1 X121.576 Y117.804 E0.10826
G1 X118.442 Y116.516 E0.10623
G1 X110.851 Y110.689 E0.30003
G1 X110.383 Y110.032 E0.02532
G1 X109.739 Y108.679 E0.04698
G1 X109.413 Y107.690 E0.03263
G1 X109.373 Y102.744 E0.15511
G1 X109.439 Y102.185 E0.01763
G1 X109.691 Y101.422 E0.02521
G1 X110.437 Y99.864 E0.05413
G1 X110.765 Y99.417 E0.01739
;WIPE_START
G1 F8640.000
G1 X113.362 Y97.396 E-0.76000
;WIPE_END
G1 E-0.04000 F2100.000
G1 Z0.600 F10800.000
G1 X112.278 Y96.521
G1 Z0.200
G1 E0.80000 F2100.000
G1 F1200.000
G1 X114.075 Y94.216 E0.09167
G1 X117.015 Y91.887 E0.11759
G1 X121.337 Y90.089 E0.14677
G1 X124.661 Y89.652 E0.10512
G1 X127.348 Y89.916 E0.08466
G1 X129.336 Y90.275 E0.06332
G1 X132.883 Y91.828 E0.12141
G1 X135.837 Y94.127 E0.11737
G1 X137.716 Y96.520 E0.09539
G1 X138.298 Y96.561 E0.01830
G1 X139.261 Y96.888 E0.03189
G1 X140.115 Y97.391 E0.03107
G1 X140.826 Y98.025 E0.02988
G1 X142.058 Y100.237 E0.07937
G1 X142.485 Y101.436 E0.03990
G1 X142.665 Y102.020 E0.01917
G1 X142.896 Y103.156 E0.03635
G1 X142.961 Y103.983 E0.02603
G1 X142.949 Y105.600 E0.05070
G1 X142.535 Y108.306 E0.08581
G1 X142.168 Y109.478 E0.03852
G1 X141.634 Y110.691 E0.04157
G1 X141.204 Y111.475 E0.02804
G1 X140.671 Y112.139 E0.02668
G1 X139.293 Y113.100 E0.05267
G1 X138.294 Y113.439 E0.03307
G1 X137.718 Y113.482 E0.01812
G1 X135.865 Y115.843 E0.09407
G1 X132.359 Y118.474 E0.13745
G1 X128.630 Y119.916 E0.12536
G1 X124.977 Y120.351 E0.11534
G1 X121.368 Y119.916 E0.11398
G1 X117.382 Y118.328 E0.13455
G1 X114.334 Y116.040 E0.11949
G1 X112.287 Y113.473 E0.10295
G1 X111.618 Y113.424 E0.02102
G1 X110.612 Y113.055 E0.03359
G1 X109.795 Y112.543 E0.03023
G1 X109.113 Y111.909 E0.02921
G1 X108.231 Y110.389 E0.05509
G1 X107.597 Y108.817 E0.05315
G1 X107.371 Y108.090 E0.02388
G1 X107.315 Y107.841 E0.00801
G1 X107.221 Y107.606 E0.00791
G1 X107.102 Y107.157 E0.01458
G1 X107.036 Y103.910 E0.10182
G1 X107.115 Y103.086 E0.02595
G1 X107.271 Y102.276 E0.02587
G1 X107.504 Y101.461 E0.02659
G1 X107.982 Y100.148 E0.04379
G1 X108.586 Y98.856 E0.04473
G1 X109.179 Y98.017 E0.03222
G1 X110.601 Y96.949 E0.05574
G1 X111.648 Y96.572 E0.03491
G1 X112.218 Y96.526 E0.01793
G1 X112.471 Y96.888 F10800.000
G1 F1200.000
G1 X114.327 Y94.497 E0.09489
G1 X117.229 Y92.199 E0.11605
G1 X121.411 Y90.460 E0.14201
G1 X124.689 Y90.029 E0.10366
G1 X127.304 Y90.291 E0.08240
G1 X129.206 Y90.630 E0.06058
G1 X132.670 Y92.140 E0.11850
G1 X135.587 Y94.411 E0.11589
G1 X137.525 Y96.887 E0.09861
G1 X138.203 Y96.927 E0.02131
G1 X139.088 Y97.224 E0.02927
G1 X139.878 Y97.685 E0.02869
G1 X140.551 Y98.285 E0.02826
G1 X141.708 Y100.377 E0.07495
G1 X142.128 Y101.558 E0.03930
G1 X142.302 Y102.122 E0.01850
G1 X142.524 Y103.219 E0.03510
G1 X142.584 Y103.988 E0.02419
G1 X142.572 Y105.584 E0.05002
G1 X142.165 Y108.234 E0.08408
G1 X141.819 Y109.336 E0.03619
G1 X141.292 Y110.532 E0.04100
G1 X140.899 Y111.252 E0.02572
G1 X140.394 Y111.881 E0.02530
G1 X139.146 Y112.751 E0.04768
G1 X138.197 Y113.073 E0.03142
G1 X137.525 Y113.116 E0.02111
G1 X135.618 Y115.557 E0.09712
G1 X132.198 Y118.132 E0.13424
G1 X128.561 Y119.545 E0.12233
G1 X125.000 Y119.974 E0.11247
G1 X121.438 Y119.545 E0.11250
G1 X117.588 Y118.011 E0.12993
G1 X114.580 Y115.753 E0.11794
G1 X112.477 Y113.106 E0.10600
G1 X111.720 Y113.060 E0.02378
G1 X110.794 Y112.724 E0.03087
G1 X110.038 Y112.254 E0.02790
G1 X109.390 Y111.652 E0.02773
G1 X108.576 Y110.236 E0.05122
G1 X107.955 Y108.698 E0.05201
G1 X107.734 Y107.985 E0.02339
G1 X107.676 Y107.727 E0.00829
G1 X107.583 Y107.498 E0.00777
G1 X107.472 Y107.082 E0.01347
G1 X107.413 Y103.914 E0.09935
G1 X107.489 Y103.132 E0.02465
G1 X107.640 Y102.356 E0.02477
G1 X107.861 Y101.583 E0.02520
G1 X108.327 Y100.300 E0.04280
G1 X108.921 Y99.032 E0.04392
G1 X109.469 Y98.259 E0.02971
G1 X110.755 Y97.295 E0.05040
G1 X111.750 Y96.936 E0.03316
G1 X112.411 Y96.892 E0.02079
;WIPE_START
G1 F8640.000
G1 X114.327 Y94.497 E-0.70810
G1 X114.504 Y94.358 E-0.05190
;WIPE_END
G1 E-0.04000 F2100.000
G1 Z0.600 F10800.000
G1 X127.259 Y90.665
G1 Z0.200
G1 E0.80000 F2100.000
G1 F1200.000
G1 X129.076 Y90.985 E0.05787
G1 X132.457 Y92.452 E0.11557
G1 X135.336 Y94.694 E0.11440
G1 X137.231 Y97.124 E0.09660
G1 X137.409 Y97.260 F10800.000
G1 F1200.000
G1 X138.111 Y97.293 E0.02201
G1 X138.917 Y97.560 E0.02663
G1 X139.642 Y97.980 E0.02627
G1 X140.276 Y98.545 E0.02663
G1 X141.357 Y100.517 E0.07053
G1 X141.771 Y101.681 E0.03871
G1 X141.939 Y102.224 E0.01782
G1 X142.152 Y103.282 E0.03385
G1 X142.207 Y103.993 E0.02236
G1 X142.195 Y105.567 E0.04934
G1 X141.794 Y108.163 E0.08235
G1 X141.470 Y109.193 E0.03387
G1 X140.950 Y110.374 E0.04045
G1 X140.594 Y111.030 E0.02340
G1 X140.117 Y111.624 E0.02391
G1 X139.000 Y112.403 E0.04268
G1 X138.102 Y112.708 E0.02973
G1 X137.416 Y112.743 E0.02153
G1 X137.222 Y112.891 F10800.000
G1 F1200.000
G1 X135.371 Y115.271 E0.09454
M73 Q1 S49
G1 X132.036 Y117.790 E0.13104
G1 X128.492 Y119.174 E0.11930
M73 P1 R49
G1 X125.022 Y119.596 E0.10959
G1 X121.507 Y119.173 E0.11101
G1 X117.794 Y117.694 E0.12530
G1 X114.826 Y115.466 E0.11639
G1 X112.773 Y112.873 E0.10368
G1 X112.591 Y112.733 F10800.000
G1 F1200.000
G1 X111.819 Y112.695 E0.02423
G1 X110.974 Y112.392 E0.02813
G1 X110.281 Y111.965 E0.02553
G1 X109.668 Y111.396 E0.02622
G1 X108.921 Y110.083 E0.04736
G1 X108.312 Y108.579 E0.05088
G1 X107.843 Y107.008 E0.05142
G1 X107.790 Y103.919 E0.09686
G1 X107.863 Y103.178 E0.02335
G1 X108.008 Y102.437 E0.02368
G1 X108.218 Y101.706 E0.02384
G1 X108.672 Y100.453 E0.04180
G1 X109.255 Y99.208 E0.04310
G1 X109.759 Y98.502 E0.02718
G1 X110.909 Y97.640 E0.04508
G1 X111.851 Y97.300 E0.03139
G1 X112.596 Y97.259 E0.02340
G1 X112.757 Y97.135 F10800.000
G1 F1200.000
G1 X114.580 Y94.778 E0.09341
G1 X117.443 Y92.511 E0.11451
G1 X121.485 Y90.831 E0.13725
G1 X124.716 Y90.406 E0.10219
G1 X127.259 Y90.665 E0.08014
;WIPE_START
G1 F8640.000
G1 X124.716 Y90.406 E-0.59014
G1 X123.987 Y90.502 E-0.16986
;WIPE_END
G1 E-0.04000 F2100.000
G1 Z0.600 F10800.000
G1 X124.743 Y90.782
G1 Z0.200
G1 E0.80000 F2100.000
G1 F1200.000
G1 X127.213 Y91.039 E0.07787
G1 X128.948 Y91.340 E0.05519
G1 X132.245 Y92.765 E0.11262
G1 X135.086 Y94.977 E0.11290
G1 X136.053 Y96.222 E0.04945
;WIPE_START
G1 F8640.000
G1 X135.086 Y94.977 E-0.36415
G1 X133.733 Y93.924 E-0.39585
;WIPE_END
G1 E-0.04000 F2100.000
G1 Z0.600 F10800.000
G1 X137.927 Y97.657
G1 Z0.200
G1 E0.80000 F2100.000
G1 F1200.000
G1 X138.020 Y97.660 E0.00292
G1 X138.747 Y97.898 E0.02398
G1 X139.406 Y98.275 E0.02381
G1 X140.001 Y98.804 E0.02496
G1 X141.007 Y100.657 E0.06611
G1 X141.415 Y101.803 E0.03814
G1 X141.576 Y102.326 E0.01714
G1 X141.780 Y103.345 E0.03260
G1 X141.830 Y103.998 E0.02054
G1 X141.818 Y105.550 E0.04866
G1 X141.424 Y108.090 E0.08060
G1 X141.120 Y109.050 E0.03156
G1 X140.608 Y110.214 E0.03989
G1 X140.271 Y110.834 E0.02211
G1 X139.841 Y111.366 E0.02145
G1 X138.854 Y112.054 E0.03773
G1 X138.007 Y112.341 E0.02802
G1 X137.938 Y112.344 E0.00219
;WIPE_START
G1 F8640.000
G1 X138.007 Y112.341 E-0.01610
G1 X138.854 Y112.054 E-0.20632
G1 X139.841 Y111.366 E-0.27784
G1 X140.271 Y110.834 E-0.15799
G1 X140.481 Y110.447 E-0.10174
;WIPE_END
G1 E-0.04000 F2100.000
G1 Z0.600 F10800.000
G1 X136.054 Y113.784
G1 Z0.200
G1 E0.80000 F2100.000
G1 F1200.000
G1 X135.123 Y114.986 E0.04767
G1 X131.874 Y117.449 E0.12783
G1 X128.422 Y118.802 E0.11625
G1 X124.999 Y119.219 E0.10812
G1 X121.577 Y118.802 E0.10811
G1 X118.001 Y117.378 E0.12069
G1 X115.072 Y115.179 E0.11483
G1 X113.988 Y113.805 E0.05487
;WIPE_START
G1 F8640.000
G1 X115.072 Y115.179 E-0.40408
G1 X116.304 Y116.105 E-0.35592
;WIPE_END
G1 E-0.04000 F2100.000
G1 Z0.600 F10800.000
G1 X112.073 Y112.336
G1 Z0.200
G1 E0.80000 F2100.000
G1 F1200.000
G1 X111.918 Y112.330 E0.00486
G1 X111.121 Y112.044 E0.02655
G1 X110.497 Y111.655 E0.02306
G1 X109.948 Y111.141 E0.02359
G1 X109.266 Y109.931 E0.04354
G1 X108.670 Y108.460 E0.04977
G1 X108.459 Y107.778 E0.02240
G1 X108.397 Y107.498 E0.00897
G1 X108.305 Y107.278 E0.00749
G1 X108.213 Y106.933 E0.01118
G1 X108.167 Y103.925 E0.09435
G1 X108.238 Y103.225 E0.02205
G1 X108.377 Y102.517 E0.02260
G1 X108.574 Y101.828 E0.02249
G1 X109.017 Y100.605 E0.04080
G1 X109.589 Y99.384 E0.04227
G1 X110.048 Y98.746 E0.02463
G1 X111.063 Y97.985 E0.03980
G1 X111.951 Y97.665 E0.02958
G1 X112.080 Y97.659 E0.00405
;WIPE_START
G1 F8640.000
G1 X111.951 Y97.665 E-0.02983
G1 X111.063 Y97.985 E-0.21781
G1 X110.048 Y98.746 E-0.29307
G1 X109.589 Y99.384 E-0.18139
G1 X109.519 Y99.532 E-0.03790
;WIPE_END
G1 E-0.04000 F2100.000
G1 Z0.600 F10800.000
G1 X113.938 Y96.219
G1 Z0.200
G1 E0.80000 F2100.000
G1 F1200.000
G1 X114.832 Y95.059 E0.04590
G1 X117.656 Y92.822 E0.11297
G1 X121.558 Y91.201 E0.13249
G1 X124.743 Y90.782 E0.10071
G1 X124.984 Y91.182 F10800.000
G1 F1200.000
G1 X124.770 Y91.159 E0.00675
G1 X121.632 Y91.572 E0.09922
G1 X121.440 Y91.652 E0.00653
;WIPE_START
G1 F8640.000
G1 X121.632 Y91.572 E-0.04810
G1 X124.689 Y91.170 E-0.71190
;WIPE_END
G1 E-0.04000 F2100.000
G1 Z0.600 F10800.000
G1 X118.139 Y93.023
G1 Z0.200
G1 E0.80000 F2100.000
G1 F1200.000
G1 X117.870 Y93.134 E0.00912
G1 X115.648 Y94.894 E0.08885
;WIPE_START
G1 F8640.000
G1 X117.870 Y93.134 E-0.65432
G1 X118.139 Y93.023 E-0.06719
;WIPE_END
G1 E-0.07849 F2100.000
G1 Z0.600 F10800.000
G1 X113.305 Y97.658
G1 Z0.200
G1 E0.80000 F2100.000
G1 F1200.000
G1 X113.044 Y97.998 E0.01344
G1 X112.858 Y98.004 E0.00584
;WIPE_START
G1 F8640.000
G1 X113.044 Y97.998 E-0.04304
G1 X113.305 Y97.658 E-0.09900
;WIPE_END
G1 E-0.65796 F2100.000
G1 Z0.600 F10800.000
G1 X111.119 Y98.404
G1 Z0.200
G1 E0.80000 F2100.000
G1 F1200.000
G1 X110.336 Y98.991 E0.03070
G1 X109.922 Y99.560 E0.02206
G1 X109.362 Y100.757 E0.04142
G1 X109.297 Y100.938 E0.00606
;WIPE_START
G1 F8640.000
G1 X109.362 Y100.757 E-0.04460
G1 X109.922 Y99.560 E-0.30506
G1 X110.336 Y98.991 E-0.16244
G1 X111.119 Y98.404 E-0.22611
;WIPE_END
G1 E-0.06180 F2100.000
G1 Z0.600 F10800.000
G1 X108.876 Y102.141
G1 Z0.200
G1 E0.80000 F2100.000
G1 F1200.000
G1 X108.745 Y102.599 E0.01493
G1 X108.612 Y103.272 E0.02152
G1 X108.545 Y103.931 E0.02076
G1 X108.583 Y106.859 E0.09183
G1 X108.665 Y107.167 E0.00998
G1 X108.758 Y107.382 E0.00733
G1 X108.858 Y107.791 E0.01321
G1 X108.958 Y108.113 F10800.000
G1 F1200.000
G1 X109.054 Y108.404 E0.00959
;WIPE_START
G1 F8640.000
G1 X108.958 Y108.113 E-0.07062
;WIPE_END
G1 E-0.72938 F2100.000
G1 Z0.600 F10800.000
G1 X109.464 Y109.415
G1 Z0.200
G1 E0.80000 F2100.000
G1 F1200.000
G1 X109.611 Y109.779 E0.01233
G1 X109.787 Y110.095 E0.01134
G1 X109.959 Y110.404 F10800.000
G1 F1200.000
G1 X110.228 Y110.888 E0.01737
G1 X110.714 Y111.347 E0.02096
G1 X111.106 Y111.594 E0.01451
;WIPE_START
G1 F8640.000
G1 X110.714 Y111.347 E-0.10688
G1 X110.228 Y110.888 E-0.15438
G1 X109.959 Y110.404 E-0.12788
;WIPE_END
G1 E-0.41086 F2100.000
G1 Z0.600 F10800.000
G1 X112.853 Y111.988
G1 Z0.200
G1 E0.80000 F2100.000
G1 F1200.000
G1 X113.042 Y111.995 E0.00594
G1 X113.315 Y112.343 E0.01386
;WIPE_START
G1 F8640.000
G1 X113.042 Y111.995 E-0.10210
G1 X112.853 Y111.988 E-0.04374
;WIPE_END
G1 E-0.65415 F2100.000
G1 Z0.600 F10800.000
G1 X115.185 Y114.723
G1 Z0.200
G1 E0.80000 F2100.000
G1 F1200.000
G1 X115.318 Y114.893 E0.00677
G1 X118.207 Y117.061 E0.11327
G1 X120.821 Y118.102 E0.08823
G1 X121.458 Y118.356 F10800.000
G1 F1200.000
G1 X121.647 Y118.431 E0.00637
G1 X124.977 Y118.842 E0.10519
G1 X128.353 Y118.431 E0.10664
G1 X128.544 Y118.355 E0.00645
G1 X128.973 Y118.187 F10800.000
G1 F1200.000
G1 X131.711 Y117.107 E0.09230
G1 X134.875 Y114.701 E0.12462
G1 X134.905 Y114.662 E0.00154
;WIPE_START
G1 F8640.000
G1 X134.875 Y114.701 E-0.01135
G1 X132.294 Y116.664 E-0.74865
;WIPE_END
G1 E-0.04000 F2100.000
G1 Z0.600 F10800.000
G1 X136.683 Y112.357
G1 Z0.200
G1 E0.80000 F2100.000
G1 F1200.000
G1 X136.955 Y112.004 E0.01397
G1 X137.152 Y111.998 E0.00617
;WIPE_START
G1 F8640.000
G1 X136.955 Y112.004 E-0.04545
G1 X136.683 Y112.357 E-0.10291
;WIPE_END
G1 E-0.65164 F2100.000
G1 Z0.600 F10800.000
G1 X139.382 Y111.235
G1 Z0.200
G1 E0.80000 F2100.000
G1 F1200.000
G1 X139.564 Y111.108 E0.00696
G1 X139.967 Y110.611 E0.02006
G1 X140.265 Y110.056 E0.01976
G1 X140.771 Y108.907 E0.03935
G1 X141.054 Y108.018 E0.02926
G1 X141.441 Y105.533 E0.07885
G1 X141.453 Y104.003 E0.04798
G1 X141.408 Y103.407 E0.01872
G1 X141.212 Y102.427 E0.03134
G1 X141.096 Y102.048 E0.01244
;WIPE_START
G1 F8640.000
G1 X141.212 Y102.427 E-0.09163
G1 X141.408 Y103.407 E-0.23077
G1 X141.453 Y104.003 E-0.13788
G1 X141.443 Y105.301 E-0.29972
;WIPE_END
G1 E-0.04000 F2100.000
G1 Z0.600 F10800.000
G1 X140.664 Y100.820
G1 Z0.200
G1 E0.80000 F2100.000
G1 F1200.000
G1 X140.614 Y100.717 E0.00358
;WIPE_START
G1 F8640.000
G1 X140.664 Y100.820 E-0.02639
;WIPE_END
G1 E-0.77361 F2100.000
G1 Z0.600 F10800.000
G1 X139.840 Y99.279
G1 Z0.200
G1 E0.80000 F2100.000
G1 F1200.000
G1 X139.724 Y99.062 E0.00770
G1 X139.199 Y98.591 E0.02211
G1 X138.983 Y98.465 E0.00785
;WIPE_START
G1 F8640.000
G1 X139.199 Y98.591 E-0.05783
G1 X139.724 Y99.062 E-0.16281
