; generated by PrusaSlicer 2.3.0+win64 on 2021-04-26 at 17:01:53 UTC

; 

; external perimeters extrusion width = 0.45mm
; perimeters extrusion width = 0.45mm
; infill extrusion width = 0.45mm
; solid infill extrusion width = 0.45mm
; top infill extrusion width = 0.40mm
; first layer extrusion width = 0.42mm

M73 P0 R37
M73 Q0 S37
M201 X1000 Y1000 Z200 E5000 ; sets maximum accelerations, mm/sec^2
M203 X200 Y200 Z12 E120 ; sets maximum feedrates, mm/sec
M204 P1250 R1250 T1250 ; sets acceleration (P, T) and retract acceleration (R), mm/sec^2
M205 X8.00 Y8.00 Z0.40 E4.50 ; sets the jerk limits, mm/sec
M205 S0 T0 ; sets the minimum extruding and travel feed rate, mm/sec
M107
;TYPE:Custom
M862.3 P "MK3S" ; printer model check
M862.1 P0.4 ; nozzle diameter check
M115 U3.9.2 ; tell printer latest fw version
G90 ; use absolute coordinates
M83 ; extruder relative mode
M104 S215 ; set extruder temp
M140 S60 ; set bed temp
M190 S60 ; wait for bed temp
M109 S215 ; wait for extruder temp
G28 W ; home all without mesh bed level
G80 ; mesh bed leveling
G1 Y-3.0 F1000.0 ; go outside print area
G92 E0.0
G1 X60.0 E9.0 F1000.0 ; intro line
G1 X100.0 E12.5 F1000.0 ; intro line
G92 E0.0
M221 S95

; Don't change E values below. Excessive value can damage the printer.

G21 ; set units to millimeters
G90 ; use absolute coordinates
M83 ; use relative distances for extrusion
M900 K0.05 ; Filament gcode LA 1.5
M900 K30 ; Filament gcode LA 1.0
;LAYER_CHANGE
;Z:0.2
;HEIGHT:0.2
;BEFORE_LAYER_CHANGE
G92 E0.0
;0.2


G1 E-0.80000 F2100.000
G1 Z0.400 F10800.000
;AFTER_LAYER_CHANGE
;0.2
G1 X117.957 Y97.962
G1 Z0.200
G1 E0.80000 F2100.000
M204 S1000
;TYPE:Skirt
;WIDTH:0.42
G1 F1200.000
G1 X118.490 Y97.386 E0.02461
G1 X119.884 Y96.343 E0.05460
G1 X121.167 Y95.708 E0.04487
G1 X122.253 Y95.395 E0.03544
G1 X127.358 Y95.369 E0.16008
G1 X128.424 Y95.549 E0.03390
G1 X129.995 Y96.271 E0.05421
G1 X131.386 Y97.230 E0.05298
G1 X132.090 Y98.019 E0.03316
G1 X134.530 Y102.237 E0.15277
G1 X134.795 Y102.864 E0.02134
G1 X134.948 Y103.634 E0.02462
G1 X135.060 Y104.986 E0.04254
G1 X135.000 Y105.962 E0.03064
G1 X134.811 Y107.095 E0.03603
G1 X134.531 Y107.763 E0.02270
G1 X131.979 Y112.119 E0.15830
G1 X130.966 Y113.090 E0.04400
G1 X129.427 Y114.016 E0.05630
G1 X128.282 Y114.481 E0.03877
G1 X127.528 Y114.624 E0.02406
G1 X122.610 Y114.630 E0.15419
G1 X121.804 Y114.507 E0.02556
G1 X120.594 Y114.022 E0.04087
G1 X119.475 Y113.396 E0.04022
G1 X118.251 Y112.411 E0.04926
G1 X117.843 Y111.871 E0.02120
G1 X115.500 Y107.815 E0.14687
G1 X115.203 Y107.108 E0.02406
G1 X115.008 Y106.066 E0.03324
G1 X114.950 Y104.683 E0.04340
G1 X115.175 Y102.930 E0.05543
G1 X115.451 Y102.270 E0.02243
G1 X117.927 Y98.014 E0.15437
G1 X118.251 Y98.203 F10800.000
G1 F1200.000
G1 X118.740 Y97.668 E0.02271
G1 X120.092 Y96.658 E0.05291
G1 X121.306 Y96.059 E0.04245
G1 X122.315 Y95.767 E0.03293
G1 X127.358 Y95.746 E0.15812
G1 X128.317 Y95.911 E0.03052
G1 X129.813 Y96.602 E0.05165
G1 X131.142 Y97.517 E0.05061
G1 X131.778 Y98.231 E0.02998
G1 X134.198 Y102.416 E0.15157
G1 X134.431 Y102.962 E0.01860
G1 X134.574 Y103.686 E0.02314
G1 X134.683 Y104.992 E0.04110
G1 X134.625 Y105.919 E0.02911
G1 X134.444 Y107.008 E0.03461
G1 X134.201 Y107.580 E0.01950
G1 X131.681 Y111.888 E0.15648
G1 X130.732 Y112.794 E0.04113
G1 X129.238 Y113.689 E0.05462
G1 X128.167 Y114.122 E0.03624
G1 X127.496 Y114.248 E0.02141
G1 X122.623 Y114.253 E0.15279
G1 X121.892 Y114.139 E0.02320
G1 X120.752 Y113.679 E0.03854
G1 X119.660 Y113.067 E0.03924
G1 X118.515 Y112.141 E0.04619
G1 X118.164 Y111.672 E0.01835
G1 X115.825 Y107.624 E0.14660
G1 X115.563 Y106.993 E0.02141
G1 X115.383 Y106.028 E0.03079
G1 X115.326 Y104.704 E0.04155
G1 X115.543 Y103.016 E0.05337
G1 X115.782 Y102.450 E0.01924
G1 X118.221 Y98.254 E0.15218
G1 X118.546 Y98.443 F10800.000
G1 F1200.000
G1 X118.990 Y97.951 E0.02078
G1 X120.295 Y96.975 E0.05111
G1 X121.443 Y96.410 E0.04009
G1 X122.374 Y96.140 E0.03042
G1 X127.358 Y96.123 E0.15625
G1 X128.210 Y96.272 E0.02712
G1 X129.634 Y96.934 E0.04924
G1 X130.893 Y97.801 E0.04793
G1 X131.464 Y98.441 E0.02690
G1 X133.867 Y102.595 E0.15047
G1 X134.066 Y103.060 E0.01585
G1 X134.306 Y104.994 E0.06110
G1 X134.078 Y106.916 E0.06068
G1 X133.871 Y107.398 E0.01645
G1 X131.382 Y111.658 E0.15469
G1 X130.500 Y112.496 E0.03816
G1 X129.050 Y113.363 E0.05297
G1 X128.055 Y113.762 E0.03361
G1 X127.465 Y113.872 E0.01882
G1 X122.634 Y113.876 E0.15147
G1 X121.985 Y113.774 E0.02060
G1 X120.909 Y113.336 E0.03641
G1 X119.852 Y112.743 E0.03800
G1 X118.781 Y111.874 E0.04325
G1 X118.486 Y111.477 E0.01550
G1 X116.152 Y107.436 E0.14633
G1 X115.924 Y106.885 E0.01870
G1 X115.759 Y105.994 E0.02841
G1 X115.703 Y104.727 E0.03977
G1 X115.908 Y103.111 E0.05108
G1 X116.113 Y102.632 E0.01633
G1 X118.516 Y98.495 E0.15002
;WIPE_START
G1 F8640.000
G1 X118.990 Y97.951 E-0.16663
G1 X120.295 Y96.975 E-0.37638
G1 X121.139 Y96.560 E-0.21698
;WIPE_END
G1 E-0.04000 F2100.000
G1 Z0.600 F10800.000
G1 X115.899 Y98.330
G1 Z0.200
G1 E0.80000 F2100.000
G1 F1200.000
G1 X116.895 Y97.111 E0.04937
G1 X117.659 Y96.412 E0.03245
G1 X118.296 Y95.897 E0.02567
G1 X119.436 Y95.149 E0.04277
G1 X120.678 Y94.549 E0.04323
G1 X121.438 Y94.268 E0.02542
G1 X122.224 Y94.043 E0.02562
G1 X123.753 Y93.786 E0.04861
G1 X126.272 Y93.791 E0.07898
G1 X128.377 Y94.217 E0.06734
G1 X130.697 Y95.223 E0.07931
G1 X132.319 Y96.370 E0.06227
G1 X133.167 Y97.192 E0.03704
G1 X133.942 Y98.089 E0.03717
G1 X135.349 Y100.491 E0.08729
G1 X136.023 Y102.444 E0.06478
G1 X136.316 Y104.885 E0.07708
G1 X136.070 Y107.338 E0.07729
G1 X135.343 Y109.523 E0.07221
G1 X133.980 Y111.840 E0.08427
G1 X131.855 Y114.000 E0.09500
G1 X129.872 Y115.199 E0.07267
G1 X127.945 Y115.917 E0.06448
G1 X126.252 Y116.213 E0.05389
G1 X123.792 Y116.202 E0.07712
G1 X122.384 Y115.992 E0.04465
G1 X121.060 Y115.590 E0.04338
G1 X120.341 Y115.298 E0.02433
G1 X118.794 Y114.457 E0.05521
G1 X117.307 Y113.299 E0.05909
G1 X116.026 Y111.854 E0.06054
G1 X114.520 Y109.230 E0.09487
G1 X114.225 Y108.460 E0.02584
G1 X113.982 Y107.557 E0.02933
G1 X113.716 Y105.843 E0.05439
G1 X113.700 Y104.470 E0.04305
G1 X113.844 Y103.095 E0.04333
G1 X114.191 Y101.647 E0.04669
G1 X114.529 Y100.756 E0.02991
G1 X115.870 Y98.382 E0.08547
G1 X116.198 Y98.568 F10800.000
G1 F1200.000
G1 X117.160 Y97.380 E0.04794
G1 X117.909 Y96.694 E0.03184
G1 X118.525 Y96.197 E0.02483
G1 X119.632 Y95.471 E0.04150
G1 X120.833 Y94.892 E0.04179
G1 X121.561 Y94.624 E0.02434
G1 X122.317 Y94.409 E0.02464
G1 X123.768 Y94.163 E0.04614
G1 X126.252 Y94.168 E0.07790
G1 X128.245 Y94.571 E0.06374
G1 X130.529 Y95.562 E0.07807
G1 X132.067 Y96.651 E0.05908
G1 X132.899 Y97.457 E0.03632
G1 X133.645 Y98.322 E0.03583
G1 X135.014 Y100.665 E0.08509
G1 X135.651 Y102.509 E0.06116
G1 X135.939 Y104.909 E0.07579
G1 X135.698 Y107.279 E0.07468
G1 X135.008 Y109.349 E0.06841
G1 X133.667 Y111.629 E0.08292
G1 X131.640 Y113.689 E0.09062
M73 Q1 S37
G1 X129.692 Y114.867 E0.07137
G1 X127.830 Y115.558 E0.06228
G1 X126.236 Y115.835 E0.05072
G1 X123.834 Y115.827 E0.07532
M73 P1 R37
G1 X122.453 Y115.621 E0.04378
G1 X121.178 Y115.232 E0.04181
G1 X120.511 Y114.962 E0.02254
G1 X118.987 Y114.134 E0.05438
G1 X117.553 Y113.013 E0.05707
G1 X116.322 Y111.619 E0.05832
G1 X114.867 Y109.081 E0.09172
G1 X114.587 Y108.352 E0.02447
G1 X114.349 Y107.469 E0.02870
G1 X114.093 Y105.825 E0.05216
G1 X114.077 Y104.476 E0.04228
G1 X114.218 Y103.148 E0.04189
G1 X114.555 Y101.747 E0.04515
G1 X114.876 Y100.903 E0.02833
G1 X116.168 Y98.620 E0.08226
G1 X116.496 Y98.806 F10800.000
G1 F1200.000
G1 X116.539 Y98.730 E0.00275
G1 X117.425 Y97.649 E0.04381
G1 X118.160 Y96.976 E0.03124
G1 X118.755 Y96.496 E0.02398
G1 X119.828 Y95.794 E0.04023
G1 X120.988 Y95.236 E0.04034
G1 X121.685 Y94.981 E0.02327
G1 X122.410 Y94.774 E0.02366
G1 X123.783 Y94.540 E0.04367
G1 X126.233 Y94.545 E0.07681
G1 X128.113 Y94.925 E0.06013
G1 X130.361 Y95.900 E0.07683
G1 X131.815 Y96.932 E0.05590
G1 X132.619 Y97.710 E0.03508
G1 X133.348 Y98.556 E0.03502
G1 X134.679 Y100.839 E0.08287
G1 X135.287 Y102.612 E0.05879
G1 X135.562 Y104.933 E0.07326
G1 X135.325 Y107.219 E0.07208
G1 X134.673 Y109.175 E0.06463
G1 X133.353 Y111.418 E0.08158
G1 X131.425 Y113.379 E0.08625
G1 X129.513 Y114.535 E0.07006
G1 X127.716 Y115.198 E0.06006
G1 X126.221 Y115.458 E0.04758
G1 X123.876 Y115.452 E0.07351
G1 X122.523 Y115.250 E0.04290
G1 X121.296 Y114.874 E0.04023
G1 X120.682 Y114.625 E0.02078
G1 X119.181 Y113.810 E0.05354
G1 X117.800 Y112.727 E0.05504
G1 X116.617 Y111.384 E0.05610
G1 X115.214 Y108.932 E0.08860
G1 X114.948 Y108.245 E0.02309
G1 X114.715 Y107.380 E0.02806
G1 X114.470 Y105.806 E0.04995
G1 X114.453 Y104.505 E0.04081
G1 X114.592 Y103.200 E0.04115
G1 X114.918 Y101.848 E0.04361
G1 X115.223 Y101.052 E0.02674
G1 X116.467 Y98.858 E0.07905
;WIPE_START
G1 F8640.000
G1 X116.539 Y98.730 E-0.03409
G1 X117.425 Y97.649 E-0.32260
G1 X118.160 Y96.976 E-0.23003
G1 X118.743 Y96.505 E-0.17329
;WIPE_END
G1 E-0.04000 F2100.000
G1 Z0.600 F10800.000
G1 X127.997 Y95.285
G1 Z0.200
G1 E0.80000 F2100.000
G1 F1200.000
G1 X126.214 Y94.922 E0.05707
G1 X123.799 Y94.918 E0.07571
G1 X122.504 Y95.140 E0.04121
G1 X122.268 Y95.206 E0.00767
;WIPE_START
G1 F8640.000
G1 X122.504 Y95.140 E-0.05652
G1 X123.799 Y94.918 E-0.30350
;WIPE_END
G1 E-0.43998 F2100.000
G1 Z0.600 F10800.000
G1 X118.025 Y97.610
G1 Z0.200
G1 E0.80000 F2100.000
G1 F1200.000
G1 X117.689 Y97.918 E0.01428
G1 X116.859 Y98.930 E0.04103
G1 X115.570 Y101.200 E0.08186
G1 X115.282 Y101.949 E0.02516
G1 X115.145 Y102.514 E0.01821
;WIPE_START
G1 F8640.000
G1 X115.282 Y101.949 E-0.13413
G1 X115.570 Y101.200 E-0.18527
G1 X116.512 Y99.541 E-0.44060
;WIPE_END
G1 E-0.04000 F2100.000
G1 Z0.600 F10800.000
G1 X115.093 Y107.333
G1 Z0.200
G1 E0.80000 F2100.000
G1 F1200.000
G1 X115.310 Y108.137 E0.02611
G1 X115.560 Y108.782 E0.02170
G1 X116.913 Y111.150 E0.08551
G1 X117.980 Y112.365 E0.05069
;WIPE_START
G1 F8640.000
G1 X116.913 Y111.150 E-0.37333
G1 X116.082 Y109.696 E-0.38667
;WIPE_END
G1 E-0.04000 F2100.000
G1 Z0.600 F10800.000
G1 X122.197 Y114.757
G1 Z0.200
G1 E0.80000 F2100.000
G1 F1200.000
G1 X122.593 Y114.879 E0.01298
G1 X123.918 Y115.077 E0.04201
G1 X126.205 Y115.081 E0.07170
G1 X127.602 Y114.838 E0.04446
G1 X127.806 Y114.763 E0.00682
;WIPE_START
G1 F8640.000
G1 X127.602 Y114.838 E-0.05024
G1 X126.205 Y115.081 E-0.32738
G1 X124.549 Y115.078 E-0.38238
;WIPE_END
G1 E-0.04000 F2100.000
G1 Z0.600 F10800.000
G1 X132.279 Y111.981
G1 Z0.200
G1 E0.80000 F2100.000
G1 F1200.000
G1 X133.040 Y111.206 E0.03405
G1 X134.338 Y109.001 E0.08023
G1 X134.810 Y107.585 E0.04681
;WIPE_START
G1 F8640.000
G1 X134.338 Y109.001 E-0.34470
G1 X133.426 Y110.551 E-0.41530
;WIPE_END
G1 E-0.04000 F2100.000
G1 Z0.600 F10800.000
G1 X134.871 Y102.560
G1 Z0.200
G1 E0.80000 F2100.000
G1 F1200.000
G1 X134.344 Y101.012 E0.05128
G1 X133.051 Y98.789 E0.08064
G1 X132.339 Y97.963 E0.03420
G1 X132.003 Y97.638 E0.01465
;WIPE_START
G1 F8640.000
G1 X132.339 Y97.963 E-0.10787
G1 X133.051 Y98.789 E-0.25183
G1 X133.922 Y100.287 E-0.40030
;WIPE_END
G1 E-0.04000 F2100.000
G1 Z0.600 F10800.000
G1 X131.242 Y98.474
G1 Z0.200
G1 E0.80000 F2100.000
G1 F1200.000
G1 X130.808 Y98.057 E0.01887
G1 X129.589 Y97.196 E0.04682
G1 X127.644 Y96.365 E0.06630
;WIPE_START
G1 F8640.000
G1 X129.589 Y97.196 E-0.48824
G1 X130.550 Y97.875 E-0.27176
;WIPE_END
G1 E-0.04000 F2100.000
G1 Z0.600 F10800.000
G1 X122.458 Y96.328
G1 Z0.200
G1 E0.80000 F2100.000
G1 F1200.000
G1 X122.148 Y96.416 E0.01011
G1 X121.605 Y96.613 E0.01812
G1 X120.567 Y97.109 E0.03606
G1 X119.671 Y97.694 E0.03356
G1 X119.160 Y98.105 E0.02057
G1 X118.775 Y98.458 E0.01636
;WIPE_START
G1 F8640.000
G1 X119.160 Y98.105 E-0.12048
G1 X119.671 Y97.694 E-0.15148
G1 X120.567 Y97.109 E-0.24716
G1 X121.509 Y96.659 E-0.24088
;WIPE_END
G1 E-0.04000 F2100.000
G1 Z0.600 F10800.000
G1 X116.227 Y102.845
G1 Z0.200
G1 E0.80000 F2100.000
G1 F1200.000
G1 X116.082 Y103.436 E0.01907
G1 X115.959 Y104.597 E0.03661
G1 X115.978 Y105.730 E0.03554
G1 X116.179 Y107.009 E0.04060
;WIPE_START
G1 F8640.000
G1 X115.978 Y105.730 E-0.29898
G1 X115.959 Y104.597 E-0.26176
G1 X116.050 Y103.739 E-0.19926
;WIPE_END
G1 E-0.04000 F2100.000
G1 Z0.600 F10800.000
G1 X118.821 Y111.612
G1 Z0.200
G1 E0.80000 F2100.000
G1 F1200.000
G1 X119.959 Y112.516 E0.04556
G1 X121.344 Y113.270 E0.04945
G1 X121.774 Y113.443 E0.01454
G1 X122.452 Y113.656 E0.02226
;WIPE_START
G1 F8640.000
G1 X121.774 Y113.443 E-0.16393
G1 X121.344 Y113.270 E-0.10705
G1 X119.959 Y112.516 E-0.36416
G1 X119.536 Y112.179 E-0.12485
;WIPE_END
G1 E-0.04000 F2100.000
G1 Z0.600 F10800.000
G1 X127.506 Y113.673
G1 Z0.200
G1 E0.80000 F2100.000
G1 F1200.000
G1 X128.796 Y113.206 E0.04300
G1 X130.564 Y112.137 E0.06478
G1 X131.355 Y111.332 E0.03539
;WIPE_START
G1 F8640.000
G1 X130.564 Y112.137 E-0.26059
G1 X128.796 Y113.206 E-0.47705
G1 X128.704 Y113.239 E-0.02236
;WIPE_END
G1 E-0.04000 F2100.000
G1 Z0.600 F10800.000
G1 X133.791 Y107.106
G1 Z0.200
G1 E0.80000 F2100.000
G1 F1200.000
G1 X133.834 Y106.977 E0.00428
G1 X134.054 Y104.981 E0.06294
G1 X133.818 Y102.960 E0.06382
G1 X133.444 Y103.009 F10800.000
G1 F1200.000
G1 X133.677 Y104.962 E0.06166
G1 X133.461 Y106.916 E0.06163
G1 X132.997 Y108.304 E0.04590
G1 X131.787 Y110.362 E0.07486
G1 X130.348 Y111.826 E0.06437
G1 X128.616 Y112.873 E0.06345
G1 X127.212 Y113.381 E0.04683
G1 X126.139 Y113.573 E0.03417
G1 X124.030 Y113.573 E0.06611
G1 X122.876 Y113.397 E0.03661
G1 X121.895 Y113.086 E0.03225
G1 X121.495 Y112.924 E0.01353
G1 X120.180 Y112.210 E0.04693
G1 X119.063 Y111.326 E0.04469
G1 X118.143 Y110.276 E0.04377
G1 X116.944 Y108.179 E0.07572
G1 X116.755 Y107.703 E0.01606
G1 X116.549 Y106.938 E0.02483
G1 X116.354 Y105.710 E0.03899
G1 X116.335 Y104.624 E0.03406
G1 X116.451 Y103.513 E0.03504
G1 X116.734 Y102.358 E0.03729
G1 X116.954 Y101.802 E0.01874
G1 X118.137 Y99.734 E0.07470
G1 X118.746 Y98.995 E0.03002
G1 X119.410 Y98.388 E0.02820
G1 X119.900 Y97.994 E0.01971
G1 X120.741 Y97.443 E0.03152
G1 X121.759 Y96.957 E0.03536
G1 X122.257 Y96.777 E0.01661
G1 X122.878 Y96.601 E0.02022
G1 X123.863 Y96.426 E0.03139
G1 X126.137 Y96.430 E0.07129
G1 X127.459 Y96.696 E0.04229
G1 X129.388 Y97.516 E0.06571
G1 X130.557 Y98.339 E0.04484
G1 X131.233 Y98.989 E0.02940
G1 X131.822 Y99.663 E0.02807
G1 X133.001 Y101.702 E0.07385
G1 X133.425 Y102.952 E0.04138
G1 X133.072 Y103.072 F10800.000
G1 F1200.000
G1 X133.300 Y104.942 E0.05907
G1 X133.089 Y106.854 E0.06031
G1 X132.662 Y108.130 E0.04217
G1 X131.474 Y110.151 E0.07351
G1 X130.133 Y111.516 E0.05999
G1 X128.437 Y112.541 E0.06212
G1 X127.129 Y113.013 E0.04362
G1 X126.122 Y113.196 E0.03209
G1 X124.045 Y113.196 E0.06511
G1 X122.949 Y113.026 E0.03479
G1 X122.017 Y112.729 E0.03065
G1 X121.647 Y112.579 E0.01252
G1 X120.375 Y111.887 E0.04541
G1 X119.310 Y111.041 E0.04263
G1 X118.460 Y110.072 E0.04043
G1 X117.289 Y108.027 E0.07389
G1 X117.116 Y107.594 E0.01461
G1 X116.916 Y106.850 E0.02417
G1 X116.731 Y105.690 E0.03683
G1 X116.711 Y104.651 E0.03258
G1 X116.820 Y103.590 E0.03345
G1 X117.097 Y102.460 E0.03646
G1 X117.299 Y101.954 E0.01709
G1 X118.456 Y99.935 E0.07296
G1 X119.011 Y99.264 E0.02729
G1 X119.660 Y98.670 E0.02760
G1 X120.129 Y98.294 E0.01886
G1 X120.915 Y97.778 E0.02948
G1 X121.913 Y97.302 E0.03467
G1 X122.366 Y97.138 E0.01511
G1 X122.972 Y96.967 E0.01973
G1 X123.880 Y96.803 E0.02893
G1 X126.118 Y96.807 E0.07017
G1 X127.330 Y97.050 E0.03877
G1 X129.188 Y97.836 E0.06325
G1 X130.307 Y98.621 E0.04284
G1 X130.956 Y99.244 E0.02821
G1 X131.505 Y99.868 E0.02607
G1 X132.665 Y101.875 E0.07267
G1 X133.052 Y103.015 E0.03776
G1 X132.699 Y103.135 F10800.000
G1 F1200.000
G1 X132.923 Y104.966 E0.05781
G1 X132.716 Y106.792 E0.05763
G1 X132.327 Y107.956 E0.03847
G1 X131.160 Y109.940 E0.07217
G1 X129.918 Y111.206 E0.05562
G1 X128.258 Y112.209 E0.06079
G1 X127.045 Y112.645 E0.04043
G1 X126.104 Y112.819 E0.02999
G1 X124.060 Y112.819 E0.06410
G1 X123.022 Y112.656 E0.03294
G1 X122.140 Y112.372 E0.02905
G1 X121.799 Y112.234 E0.01153
G1 X120.570 Y111.564 E0.04389
G1 X119.559 Y110.757 E0.04056
G1 X118.778 Y109.868 E0.03710
G1 X117.634 Y107.874 E0.07208
G1 X117.477 Y107.485 E0.01314
G1 X117.282 Y106.761 E0.02350
G1 X117.108 Y105.669 E0.03468
G1 X117.088 Y104.677 E0.03110
