; generated by PrusaSlicer 2.3.0+win64 on 2021-04-26 at 20:04:38 UTC

; 

; external perimeters extrusion width = 0.45mm
; perimeters extrusion width = 0.45mm
; infill extrusion width = 0.45mm
; solid infill extrusion width = 0.45mm
; top infill extrusion width = 0.40mm
; first layer extrusion width = 0.42mm

M73 P0 R27
M73 Q0 S27
M201 X1000 Y1000 Z200 E5000 ; sets maximum accelerations, mm/sec^2
M203 X200 Y200 Z12 E120 ; sets maximum feedrates, mm/sec
M204 P1250 R1250 T1250 ; sets acceleration (P, T) and retract acceleration (R), mm/sec^2
M205 X8.00 Y8.00 Z0.40 E4.50 ; sets the jerk limits, mm/sec
M205 S0 T0 ; sets the minimum extruding and travel feed rate, mm/sec
M107
;TYPE:Custom
M862.3 P "MK3S" ; printer model check
M862.1 P0.4 ; nozzle diameter check
M115 U3.9.2 ; tell printer latest fw version
G90 ; use absolute coordinates
M83 ; extruder relative mode
M104 S215 ; set extruder temp
M140 S60 ; set bed temp
M190 S60 ; wait for bed temp
M109 S215 ; wait for extruder temp
G28 W ; home all without mesh bed level
G80 ; mesh bed leveling
G1 Y-3.0 F1000.0 ; go outside print area
G92 E0.0
G1 X60.0 E9.0 F1000.0 ; intro line
M73 P0 R26
G1 X100.0 E12.5 F1000.0 ; intro line
G92 E0.0
M221 S95

; Don't change E values below. Excessive value can damage the printer.

G21 ; set units to millimeters
G90 ; use absolute coordinates
M83 ; use relative distances for extrusion
M900 K0.05 ; Filament gcode LA 1.5
M900 K30 ; Filament gcode LA 1.0
;LAYER_CHANGE
;Z:0.2
;HEIGHT:0.2
;BEFORE_LAYER_CHANGE
G92 E0.0
;0.2


G1 E-0.80000 F2100.000
G1 Z0.400 F10800.000
;AFTER_LAYER_CHANGE
;0.2
G1 X121.074 Y83.900
G1 Z0.200
G1 E0.80000 F2100.000
M204 S1000
;TYPE:Skirt
;WIDTH:0.42
G1 F1200.000
G1 X122.198 Y83.231 E0.04101
G1 X123.289 Y82.834 E0.03643
G1 X124.200 Y82.643 E0.02917
G1 X125.025 Y82.588 E0.02593
G1 X126.433 Y82.725 E0.04436
G1 X127.602 Y83.081 E0.03832
M73 Q0 S26
G1 X128.808 Y83.722 E0.04282
G1 X129.656 Y84.389 E0.03382
G1 X130.450 Y85.276 E0.03732
G1 X131.097 Y86.338 E0.03901
G1 X131.613 Y87.758 E0.04736
G1 X131.793 Y89.212 E0.04593
G1 X131.722 Y104.960 E0.49378
G1 X131.682 Y105.779 E0.02570
G1 X131.480 Y106.783 E0.03213
G1 X131.147 Y107.724 E0.03130
G1 X130.529 Y108.827 E0.03963
G1 X129.950 Y109.552 E0.02910
G1 X129.033 Y110.383 E0.03880
G1 X128.253 Y110.887 E0.02911
G1 X127.111 Y111.387 E0.03911
G1 X125.954 Y111.654 E0.03723
G1 X125.076 Y111.723 E0.02759
G1 X124.263 Y111.686 E0.02554
G1 X123.500 Y111.549 E0.02430
G1 X122.455 Y111.224 E0.03431
G1 X121.532 Y110.763 E0.03234
G1 X120.419 Y109.925 E0.04372
G1 X119.546 Y108.939 E0.04127
G1 X118.857 Y107.741 E0.04332
G1 X118.487 Y106.651 E0.03610
G1 X118.277 Y105.088 E0.04944
G1 X118.348 Y89.332 E0.49403
G1 X118.447 Y88.164 E0.03673
G1 X118.636 Y87.358 E0.02598
G1 X119.124 Y86.176 E0.04007
G1 X119.574 Y85.437 E0.02715
G1 X120.141 Y84.735 E0.02829
G1 X121.029 Y83.940 E0.03736
G1 X121.280 Y84.219 F10800.000
G1 F1200.000
G1 X122.361 Y83.571 E0.03954
G1 X123.407 Y83.192 E0.03486
G1 X124.255 Y83.016 E0.02717
G1 X125.025 Y82.965 E0.02418
G1 X126.363 Y83.095 E0.04216
G1 X127.462 Y83.431 E0.03602
G1 X128.604 Y84.039 E0.04056
G1 X129.390 Y84.657 E0.03134
G1 X130.142 Y85.494 E0.03529
G1 X130.752 Y86.490 E0.03661
G1 X131.246 Y87.843 E0.04516
G1 X131.416 Y89.214 E0.04331
G1 X131.345 Y104.952 E0.49346
G1 X131.309 Y105.720 E0.02413
G1 X131.127 Y106.648 E0.02966
G1 X130.809 Y107.556 E0.03013
G1 X130.222 Y108.609 E0.03782
G1 X129.679 Y109.290 E0.02731
G1 X128.808 Y110.080 E0.03686
G1 X128.076 Y110.554 E0.02733
G1 X126.990 Y111.030 E0.03721
G1 X125.894 Y111.282 E0.03524
G1 X125.074 Y111.346 E0.02581
G1 X123.570 Y111.179 E0.04743
G1 X122.594 Y110.873 E0.03208
G1 X121.736 Y110.446 E0.03003
G1 X120.681 Y109.654 E0.04139
G1 X119.853 Y108.720 E0.03912
G1 X119.202 Y107.590 E0.04089
G1 X118.855 Y106.571 E0.03373
G1 X118.654 Y105.086 E0.04699
G1 X118.725 Y89.344 E0.49358
G1 X118.819 Y88.225 E0.03521
G1 X118.990 Y87.490 E0.02366
G1 X119.460 Y86.348 E0.03872
G1 X119.878 Y85.660 E0.02526
G1 X120.409 Y85.001 E0.02653
G1 X121.235 Y84.259 E0.03481
;WIPE_START
G1 F8640.000
G1 X122.361 Y83.571 E-0.30483
G1 X123.407 Y83.192 E-0.25671
G1 X124.248 Y83.018 E-0.19845
;WIPE_END
G1 E-0.04000 F2100.000
G1 Z0.600 F10800.000
G1 X126.285 Y81.103
G1 Z0.200
G1 E0.80000 F2100.000
G1 F1200.000
G1 X127.429 Y81.355 E0.03672
G1 X128.058 Y81.572 E0.02087
G1 X129.037 Y82.019 E0.03373
G1 X130.340 Y82.900 E0.04933
G1 X131.362 Y83.902 E0.04485
G1 X132.324 Y85.275 E0.05260
G1 X132.713 Y86.078 E0.02795
G1 X133.011 Y86.905 E0.02758
G1 X133.321 Y88.415 E0.04832
G1 X133.348 Y89.914 E0.04702
G1 X133.077 Y91.474 E0.04963
G1 X132.513 Y92.966 E0.05003
G1 X131.961 Y93.874 E0.03333
;WIPE_START
G1 F8640.000
G1 X132.513 Y92.966 E-0.24544
G1 X133.077 Y91.474 E-0.36845
G1 X133.186 Y90.850 E-0.14611
;WIPE_END
M73 Q1 S26
G1 E-0.04000 F2100.000
G1 Z0.600 F10800.000
G1 X131.202 Y94.848
G1 Z0.200
M73 P1 R26
G1 E0.80000 F2100.000
G1 F1200.000
G1 X130.696 Y95.411 E0.02372
G1 X129.244 Y96.472 E0.05639
G1 X127.782 Y97.171 E0.05083
G1 X128.966 Y97.713 E0.04083
G1 X130.295 Y98.615 E0.05039
G1 X131.181 Y99.487 E0.03897
;WIPE_START
G1 F8640.000
G1 X130.295 Y98.615 E-0.28702
G1 X128.966 Y97.713 E-0.37109
G1 X128.564 Y97.529 E-0.10189
;WIPE_END
G1 E-0.04000 F2100.000
G1 Z0.600 F10800.000
G1 X131.931 Y100.511
G1 Z0.200
G1 E0.80000 F2100.000
G1 F1200.000
G1 X132.270 Y100.996 E0.01856
G1 X132.650 Y101.790 E0.02758
G1 X132.947 Y102.624 E0.02777
G1 X133.247 Y104.074 E0.04642
G1 X133.283 Y105.536 E0.04587
G1 X133.025 Y107.097 E0.04962
G1 X132.458 Y108.628 E0.05117
G1 X131.665 Y109.943 E0.04817
G1 X130.655 Y111.077 E0.04761
G1 X129.205 Y112.147 E0.05651
G1 X127.875 Y112.785 E0.04625
G1 X126.296 Y113.195 E0.05114
G1 X125.369 Y113.288 E0.02923
G1 X124.748 Y113.294 E0.01946
G1 X123.235 Y113.108 E0.04780
G1 X121.761 Y112.640 E0.04849
G1 X120.509 Y111.976 E0.04445
G1 X119.254 Y110.989 E0.05005
G1 X118.183 Y109.735 E0.05172
G1 X117.445 Y108.422 E0.04722
G1 X116.944 Y106.981 E0.04783
G1 X116.755 Y105.884 E0.03492
G1 X116.715 Y104.865 E0.03195
G1 X116.832 Y103.546 E0.04155
G1 X117.027 Y102.705 E0.02704
G1 X117.277 Y101.980 E0.02407
G1 X117.644 Y101.167 E0.02795
G1 X118.110 Y100.395 E0.02830
;WIPE_START
G1 F8640.000
G1 X117.644 Y101.167 E-0.20839
G1 X117.277 Y101.980 E-0.20580
G1 X117.027 Y102.705 E-0.17724
G1 X116.862 Y103.417 E-0.16857
;WIPE_END
G1 E-0.04000 F2100.000
G1 Z0.600 F10800.000
G1 X118.868 Y99.435
G1 Z0.200
G1 E0.80000 F2100.000
G1 F1200.000
G1 X119.301 Y98.968 E0.01997
G1 X120.392 Y98.110 E0.04350
G1 X120.931 Y97.773 E0.01995
G1 X121.667 Y97.404 E0.02579
G1 X122.379 Y97.132 E0.02392
G1 X121.772 Y96.921 E0.02016
G1 X120.607 Y96.300 E0.04139
G1 X119.325 Y95.296 E0.05108
G1 X118.889 Y94.788 E0.02098
;WIPE_START
G1 F8640.000
G1 X119.325 Y95.296 E-0.15447
G1 X120.607 Y96.300 E-0.37620
G1 X121.484 Y96.767 E-0.22933
;WIPE_END
G1 E-0.04000 F2100.000
G1 Z0.600 F10800.000
G1 X118.140 Y93.831
G1 Z0.200
G1 E0.80000 F2100.000
G1 F1200.000
G1 X117.516 Y92.729 E0.03972
G1 X117.015 Y91.287 E0.04784
G1 X116.826 Y90.190 E0.03492
G1 X116.787 Y89.148 E0.03269
G1 X116.907 Y87.826 E0.04161
G1 X117.092 Y87.030 E0.02562
G1 X117.355 Y86.270 E0.02523
G1 X117.715 Y85.473 E0.02740
G1 X118.135 Y84.762 E0.02591
G1 X118.712 Y83.982 E0.03042
G1 X119.372 Y83.274 E0.03034
G1 X120.430 Y82.439 E0.04225
G1 X120.971 Y82.097 E0.02007
G1 X121.737 Y81.711 E0.02690
G1 X122.543 Y81.406 E0.02703
G1 X124.062 Y81.073 E0.04877
G1 X125.597 Y81.032 E0.04813
G1 X126.285 Y81.103 E0.02169
G1 X125.571 Y81.408 F10800.000
G1 F1200.000
G1 X126.215 Y81.473 E0.02027
G1 X127.336 Y81.721 E0.03602
G1 X127.926 Y81.926 E0.01957
G1 X128.839 Y82.340 E0.03144
G1 X130.115 Y83.203 E0.04829
G1 X131.063 Y84.132 E0.04162
G1 X132.007 Y85.479 E0.05156
G1 X132.368 Y86.232 E0.02619
G1 X132.651 Y87.020 E0.02626
G1 X132.945 Y88.440 E0.04546
G1 X132.974 Y89.868 E0.04480
G1 X132.718 Y91.357 E0.04737
G1 X132.167 Y92.816 E0.04890
G1 X131.964 Y93.148 E0.01220
;WIPE_START
G1 F8640.000
G1 X132.167 Y92.816 E-0.08988
G1 X132.718 Y91.357 E-0.36010
G1 X132.945 Y90.034 E-0.31002
;WIPE_END
G1 E-0.04000 F2100.000
G1 Z0.600 F10800.000
G1 X131.205 Y94.285
G1 Z0.200
G1 E0.80000 F2100.000
G1 F1200.000
G1 X130.430 Y95.143 E0.03625
G1 X129.037 Y96.156 E0.05400
G1 X127.800 Y96.743 E0.04293
G1 X126.777 Y97.011 E0.03315
G1 X126.782 Y97.307 E0.00929
G1 X127.287 Y97.420 E0.01621
G1 X127.855 Y97.619 E0.01887
G1 X128.768 Y98.034 E0.03144
G1 X130.044 Y98.897 E0.04829
G1 X130.992 Y99.826 E0.04162
G1 X131.178 Y100.093 E0.01021
;WIPE_START
G1 F8640.000
G1 X130.992 Y99.826 E-0.07520
G1 X130.044 Y98.897 E-0.30650
G1 X128.768 Y98.034 E-0.35562
G1 X128.679 Y97.994 E-0.02268
;WIPE_END
G1 E-0.04000 F2100.000
G1 Z0.600 F10800.000
G1 X131.928 Y101.165
G1 Z0.200
G1 E0.80000 F2100.000
G1 F1200.000
G1 X132.305 Y101.943 E0.02709
G1 X132.580 Y102.714 E0.02567
G1 X132.870 Y104.100 E0.04441
G1 X132.905 Y105.527 E0.04476
G1 X132.657 Y107.017 E0.04736
G1 X132.111 Y108.479 E0.04892
G1 X131.352 Y109.733 E0.04596
G1 X130.388 Y110.811 E0.04536
G1 X128.996 Y111.832 E0.05411
G1 X127.729 Y112.437 E0.04402
G1 X126.244 Y112.821 E0.04809
G1 X125.340 Y112.912 E0.02850
G1 X124.757 Y112.917 E0.01826
G1 X123.299 Y112.736 E0.04607
G1 X121.892 Y112.286 E0.04632
G1 X120.729 Y111.669 E0.04130
G1 X119.502 Y110.705 E0.04893
G1 X118.503 Y109.534 E0.04825
G1 X117.782 Y108.252 E0.04610
G1 X117.306 Y106.873 E0.04574
G1 X117.129 Y105.833 E0.03308
G1 X117.093 Y104.863 E0.03042
G1 X117.207 Y103.592 E0.04001
G1 X117.386 Y102.819 E0.02490
G1 X117.625 Y102.127 E0.02295
G1 X117.983 Y101.332 E0.02735
G1 X118.107 Y101.122 E0.00762
;WIPE_START
G1 F8640.000
G1 X117.983 Y101.332 E-0.05611
G1 X117.625 Y102.127 E-0.20142
G1 X117.386 Y102.819 E-0.16901
G1 X117.207 Y103.592 E-0.18337
G1 X117.149 Y104.240 E-0.15009
;WIPE_END
G1 E-0.04000 F2100.000
G1 Z0.600 F10800.000
G1 X118.866 Y100.003
G1 Z0.200
G1 E0.80000 F2100.000
G1 F1200.000
G1 X119.546 Y99.255 E0.03173
G1 X120.601 Y98.424 E0.04208
G1 X121.108 Y98.106 E0.01879
G1 X121.826 Y97.746 E0.02519
G1 X122.593 Y97.457 E0.02568
G1 X123.271 Y97.306 E0.02177
G1 X123.284 Y97.019 E0.00903
G1 X121.933 Y96.580 E0.04455
G1 X120.800 Y95.975 E0.04028
G1 X119.572 Y95.011 E0.04894
G1 X118.892 Y94.217 E0.03279
;WIPE_START
G1 F8640.000
G1 X119.572 Y95.011 E-0.24144
G1 X120.800 Y95.975 E-0.36044
G1 X121.404 Y96.297 E-0.15812
;WIPE_END
G1 E-0.04000 F2100.000
G1 Z0.600 F10800.000
G1 X118.143 Y93.072
G1 Z0.200
G1 E0.80000 F2100.000
G1 F1200.000
G1 X117.853 Y92.558 E0.01849
G1 X117.377 Y91.179 E0.04574
G1 X117.200 Y90.139 E0.03308
G1 X117.163 Y89.170 E0.03042
G1 X117.277 Y87.899 E0.04001
G1 X117.457 Y87.125 E0.02490
G1 X117.702 Y86.417 E0.02349
G1 X118.054 Y85.638 E0.02681
G1 X118.444 Y84.978 E0.02404
G1 X118.996 Y84.231 E0.02914
G1 X119.617 Y83.561 E0.02864
G1 X120.655 Y82.742 E0.04147
G1 X121.164 Y82.421 E0.01885
G1 X121.897 Y82.052 E0.02574
G1 X122.663 Y81.763 E0.02567
G1 X124.091 Y81.449 E0.04583
G1 X125.571 Y81.408 E0.04643
G1 X126.144 Y81.844 F10800.000
G1 F1200.000
G1 X127.244 Y82.087 E0.03530
G1 X127.793 Y82.279 E0.01825
G1 X128.641 Y82.662 E0.02916
G1 X129.889 Y83.506 E0.04725
G1 X130.764 Y84.363 E0.03839
G1 X131.689 Y85.682 E0.05052
G1 X132.024 Y86.385 E0.02442
G1 X132.292 Y87.135 E0.02496
G1 X132.568 Y88.466 E0.04263
G1 X132.599 Y89.824 E0.04258
G1 X132.359 Y91.242 E0.04511
G1 X131.968 Y92.284 E0.03487
;WIPE_START
G1 F8640.000
G1 X132.359 Y91.242 E-0.25682
G1 X132.599 Y89.824 E-0.33222
G1 X132.582 Y89.083 E-0.17095
;WIPE_END
G1 E-0.04000 F2100.000
G1 Z0.600 F10800.000
G1 X131.207 Y93.667
G1 Z0.200
G1 E0.80000 F2100.000
G1 F1200.000
G1 X131.110 Y93.828 E0.00588
G1 X130.191 Y94.851 E0.04311
G1 X128.859 Y95.823 E0.05172
G1 X127.655 Y96.395 E0.04180
G1 X126.263 Y96.753 E0.04506
G1 X125.382 Y96.842 E0.02778
G1 X124.838 Y96.846 E0.01705
G1 X123.435 Y96.670 E0.04434
G1 X122.095 Y96.239 E0.04414
G1 X121.019 Y95.668 E0.03817
G1 X119.820 Y94.726 E0.04781
G1 X118.894 Y93.640 E0.04473
;WIPE_START
G1 F8640.000
G1 X119.820 Y94.726 E-0.32942
G1 X121.019 Y95.668 E-0.35212
G1 X121.319 Y95.827 E-0.07846
;WIPE_END
G1 E-0.04000 F2100.000
G1 Z0.600 F10800.000
G1 X118.147 Y92.263
G1 Z0.200
G1 E0.80000 F2100.000
G1 F1200.000
G1 X117.738 Y91.072 E0.03946
G1 X117.574 Y90.089 E0.03125
G1 X117.541 Y89.168 E0.02890
G1 X117.648 Y87.971 E0.03767
G1 X117.822 Y87.220 E0.02417
G1 X118.049 Y86.565 E0.02175
G1 X118.393 Y85.803 E0.02622
G1 X118.753 Y85.194 E0.02217
G1 X119.280 Y84.479 E0.02784
G1 X119.883 Y83.828 E0.02783
G1 X120.880 Y83.044 E0.03977
G1 X121.357 Y82.745 E0.01764
G1 X122.040 Y82.402 E0.02397
G1 X122.784 Y82.121 E0.02493
G1 X124.154 Y81.821 E0.04398
G1 X125.546 Y81.785 E0.04367
G1 X126.144 Y81.844 E0.01886
G1 X125.521 Y82.161 F10800.000
G1 F1200.000
G1 X126.075 Y82.215 E0.01743
G1 X127.131 Y82.446 E0.03389
G1 X127.646 Y82.626 E0.01711
G1 X128.471 Y82.999 E0.02838
G1 X129.663 Y83.808 E0.04518
G1 X130.487 Y84.619 E0.03625
G1 X131.355 Y85.859 E0.04745
G1 X131.679 Y86.539 E0.02362
G1 X131.932 Y87.249 E0.02363
G1 X132.195 Y88.525 E0.04086
G1 X132.221 Y89.813 E0.04039
G1 X131.973 Y91.207 E0.04439
;WIPE_START
G1 F8640.000
G1 X132.221 Y89.813 E-0.32693
G1 X132.195 Y88.525 E-0.29746
G1 X132.077 Y87.950 E-0.13560
;WIPE_END
G1 E-0.04000 F2100.000
G1 Z0.600 F10800.000
G1 X131.211 Y92.941
G1 Z0.200
G1 E0.80000 F2100.000
G1 F1200.000
G1 X130.798 Y93.616 E0.02481
G1 X129.925 Y94.583 E0.04086
G1 X128.652 Y95.508 E0.04932
G1 X127.511 Y96.046 E0.03958
G1 X126.211 Y96.380 E0.04206
M73 Q2 S26
G1 X125.353 Y96.466 E0.02705
G1 X124.848 Y96.469 E0.01582
G1 X123.500 Y96.299 E0.04261
G1 X122.227 Y95.885 E0.04197
G1 X121.238 Y95.361 E0.03509
G1 X120.095 Y94.467 E0.04552
M73 P2 R26
G1 X119.192 Y93.408 E0.04361
G1 X118.898 Y92.885 E0.01883
;WIPE_START
G1 F8640.000
G1 X119.192 Y93.408 E-0.13866
G1 X120.095 Y94.467 E-0.32114
G1 X121.119 Y95.268 E-0.30020
;WIPE_END
G1 E-0.04000 F2100.000
G1 Z0.600 F10800.000
G1 X118.152 Y91.122
G1 Z0.200
G1 E0.80000 F2100.000
G1 F1200.000
G1 X118.108 Y90.994 E0.00424
G1 X117.948 Y90.039 E0.03036
G1 X117.917 Y89.189 E0.02666
G1 X118.018 Y88.044 E0.03607
G1 X118.187 Y87.315 E0.02344
G1 X118.396 Y86.712 E0.02001
G1 X118.733 Y85.967 E0.02563
G1 X119.062 Y85.410 E0.02032
G1 X119.564 Y84.728 E0.02654
G1 X120.150 Y84.096 E0.02702
G1 X121.105 Y83.348 E0.03805
G1 X121.549 Y83.070 E0.01643
G1 X122.200 Y82.743 E0.02282
G1 X122.904 Y82.479 E0.02357
G1 X124.182 Y82.198 E0.04104
G1 X125.521 Y82.161 E0.04201
;WIPE_START
G1 F8640.000
G1 X124.182 Y82.198 E-0.30938
G1 X122.904 Y82.479 E-0.30225
G1 X122.302 Y82.705 E-0.14836
;WIPE_END
G1 E-0.04000 F2100.000
G1 Z0.600 F10800.000
G1 X118.901 Y92.127
G1 Z0.200
G1 E0.80000 F2100.000
G1 F1200.000
G1 X119.511 Y93.207 E0.03886
G1 X120.368 Y94.206 E0.04129
G1 X121.456 Y95.053 E0.04322
G1 X122.388 Y95.544 E0.03302
G1 X123.599 Y95.934 E0.03989
G1 X124.859 Y96.092 E0.03981
G1 X125.324 Y96.090 E0.01460
G1 X126.160 Y96.006 E0.02633
G1 X127.367 Y95.697 E0.03908
G1 X128.445 Y95.192 E0.03733
G1 X129.687 Y94.290 E0.04811
G1 X130.505 Y93.377 E0.03845
G1 X131.143 Y92.335 E0.03831
G1 X131.214 Y92.148 E0.00626
;WIPE_START
G1 F8640.000
G1 X131.143 Y92.335 E-0.04608
G1 X130.505 Y93.377 E-0.28215
G1 X129.687 Y94.290 E-0.28315
G1 X129.166 Y94.668 E-0.14862
;WIPE_END
G1 E-0.04000 F2100.000
G1 Z0.600 F10800.000
G1 X118.906 Y91.010
G1 Z0.200
G1 E0.80000 F2100.000
G1 F1200.000
G1 X119.241 Y91.969 E0.03184
G1 X119.830 Y93.004 E0.03733
G1 X120.641 Y93.946 E0.03898
G1 X121.673 Y94.744 E0.04091
G1 X122.548 Y95.202 E0.03097
G1 X123.664 Y95.562 E0.03674
G1 X124.870 Y95.715 E0.03813
G1 X125.296 Y95.714 E0.01335
G1 X126.108 Y95.632 E0.02559
G1 X127.224 Y95.347 E0.03612
G1 X128.240 Y94.876 E0.03510
G1 X129.420 Y94.022 E0.04567
G1 X130.193 Y93.164 E0.03622
G1 X130.798 Y92.183 E0.03613
G1 X131.219 Y91.084 E0.03689
G1 X130.870 Y90.949 F10800.000
G1 F1200.000
G1 X130.453 Y92.030 E0.03633
G1 X129.882 Y92.951 E0.03395
G1 X129.155 Y93.754 E0.03399
G1 X128.035 Y94.559 E0.04323
G1 X127.082 Y94.998 E0.03288
G1 X126.056 Y95.258 E0.03319
G1 X125.268 Y95.338 E0.02486
G1 X124.881 Y95.338 E0.01211
G1 X123.762 Y95.198 E0.03538
G1 X122.708 Y94.860 E0.03470
G1 X121.890 Y94.435 E0.02891
G1 X120.913 Y93.684 E0.03861
