; generated by PrusaSlicer 2.3.0+win64 on 2021-04-21 at 16:55:59 UTC

; 

; external perimeters extrusion width = 0.45mm
; perimeters extrusion width = 0.45mm
; infill extrusion width = 0.45mm
; solid infill extrusion width = 0.45mm
; top infill extrusion width = 0.40mm
; first layer extrusion width = 0.42mm

M73 P0 R81
M73 Q0 S81
M201 X1000 Y1000 Z200 E5000 ; sets maximum accelerations, mm/sec^2
M203 X200 Y200 Z12 E120 ; sets maximum feedrates, mm/sec
M204 P1250 R1250 T1250 ; sets acceleration (P, T) and retract acceleration (R), mm/sec^2
M205 X8.00 Y8.00 Z0.40 E4.50 ; sets the jerk limits, mm/sec
M205 S0 T0 ; sets the minimum extruding and travel feed rate, mm/sec
M107
;TYPE:Custom
M862.3 P "MK3S" ; printer model check
M862.1 P0.4 ; nozzle diameter check
M115 U3.9.2 ; tell printer latest fw version
G90 ; use absolute coordinates
M83 ; extruder relative mode
M104 S215 ; set extruder temp
M140 S60 ; set bed temp
M190 S60 ; wait for bed temp
M109 S215 ; wait for extruder temp
G28 W ; home all without mesh bed level
G80 ; mesh bed leveling
G1 Y-3.0 F1000.0 ; go outside print area
G92 E0.0
G1 X60.0 E9.0 F1000.0 ; intro line
G1 X100.0 E12.5 F1000.0 ; intro line
G92 E0.0
M221 S95

; Don't change E values below. Excessive value can damage the printer.

G21 ; set units to millimeters
G90 ; use absolute coordinates
M83 ; use relative distances for extrusion
M900 K0.05 ; Filament gcode LA 1.5
M900 K30 ; Filament gcode LA 1.0
;LAYER_CHANGE
;Z:0.2
;HEIGHT:0.2
;BEFORE_LAYER_CHANGE
G92 E0.0
;0.2


G1 E-0.80000 F2100.000
G1 Z0.400 F10800.000
;AFTER_LAYER_CHANGE
;0.2
G1 X108.801 Y98.750
G1 Z0.200
G1 E0.80000 F2100.000
M204 S1000
;TYPE:Skirt
;WIDTH:0.42
G1 F1200.000
G1 X109.341 Y97.948 E0.03031
G1 X109.756 Y97.596 E0.01707
G1 X120.823 Y90.008 E0.42071
G1 X125.583 Y87.630 E0.16686
G1 X131.195 Y86.746 E0.17812
G1 X136.449 Y87.546 E0.16665
G1 X137.184 Y87.783 E0.02422
G1 X141.574 Y90.019 E0.15447
G1 X142.020 Y90.310 E0.01669
G1 X142.545 Y90.826 E0.02309
G1 X142.889 Y91.344 E0.01950
G1 X143.115 Y91.954 E0.02039
G1 X143.191 Y92.598 E0.02034
G1 X143.191 Y117.422 E0.77833
G1 X143.001 Y118.407 E0.03145
G1 X142.552 Y119.166 E0.02765
G1 X141.798 Y119.851 E0.03194
G1 X137.023 Y122.289 E0.16811
G1 X136.429 Y122.458 E0.01937
G1 X131.203 Y123.252 E0.16572
G1 X125.567 Y122.367 E0.17888
G1 X120.695 Y119.922 E0.17093
G1 X109.590 Y112.270 E0.42283
G1 X109.158 Y111.834 E0.01924
G1 X108.836 Y111.317 E0.01912
G1 X108.634 Y110.737 E0.01924
G1 X108.566 Y110.128 E0.01923
G1 X108.572 Y99.689 E0.32729
G1 X108.787 Y98.808 E0.02843
G1 X108.988 Y99.407 F10800.000
G1 F1200.000
G1 X109.231 Y98.729 E0.02260
G1 X109.670 Y98.152 E0.02272
G1 X120.762 Y90.480 E0.42285
G1 X125.672 Y87.996 E0.17253
G1 X131.192 Y87.123 E0.17525
G1 X136.361 Y87.913 E0.16395
G1 X136.866 Y88.054 E0.01645
G1 X141.576 Y90.455 E0.16575
G1 X142.262 Y91.075 E0.02898
G1 X142.657 Y91.749 E0.02449
G1 X142.814 Y92.583 E0.02661
G1 X142.814 Y117.402 E0.77819
G1 X142.745 Y117.971 E0.01799
G1 X142.541 Y118.508 E0.01799
G1 X142.235 Y118.957 E0.01704
G1 X141.751 Y119.422 E0.02105
G1 X136.992 Y121.891 E0.16811
G1 X136.376 Y122.085 E0.02024
G1 X131.189 Y122.877 E0.16452
G1 X125.682 Y122.008 E0.17480
G1 X120.992 Y119.655 E0.16453
G1 X109.690 Y111.858 E0.43051
G1 X109.174 Y111.151 E0.02743
G1 X108.949 Y110.306 E0.02743
G1 X108.943 Y101.891 E0.26384
G1 X108.987 Y99.467 E0.07600
;WIPE_START
G1 F8640.000
G1 X109.231 Y98.729 E-0.17964
G1 X109.670 Y98.152 E-0.16733
G1 X111.141 Y97.134 E-0.41303
;WIPE_END
G1 E-0.04000 F2100.000
G1 Z0.600 F10800.000
G1 X113.288 Y94.946
G1 Z0.200
G1 E0.80000 F2100.000
G1 F1200.000
G1 X112.444 Y94.949 E0.02647
G1 X111.509 Y95.088 E0.02964
G1 X110.571 Y95.324 E0.03031
G1 X109.266 Y95.806 E0.04362
G1 X108.199 Y96.591 E0.04154
G1 X107.309 Y97.792 E0.04686
G1 X106.791 Y99.526 E0.05675
G1 X106.820 Y103.465 E0.12350
G1 X107.218 Y104.818 E0.04422
G1 X107.315 Y104.998 E0.00644
G1 X107.213 Y105.190 E0.00681
G1 X106.810 Y106.594 E0.04581
G1 X106.792 Y110.452 E0.12095
G1 X107.182 Y111.941 E0.04827
G1 X108.011 Y113.215 E0.04766
G1 X109.321 Y114.213 E0.05163
G1 X110.621 Y114.692 E0.04345
G1 X111.450 Y114.901 E0.02679
G1 X112.319 Y115.043 E0.02761
G1 X113.285 Y115.045 E0.03030
;WIPE_START
G1 F8640.000
G1 X112.319 Y115.043 E-0.22311
G1 X111.450 Y114.901 E-0.20332
G1 X110.621 Y114.692 E-0.19728
G1 X110.067 Y114.488 E-0.13629
;WIPE_END
G1 E-0.04000 F2100.000
G1 Z0.600 F10800.000
G1 X114.243 Y115.705
G1 Z0.200
G1 E0.80000 F2100.000
G1 F1200.000
G1 X115.053 Y117.171 E0.05252
G1 X119.588 Y121.552 E0.19768
G1 X124.910 Y124.211 E0.18655
G1 X130.783 Y125.210 E0.18680
G1 X137.637 Y124.155 E0.21741
G1 X142.982 Y121.414 E0.18837
G1 X144.153 Y120.362 E0.04935
G1 X144.693 Y119.656 E0.02788
G1 X145.141 Y118.577 E0.03663
G1 X145.289 Y117.404 E0.03706
G1 X145.235 Y116.812 E0.01862
G1 X144.848 Y115.524 E0.04218
G1 X143.741 Y113.946 E0.06043
G1 X143.380 Y113.654 E0.01458
G1 X142.626 Y113.099 F10800.000
G1 F1200.000
G1 X142.257 Y112.902 E0.01309
G1 X140.884 Y112.578 E0.04424
G1 X140.029 Y112.589 E0.02679
G1 X139.056 Y112.827 E0.03144
G1 X136.233 Y114.253 E0.09915
G1 X133.226 Y114.730 E0.09547
G1 X130.219 Y114.253 E0.09545
G1 X127.507 Y112.872 E0.09544
G1 X125.355 Y110.719 E0.09544
G1 X123.972 Y108.006 E0.09547
G1 X123.496 Y105.000 E0.09543
G1 X123.972 Y101.994 E0.09543
G1 X125.355 Y99.281 E0.09547
G1 X127.507 Y97.128 E0.09544
G1 X130.219 Y95.747 E0.09544
G1 X133.226 Y95.270 E0.09545
G1 X136.233 Y95.747 E0.09547
G1 X139.056 Y97.173 E0.09915
G1 X140.036 Y97.413 E0.03165
G1 X140.928 Y97.416 E0.02795
G1 X142.275 Y97.084 E0.04350
G1 X142.626 Y96.871 E0.01287
G1 X143.380 Y96.413 F10800.000
G1 F1200.000
G1 X143.788 Y95.985 E0.01857
G1 X144.697 Y94.734 E0.04846
G1 X145.018 Y94.102 E0.02225
G1 X145.291 Y92.637 E0.04671
G1 X145.193 Y91.644 E0.03129
G1 X144.864 Y90.667 E0.03235
G1 X144.249 Y89.746 E0.03472
G1 X142.894 Y88.524 E0.05721
G1 X137.531 Y85.810 E0.18846
G1 X131.611 Y84.792 E0.18834
G1 X125.353 Y85.649 E0.19803
G1 X119.605 Y88.438 E0.20033
G1 X115.054 Y92.828 E0.19828
G1 X114.246 Y94.289 E0.05234
G1 X114.931 Y93.819 F10800.000
G1 F1200.000
G1 X115.337 Y93.079 E0.02647
G1 X119.797 Y88.763 E0.19460
G1 X125.435 Y86.019 E0.19661
G1 X131.576 Y85.169 E0.19439
G1 X137.386 Y86.159 E0.18480
G1 X142.660 Y88.821 E0.18522
G1 X143.979 Y90.011 E0.05569
G1 X144.516 Y90.812 E0.03025
G1 X144.820 Y91.704 E0.02953
G1 X144.913 Y92.647 E0.02972
G1 X144.653 Y94.003 E0.04329
G1 X144.384 Y94.524 E0.01839
G1 X143.491 Y95.753 E0.04763
G1 X143.380 Y95.869 E0.00504
G1 X142.626 Y96.434 F10800.000
G1 F1200.000
G1 X142.106 Y96.745 E0.01898
G1 X140.862 Y97.044 E0.04012
G1 X140.104 Y97.041 E0.02376
G1 X139.166 Y96.812 E0.03027
G1 X136.351 Y95.384 E0.09898
G1 X133.226 Y94.888 E0.09921
G1 X130.101 Y95.384 E0.09919
G1 X127.282 Y96.819 E0.09918
G1 X125.046 Y99.056 E0.09919
G1 X123.609 Y101.876 E0.09922
G1 X123.114 Y105.000 E0.09918
G1 X123.609 Y108.124 E0.09918
G1 X125.046 Y110.944 E0.09922
G1 X127.282 Y113.181 E0.09919
G1 X130.101 Y114.616 E0.09918
G1 X133.226 Y115.112 E0.09919
G1 X136.351 Y114.616 E0.09921
G1 X139.166 Y113.188 E0.09898
G1 X140.098 Y112.960 E0.03008
G1 X140.821 Y112.951 E0.02267
G1 X142.104 Y113.247 E0.04127
G1 X142.626 Y113.527 E0.01857
G1 X143.380 Y114.131 F10800.000
G1 F1200.000
G1 X143.449 Y114.187 E0.00280
G1 X144.496 Y115.663 E0.05673
G1 X144.869 Y116.903 E0.04061
G1 X144.912 Y117.379 E0.01499
G1 X144.782 Y118.458 E0.03409
G1 X144.377 Y119.448 E0.03352
G1 X143.886 Y120.095 E0.02547
G1 X142.787 Y121.091 E0.04649
G1 X137.548 Y123.788 E0.18475
G1 X130.816 Y124.833 E0.21362
G1 X125.053 Y123.861 E0.18323
G1 X119.782 Y121.228 E0.18475
G1 X115.336 Y116.920 E0.19409
G1 X114.930 Y116.179 E0.02652
;WIPE_START
G1 F8640.000
G1 X115.336 Y116.920 E-0.19531
G1 X117.093 Y118.622 E-0.56469
;WIPE_END
G1 E-0.04000 F2100.000
G1 Z0.600 F10800.000
G1 X114.105 Y114.674
G1 Z0.200
G1 E0.80000 F2100.000
G1 F1200.000
G1 X114.098 Y114.670 E0.00024
;WIPE_START
G1 F8640.000
G1 X114.105 Y114.674 E-0.00173
;WIPE_END
G1 E-0.79827 F2100.000
G1 Z0.600 F10800.000
G1 X112.738 Y114.668
G1 Z0.200
G1 E0.80000 F2100.000
G1 F1200.000
G1 X112.364 Y114.668 E0.01171
G1 X111.518 Y114.530 E0.02688
G1 X110.740 Y114.334 E0.02516
G1 X109.524 Y113.894 E0.04055
G1 X108.307 Y112.980 E0.04772
G1 X107.539 Y111.813 E0.04380
G1 X107.169 Y110.428 E0.04496
G1 X107.187 Y106.623 E0.11931
G1 X107.567 Y105.323 E0.04247
G1 X107.760 Y104.997 E0.01188
G1 X107.571 Y104.682 E0.01151
G1 X107.196 Y103.435 E0.04083
G1 X107.169 Y99.552 E0.12174
G1 X107.660 Y97.933 E0.05306
G1 X108.446 Y96.877 E0.04128
G1 X109.423 Y96.150 E0.03817
G1 X110.673 Y95.687 E0.04181
G1 X111.574 Y95.460 E0.02911
G1 X112.486 Y95.324 E0.02891
G1 X112.737 Y95.324 E0.00788
;WIPE_START
G1 F8640.000
G1 X112.486 Y95.324 E-0.05800
G1 X111.574 Y95.460 E-0.21293
G1 X110.673 Y95.687 E-0.21436
G1 X109.558 Y96.100 E-0.27471
;WIPE_END
G1 E-0.04000 F2100.000
G1 Z0.600 F10800.000
G1 X114.096 Y95.320
G1 Z0.200
G1 E0.80000 F2100.000
G1 F1200.000
G1 X114.115 Y95.307 E0.00070
G1 X113.550 Y95.698 F10800.000
G1 F1200.000
G1 X114.333 Y95.697 E0.02454
G1 X114.804 Y94.831 E0.03091
;WIPE_START
G1 F8640.000
G1 X114.333 Y95.697 E-0.22762
G1 X113.550 Y95.698 E-0.18072
;WIPE_END
G1 E-0.39166 F2100.000
G1 Z0.600 F10800.000
G1 X115.605 Y93.357
G1 Z0.200
G1 E0.80000 F2100.000
G1 F1200.000
G1 X119.989 Y89.089 E0.19184
G1 X125.517 Y86.388 E0.19289
G1 X131.542 Y85.546 E0.19076
G1 X137.242 Y86.509 E0.18126
G1 X142.426 Y89.118 E0.18196
G1 X143.709 Y90.275 E0.05416
G1 X144.167 Y90.958 E0.02577
G1 X144.456 Y91.804 E0.02804
G1 X144.535 Y92.654 E0.02677
G1 X144.289 Y93.901 E0.03987
G1 X144.071 Y94.312 E0.01457
G1 X143.380 Y95.264 E0.03689
;WIPE_START
G1 F8640.000
G1 X144.071 Y94.312 E-0.27169
G1 X144.289 Y93.901 E-0.10733
G1 X144.535 Y92.654 E-0.29361
G1 X144.500 Y92.277 E-0.08737
;WIPE_END
G1 E-0.04000 F2100.000
G1 Z0.600 F10800.000
G1 X142.626 Y96.000
G1 Z0.200
G1 E0.80000 F2100.000
G1 F1200.000
G1 X141.940 Y96.406 E0.02498
G1 X140.799 Y96.672 E0.03676
G1 X140.172 Y96.670 E0.01964
G1 X139.277 Y96.451 E0.02888
M73 P0 R80
G1 X136.469 Y95.020 E0.09881
G1 X133.226 Y94.507 E0.10296
G1 X129.983 Y95.020 E0.10294
G1 X127.058 Y96.510 E0.10293
G1 X124.737 Y98.832 E0.10293
G1 X123.246 Y101.758 E0.10296
G1 X122.733 Y105.000 E0.10292
G1 X123.246 Y108.242 E0.10292
G1 X124.737 Y111.168 E0.10296
G1 X127.058 Y113.490 E0.10293
G1 X129.983 Y114.980 E0.10293
G1 X133.226 Y115.493 E0.10294
G1 X136.469 Y114.980 E0.10296
G1 X139.277 Y113.549 E0.09881
G1 X140.167 Y113.331 E0.02872
G1 X140.760 Y113.324 E0.01860
G1 X141.952 Y113.593 E0.03832
G1 X142.389 Y113.821 E0.01544
G1 X142.626 Y114.007 E0.00945
;WIPE_START
G1 F8640.000
G1 X142.389 Y113.821 E-0.06958
G1 X141.952 Y113.593 E-0.11371
G1 X140.760 Y113.324 E-0.28220
G1 X140.167 Y113.331 E-0.13697
G1 X139.504 Y113.493 E-0.15754
;WIPE_END
G1 E-0.04000 F2100.000
G1 Z0.600 F10800.000
G1 X143.380 Y114.737
G1 Z0.200
G1 E0.80000 F2100.000
G1 F1200.000
G1 X144.144 Y115.802 E0.04110
G1 X144.502 Y116.993 E0.03902
G1 X144.535 Y117.356 E0.01142
G1 X144.423 Y118.340 E0.03106
G1 X144.038 Y119.282 E0.03189
G1 X143.620 Y119.828 E0.02157
G1 X142.592 Y120.767 E0.04366
G1 X137.460 Y123.420 E0.18113
G1 X130.848 Y124.456 E0.20982
G1 X125.144 Y123.494 E0.18139
G1 X119.977 Y120.904 E0.18122
G1 X115.606 Y116.645 E0.19135
;WIPE_START
G1 F8640.000
G1 X117.964 Y118.942 E-0.76000
;WIPE_END
G1 E-0.04000 F2100.000
G1 Z0.600 F10800.000
G1 X114.792 Y115.149
G1 Z0.200
G1 E0.80000 F2100.000
G1 F1200.000
G1 X114.327 Y114.293 E0.03055
G1 X113.552 Y114.293 E0.02430
;WIPE_START
G1 F8640.000
G1 X114.327 Y114.293 E-0.17892
G1 X114.792 Y115.149 E-0.22502
;WIPE_END
G1 E-0.39607 F2100.000
G1 Z0.600 F10800.000
G1 X112.126 Y114.247
G1 Z0.200
G1 E0.80000 F2100.000
G1 F1200.000
G1 X111.587 Y114.159 E0.01714
G1 X110.840 Y113.971 E0.02414
G1 X109.727 Y113.575 E0.03705
G1 X108.561 Y112.699 E0.04574
G1 X107.872 Y111.634 E0.03976
G1 X107.546 Y110.405 E0.03987
G1 X107.564 Y106.652 E0.11768
G1 X107.920 Y105.457 E0.03908
G1 X108.209 Y104.995 E0.01708
G1 X107.923 Y104.545 E0.01673
G1 X107.573 Y103.404 E0.03740
G1 X107.546 Y99.579 E0.11993
G1 X108.011 Y98.076 E0.04933
G1 X108.694 Y97.161 E0.03580
G1 X109.581 Y96.494 E0.03479
G1 X110.776 Y96.050 E0.03998
G1 X111.657 Y95.828 E0.02848
G1 X112.096 Y95.763 E0.01393
G1 X111.307 Y96.304 F10800.000
G1 F1200.000
G1 X110.895 Y96.408 E0.01332
G1 X109.785 Y96.813 E0.03706
G1 X108.944 Y97.446 E0.03301
G1 X108.333 Y98.274 E0.03224
G1 X107.923 Y99.605 E0.04369
G1 X107.950 Y103.373 E0.11813
M73 Q0 S80
G1 X108.274 Y104.405 E0.03391
G1 X108.381 Y104.567 E0.00607
G1 X108.380 Y105.428 F10800.000
G1 F1200.000
G1 X108.272 Y105.595 E0.00622
G1 X107.941 Y106.682 E0.03564
G1 X107.923 Y110.381 E0.11598
G1 X108.227 Y111.506 E0.03654
G1 X108.856 Y112.463 E0.03590
G1 X109.927 Y113.254 E0.04175
G1 X110.940 Y113.607 E0.03364
G1 X111.347 Y113.710 E0.01315
;WIPE_START
G1 F8640.000
G1 X110.940 Y113.607 E-0.09685
G1 X109.927 Y113.254 E-0.24775
G1 X108.856 Y112.463 E-0.30745
G1 X108.600 Y112.072 E-0.10796
;WIPE_END
G1 E-0.04000 F2100.000
G1 Z0.600 F10800.000
G1 X113.008 Y113.918
M73 Q1 S80
G1 Z0.200
G1 E0.80000 F2100.000
G1 F1200.000
G1 X114.552 Y113.915 E0.04841
G1 X115.470 Y115.616 E0.06061
;WIPE_START
M73 P1 R80
G1 F8640.000
G1 X114.552 Y113.915 E-0.44633
G1 X113.193 Y113.917 E-0.31367
;WIPE_END
G1 E-0.04000 F2100.000
G1 Z0.600 F10800.000
G1 X117.409 Y117.887
G1 Z0.200
G1 E0.80000 F2100.000
G1 F1200.000
G1 X120.172 Y120.580 E0.12098
G1 X125.287 Y123.144 E0.17941
G1 X130.880 Y124.079 E0.17779
G1 X137.371 Y123.052 E0.20603
G1 X142.395 Y120.444 E0.17750
G1 X143.351 Y119.562 E0.04078
G1 X143.722 Y119.075 E0.01921
G1 X144.063 Y118.225 E0.02870
G1 X144.158 Y117.335 E0.02808
G1 X144.136 Y117.084 E0.00790
G1 X143.792 Y115.942 E0.03740
G1 X143.380 Y115.374 E0.02199
;WIPE_START
G1 F8640.000
G1 X143.792 Y115.942 E-0.16192
G1 X144.136 Y117.084 E-0.27544
G1 X144.158 Y117.335 E-0.05820
G1 X144.063 Y118.225 E-0.20677
G1 X143.970 Y118.457 E-0.05767
;WIPE_END
G1 E-0.04000 F2100.000
G1 Z0.600 F10800.000
G1 X142.626 Y114.482
G1 Z0.200
G1 E0.80000 F2100.000
G1 F1200.000
G1 X142.173 Y114.130 E0.01800
G1 X141.803 Y113.940 E0.01303
G1 X140.701 Y113.697 E0.03540
G1 X140.234 Y113.703 E0.01463
G1 X139.428 Y113.895 E0.02598
G1 X136.587 Y115.343 E0.09997
G1 X133.226 Y115.875 E0.10670
G1 X129.865 Y115.343 E0.10668
G1 X126.834 Y113.799 E0.10667
G1 X124.428 Y111.392 E0.10668
G1 X122.883 Y108.360 E0.10671
G1 X122.351 Y105.000 E0.10667
G1 X122.883 Y101.640 E0.10667
G1 X124.428 Y98.608 E0.10671
G1 X126.834 Y96.201 E0.10668
G1 X129.865 Y94.657 E0.10667
G1 X133.226 Y94.125 E0.10668
G1 X136.587 Y94.657 E0.10671
G1 X139.428 Y96.105 E0.09997
G1 X140.238 Y96.298 E0.02610
G1 X140.737 Y96.299 E0.01565
G1 X141.776 Y96.065 E0.03340
G1 X142.626 Y95.567 E0.03088
;WIPE_START
G1 F8640.000
G1 X141.776 Y96.065 E-0.22742
G1 X140.737 Y96.299 E-0.24598
G1 X140.238 Y96.298 E-0.11523
G1 X139.516 Y96.126 E-0.17137
;WIPE_END
G1 E-0.04000 F2100.000
G1 Z0.600 F10800.000
G1 X143.380 Y94.622
G1 Z0.200
G1 E0.80000 F2100.000
G1 F1200.000
G1 X143.758 Y94.102 E0.02017
G1 X143.943 Y93.750 E0.01244
G1 X144.157 Y92.662 E0.03479
G1 X144.083 Y91.862 E0.02518
G1 X143.819 Y91.105 E0.02514
G1 X143.438 Y90.538 E0.02140
G1 X142.233 Y89.443 E0.05107
G1 X137.151 Y86.876 E0.17850
G1 X131.508 Y85.922 E0.17945
G1 X125.599 Y86.757 E0.18710
G1 X120.183 Y89.414 E0.18918
G1 X117.388 Y92.134 E0.12227
;WIPE_START
G1 F8640.000
G1 X119.747 Y89.838 E-0.76000
;WIPE_END
G1 E-0.04000 F2100.000
G1 Z0.600 F10800.000
G1 X115.482 Y94.361
G1 Z0.200
G1 E0.80000 F2100.000
G1 F1200.000
G1 X114.558 Y96.073 E0.06100
G1 X113.003 Y96.076 E0.04875
G1 X112.429 Y96.473 F10800.000
G1 F1200.000
G1 X112.557 Y96.453 E0.00404
G1 X114.547 Y96.450 E0.06242
G1 X114.768 Y96.480 E0.00699
G1 X116.151 Y93.899 E0.09183
;WIPE_START
G1 F8640.000
G1 X114.768 Y96.480 E-0.67626
G1 X114.547 Y96.450 E-0.05147
G1 X114.408 Y96.451 E-0.03227
;WIPE_END
G1 E-0.04000 F2100.000
G1 Z0.600 F10800.000
G1 X119.184 Y90.903
G1 Z0.200
G1 E0.80000 F2100.000
G1 F1200.000
G1 X120.376 Y89.739 E0.05225
G1 X125.683 Y87.126 E0.18546
G1 X131.475 Y86.299 E0.18346
G1 X137.007 Y87.225 E0.17587
