; generated by PrusaSlicer 2.3.0+win64 on 2021-04-19 at 10:26:02 UTC

; 

; external perimeters extrusion width = 0.45mm
; perimeters extrusion width = 0.45mm
; infill extrusion width = 0.45mm
; solid infill extrusion width = 0.45mm
; top infill extrusion width = 0.40mm
; first layer extrusion width = 0.42mm

M73 P0 R29
M73 Q0 S29
M201 X1000 Y1000 Z200 E5000 ; sets maximum accelerations, mm/sec^2
M203 X200 Y200 Z12 E120 ; sets maximum feedrates, mm/sec
M204 P1250 R1250 T1250 ; sets acceleration (P, T) and retract acceleration (R), mm/sec^2
M205 X8.00 Y8.00 Z0.40 E4.50 ; sets the jerk limits, mm/sec
M205 S0 T0 ; sets the minimum extruding and travel feed rate, mm/sec
M107
;TYPE:Custom
M862.3 P "MK3S" ; printer model check
M862.1 P0.4 ; nozzle diameter check
M115 U3.9.2 ; tell printer latest fw version
G90 ; use absolute coordinates
M83 ; extruder relative mode
M104 S215 ; set extruder temp
M140 S60 ; set bed temp
M190 S60 ; wait for bed temp
M109 S215 ; wait for extruder temp
G28 W ; home all without mesh bed level
G80 ; mesh bed leveling
G1 Y-3.0 F1000.0 ; go outside print area
G92 E0.0
G1 X60.0 E9.0 F1000.0 ; intro line
G1 X100.0 E12.5 F1000.0 ; intro line
G92 E0.0
M221 S100

; Don't change E values below. Excessive value can damage the printer.
M907 E430 ; set extruder motor current
G21 ; set units to millimeters
G90 ; use absolute coordinates
M83 ; use relative distances for extrusion
M900 K0.05 ; Filament gcode LA 1.5
M900 K30 ; Filament gcode LA 1.0
;LAYER_CHANGE
;Z:0.2
;HEIGHT:0.2
;BEFORE_LAYER_CHANGE
G92 E0.0
;0.2


M73 P0 R28
G1 E-0.80000 F2100.000
G1 Z0.400 F10800.000
;AFTER_LAYER_CHANGE
;0.2
G1 X123.248 Y91.775
G1 Z0.200
G1 E0.80000 F2100.000
M204 S500
;TYPE:Skirt
;WIDTH:0.42
G1 F1200.000
G1 X126.399 Y91.746 E0.09879
G1 X127.132 Y91.846 E0.02320
G1 X127.933 Y92.172 E0.02711
G1 X128.560 Y92.532 E0.02268
G1 X129.288 Y93.098 E0.02892
G1 X129.677 Y93.594 E0.01975
G1 X131.124 Y96.096 E0.09063
G1 X131.410 Y96.818 E0.02434
G1 X131.528 Y98.059 E0.03907
G1 X131.528 Y112.078 E0.43955
G1 X131.471 Y112.853 E0.02437
G1 X131.195 Y113.770 E0.03006
G1 X129.669 Y116.419 E0.09583
G1 X129.245 Y116.944 E0.02116
G1 X128.624 Y117.429 E0.02471
G1 X127.682 Y117.951 E0.03378
G1 X126.795 Y118.223 E0.02909
G1 X123.272 Y118.235 E0.11047
G1 X122.732 Y118.116 E0.01733
G1 X122.113 Y117.852 E0.02110
G1 X121.095 Y117.225 E0.03748
G1 X120.642 Y116.830 E0.01886
G1 X120.311 Y116.387 E0.01733
G1 X118.865 Y113.884 E0.09066
G1 X118.581 Y113.142 E0.02490
G1 X118.470 Y112.009 E0.03568
G1 X118.472 Y97.918 E0.44183
G1 X118.530 Y97.147 E0.02424
G1 X118.807 Y96.225 E0.03018
G1 X120.351 Y93.550 E0.09683
G1 X120.816 Y93.002 E0.02256
G1 X121.553 Y92.460 E0.02867
G1 X122.202 Y92.113 E0.02307
G1 X123.191 Y91.794 E0.03258
M204 S1000
G1 X123.286 Y92.156 F10800.000
M204 S500
G1 F1200.000
G1 X126.398 Y92.123 E0.09758
G1 X127.049 Y92.215 E0.02060
G1 X127.789 Y92.521 E0.02513
G1 X128.356 Y92.848 E0.02051
G1 X129.037 Y93.381 E0.02711
G1 X129.362 Y93.802 E0.01668
G1 X130.801 Y96.291 E0.09013
G1 X131.050 Y96.935 E0.02166
G1 X131.151 Y98.064 E0.03555
G1 X131.151 Y112.077 E0.43936
G1 X131.096 Y112.813 E0.02316
G1 X130.851 Y113.614 E0.02626
G1 X129.348 Y116.221 E0.09436
G1 X128.974 Y116.681 E0.01858
G1 X128.406 Y117.122 E0.02254
G1 X127.534 Y117.605 E0.03126
G1 X126.724 Y117.852 E0.02654
G1 X123.310 Y117.860 E0.10705
G1 X122.279 Y117.513 E0.03411
G1 X121.310 Y116.915 E0.03571
G1 X120.902 Y116.555 E0.01704
G1 X119.189 Y113.691 E0.10466
G1 X118.937 Y113.005 E0.02292
G1 X118.847 Y112.005 E0.03147
G1 X118.849 Y97.923 E0.44154
G1 X118.905 Y97.184 E0.02321
G1 X119.152 Y96.380 E0.02637
G1 X120.672 Y93.747 E0.09534
G1 X121.086 Y93.266 E0.01989
G1 X121.780 Y92.761 E0.02692
G1 X122.771 Y92.291 E0.03439
G1 X123.228 Y92.171 E0.01481
M204 S1000
;WIPE_START
M73 Q0 S28
G1 F8640.000
G1 X126.398 Y92.123 E-0.73207
G1 X126.518 Y92.140 E-0.02793
;WIPE_END
G1 E-0.04000 F2100.000
G1 Z0.600 F10800.000
G1 X125.903 Y89.788
G1 Z0.200
G1 E0.80000 F2100.000
M204 S500
G1 F1200.000
G1 X124.109 Y89.786 E0.05626
G1 X122.658 Y90.023 E0.04608
G1 X121.351 Y90.532 E0.04400
G1 X120.672 Y90.903 E0.02424
G1 X119.835 Y91.486 E0.03199
G1 X119.079 Y92.166 E0.03188
G1 X118.446 Y92.942 E0.03141
G1 X117.340 Y94.840 E0.06888
G1 X116.822 Y96.511 E0.05484
G1 X116.704 Y97.499 E0.03120
G1 X116.700 Y98.482 E0.03081
G1 X116.809 Y99.408 E0.02926
G1 X117.022 Y100.331 E0.02970
G1 X117.389 Y101.246 E0.03091
G1 X118.283 Y102.789 E0.05590
M204 S1000
;WIPE_START
G1 F8640.000
G1 X117.389 Y101.246 E-0.41164
G1 X117.022 Y100.331 E-0.22763
G1 X116.904 Y99.822 E-0.12073
;WIPE_END
G1 E-0.04000 F2100.000
G1 Z0.600 F10800.000
G1 X119.037 Y103.752
G1 Z0.200
G1 E0.80000 F2100.000
M204 S500
G1 F1200.000
G1 X119.229 Y103.981 E0.00937
G1 X119.965 Y104.611 E0.03037
G1 X120.505 Y104.976 E0.02045
G1 X119.308 Y105.947 E0.04832
G1 X119.036 Y106.257 E0.01292
M204 S1000
;WIPE_START
G1 F8640.000
G1 X119.308 Y105.947 E-0.09515
G1 X120.505 Y104.976 E-0.35587
G1 X119.965 Y104.611 E-0.15061
G1 X119.444 Y104.165 E-0.15838
;WIPE_END
G1 E-0.04000 F2100.000
G1 Z0.600 F10800.000
G1 X118.282 Y107.223
G1 Z0.200
G1 E0.80000 F2100.000
M204 S500
G1 F1200.000
G1 X117.308 Y108.913 E0.06116
G1 X116.825 Y110.488 E0.05166
G1 X116.689 Y112.118 E0.05129
G1 X116.771 Y113.177 E0.03328
G1 X116.985 Y114.203 E0.03288
G1 X117.382 Y115.233 E0.03462
G1 X118.439 Y117.064 E0.06628
G1 X119.661 Y118.371 E0.05610
M73 Q1 S28
G1 X121.222 Y119.402 E0.05866
G1 X122.378 Y119.885 E0.03930
G1 X123.438 Y120.157 E0.03431
M73 P1 R28
G1 X126.384 Y120.177 E0.09236
G1 X127.316 Y119.983 E0.02985
G1 X128.300 Y119.628 E0.03279
G1 X129.497 Y118.989 E0.04252
G1 X130.082 Y118.577 E0.02245
G1 X130.695 Y118.052 E0.02530
G1 X131.514 Y117.116 E0.03898
G1 X132.657 Y115.166 E0.07089
G1 X133.146 Y113.646 E0.05007
G1 X133.295 Y112.523 E0.03551
G1 X133.297 Y111.433 E0.03419
G1 X133.236 Y111.012 E0.01334
G1 X133.228 Y110.766 E0.00770
G1 X133.117 Y110.085 E0.02162
G1 X132.603 Y108.740 E0.04515
G1 X131.716 Y107.222 E0.05514
M204 S1000
;WIPE_START
G1 F8640.000
G1 X132.603 Y108.740 E-0.40607
G1 X133.117 Y110.085 E-0.33247
G1 X133.132 Y110.177 E-0.02146
;WIPE_END
G1 E-0.04000 F2100.000
G1 Z0.600 F10800.000
G1 X130.962 Y106.290
G1 Z0.200
G1 E0.80000 F2100.000
M204 S500
G1 F1200.000
G1 X130.286 Y105.586 E0.03061
G1 X129.445 Y105.018 E0.03183
G1 X130.463 Y104.261 E0.03978
G1 X130.962 Y103.722 E0.02303
M204 S1000
;WIPE_START
G1 F8640.000
G1 X130.463 Y104.261 E-0.16961
G1 X129.445 Y105.018 E-0.29293
G1 X130.286 Y105.586 E-0.23440
G1 X130.475 Y105.783 E-0.06306
;WIPE_END
G1 E-0.04000 F2100.000
G1 Z0.600 F10800.000
G1 X131.716 Y102.777
G1 Z0.200
G1 E0.80000 F2100.000
M204 S500
G1 F1200.000
G1 X132.696 Y101.078 E0.06147
G1 X133.180 Y99.478 E0.05241
G1 X133.304 Y98.357 E0.03539
G1 X133.292 Y97.393 E0.03023
G1 X133.168 Y96.457 E0.02958
G1 X132.946 Y95.541 E0.02956
G1 X131.501 Y92.859 E0.09554
G1 X130.161 Y91.479 E0.06028
G1 X129.522 Y91.027 E0.02457
G1 X128.828 Y90.621 E0.02520
G1 X127.498 Y90.074 E0.04508
G1 X125.903 Y89.788 E0.05080
M204 S1000
;WIPE_START
G1 F8640.000
G1 X127.498 Y90.074 E-0.37413
G1 X128.828 Y90.621 E-0.33201
G1 X129.029 Y90.739 E-0.05387
;WIPE_END
G1 E-0.04000 F2100.000
G1 Z0.600 F10800.000
G1 X124.124 Y90.163
G1 Z0.200
G1 E0.80000 F2100.000
M204 S500
G1 F1200.000
G1 X122.776 Y90.382 E0.04280
G1 X121.520 Y90.868 E0.04223
G1 X120.879 Y91.218 E0.02291
G1 X120.079 Y91.775 E0.03056
G1 X119.342 Y92.436 E0.03104
G1 X118.748 Y93.168 E0.02956
G1 X117.676 Y95.010 E0.06683
G1 X117.188 Y96.604 E0.05227
G1 X117.079 Y97.531 E0.02927
G1 X117.077 Y98.471 E0.02946
G1 X117.178 Y99.334 E0.02725
G1 X117.378 Y100.205 E0.02802
G1 X117.722 Y101.070 E0.02917
G1 X118.283 Y102.040 E0.03514
M204 S1000
;WIPE_START
G1 F8640.000
G1 X117.722 Y101.070 E-0.25877
G1 X117.378 Y100.205 E-0.21480
G1 X117.178 Y99.334 E-0.20636
G1 X117.138 Y98.990 E-0.08007
;WIPE_END
G1 E-0.04000 F2100.000
G1 Z0.600 F10800.000
G1 X119.037 Y103.167
G1 Z0.200
G1 E0.80000 F2100.000
M204 S500
G1 F1200.000
G1 X119.486 Y103.705 E0.02198
G1 X120.201 Y104.317 E0.02952
G1 X121.232 Y105.010 E0.03893
G1 X120.513 Y105.454 E0.02650
G1 X119.581 Y106.207 E0.03758
G1 X119.036 Y106.830 E0.02594
M204 S1000
;WIPE_START
G1 F8640.000
G1 X119.581 Y106.207 E-0.19101
G1 X120.513 Y105.454 E-0.27674
G1 X121.232 Y105.010 E-0.19513
G1 X120.883 Y104.775 E-0.09713
;WIPE_END
G1 E-0.04000 F2100.000
G1 Z0.600 F10800.000
G1 X118.282 Y107.970
G1 Z0.200
G1 E0.80000 F2100.000
M204 S500
G1 F1200.000
G1 X117.662 Y109.045 E0.03890
G1 X117.199 Y110.540 E0.04908
G1 X117.066 Y112.134 E0.05015
G1 X117.146 Y113.135 E0.03147
G1 X117.343 Y114.083 E0.03036
G1 X117.716 Y115.058 E0.03274
G1 X118.754 Y116.857 E0.06512
G1 X119.920 Y118.096 E0.05336
G1 X121.383 Y119.061 E0.05494
G1 X122.512 Y119.532 E0.03834
G1 X123.465 Y119.780 E0.03087
G1 X126.366 Y119.799 E0.09096
G1 X127.225 Y119.617 E0.02754
G1 X128.134 Y119.288 E0.03032
G1 X129.309 Y118.662 E0.04172
G1 X129.857 Y118.275 E0.02107
G1 X130.420 Y117.793 E0.02322
G1 X131.218 Y116.882 E0.03799
G1 X132.321 Y114.994 E0.06854
G1 X132.782 Y113.548 E0.04759
G1 X132.919 Y112.486 E0.03356
G1 X132.922 Y111.473 E0.03176
G1 X132.859 Y111.043 E0.01363
G1 X132.854 Y110.813 E0.00721
G1 X132.748 Y110.165 E0.02059
G1 X132.269 Y108.917 E0.04193
G1 X131.716 Y107.964 E0.03453
M204 S1000
;WIPE_START
G1 F8640.000
G1 X132.269 Y108.917 E-0.25426
G1 X132.748 Y110.165 E-0.30878
G1 X132.854 Y110.813 E-0.15163
G1 X132.858 Y111.010 E-0.04533
;WIPE_END
G1 E-0.04000 F2100.000
G1 Z0.600 F10800.000
G1 X130.962 Y106.835
G1 Z0.200
G1 E0.80000 F2100.000
M204 S500
G1 F1200.000
G1 X130.029 Y105.862 E0.04226
G1 X128.720 Y104.990 E0.04930
G1 X129.162 Y104.757 E0.01565
G1 X130.198 Y103.992 E0.04041
G1 X130.962 Y103.168 E0.03522
M204 S1000
;WIPE_START
G1 F8640.000
G1 X130.198 Y103.992 E-0.25940
G1 X129.162 Y104.757 E-0.29757
G1 X128.720 Y104.990 E-0.11525
G1 X129.037 Y105.201 E-0.08778
;WIPE_END
G1 E-0.04000 F2100.000
G1 Z0.600 F10800.000
G1 X131.716 Y102.032
G1 Z0.200
G1 E0.80000 F2100.000
M204 S500
G1 F1200.000
G1 X132.341 Y100.948 E0.03922
G1 X132.814 Y99.386 E0.05118
G1 X132.927 Y98.349 E0.03270
G1 X132.917 Y97.430 E0.02882
G1 X132.799 Y96.536 E0.02828
G1 X132.586 Y95.654 E0.02847
G1 X131.182 Y93.061 E0.09243
G1 X129.930 Y91.777 E0.05623
G1 X129.311 Y91.339 E0.02378
G1 X128.649 Y90.953 E0.02401
G1 X127.374 Y90.430 E0.04322
G1 X125.886 Y90.165 E0.04737
G1 X124.124 Y90.163 E0.05527
M204 S1000
;WIPE_START
G1 F8640.000
G1 X125.886 Y90.165 E-0.40702
G1 X127.374 Y90.430 E-0.34888
G1 X127.390 Y90.437 E-0.00411
;WIPE_END
G1 E-0.04000 F2100.000
G1 Z0.600 F10800.000
G1 X125.870 Y90.542
G1 Z0.200
G1 E0.80000 F2100.000
M204 S500
G1 F1200.000
G1 X124.138 Y90.541 E0.05429
G1 X122.893 Y90.740 E0.03953
G1 X121.689 Y91.206 E0.04047
G1 X121.085 Y91.534 E0.02157
G1 X120.322 Y92.063 E0.02912
G1 X119.605 Y92.706 E0.03018
G1 X119.051 Y93.393 E0.02768
G1 X118.014 Y95.181 E0.06479
G1 X117.554 Y96.697 E0.04968
G1 X117.455 Y97.563 E0.02734
G1 X117.455 Y98.460 E0.02812
G1 X117.548 Y99.261 E0.02528
G1 X117.734 Y100.081 E0.02635
G1 X118.056 Y100.893 E0.02740
G1 X118.283 Y101.287 E0.01425
M204 S1000
;WIPE_START
G1 F8640.000
G1 X118.056 Y100.893 E-0.10491
G1 X117.734 Y100.081 E-0.20180
G1 X117.548 Y99.261 E-0.19407
G1 X117.455 Y98.460 E-0.18618
G1 X117.455 Y98.144 E-0.07304
;WIPE_END
G1 E-0.04000 F2100.000
G1 Z0.600 F10800.000
G1 X119.037 Y102.582
G1 Z0.200
G1 E0.80000 F2100.000
M204 S500
G1 F1200.000
G1 X119.765 Y103.450 E0.03551
G1 X120.423 Y104.012 E0.02713
G1 X121.121 Y104.489 E0.02652
G1 X122.145 Y104.997 E0.03585
G1 X121.346 Y105.383 E0.02781
G1 X120.740 Y105.755 E0.02230
G1 X119.831 Y106.490 E0.03666
G1 X119.036 Y107.411 E0.03812
M204 S1000
;WIPE_START
G1 F8640.000
G1 X119.831 Y106.490 E-0.28076
G1 X120.740 Y105.755 E-0.27001
G1 X121.346 Y105.383 E-0.16424
G1 X121.522 Y105.298 E-0.04499
;WIPE_END
G1 E-0.04000 F2100.000
G1 Z0.600 F10800.000
G1 X118.282 Y108.717
G1 Z0.200
G1 E0.80000 F2100.000
M204 S500
G1 F1200.000
G1 X118.016 Y109.178 E0.01669
G1 X117.573 Y110.593 E0.04648
G1 X117.443 Y112.150 E0.04899
G1 X117.521 Y113.092 E0.02963
G1 X117.709 Y113.991 E0.02880
G1 X118.050 Y114.882 E0.02994
G1 X119.069 Y116.649 E0.06395
G1 X120.179 Y117.821 E0.05060
G1 X121.544 Y118.720 E0.05126
G1 X122.645 Y119.179 E0.03740
G1 X123.491 Y119.403 E0.02744
G1 X126.347 Y119.422 E0.08953
G1 X127.132 Y119.251 E0.02519
G1 X127.969 Y118.949 E0.02790
G1 X129.120 Y118.335 E0.04091
G1 X129.632 Y117.972 E0.01969
G1 X130.145 Y117.534 E0.02115
G1 X130.923 Y116.647 E0.03698
G1 X131.984 Y114.823 E0.06618
G1 X132.417 Y113.451 E0.04509
G1 X132.544 Y112.451 E0.03161
G1 X132.545 Y111.488 E0.03020
G1 X132.482 Y111.074 E0.01311
G1 X132.479 Y110.860 E0.00673
G1 X132.379 Y110.245 E0.01952
G1 X131.935 Y109.092 E0.03874
G1 X131.716 Y108.713 E0.01373
M204 S1000
;WIPE_START
G1 F8640.000
G1 X131.935 Y109.092 E-0.10108
G1 X132.379 Y110.245 E-0.28526
G1 X132.479 Y110.860 E-0.14376
G1 X132.482 Y111.074 E-0.04958
G1 X132.545 Y111.488 E-0.09654
G1 X132.545 Y111.851 E-0.08378
;WIPE_END
G1 E-0.04000 F2100.000
G1 Z0.600 F10800.000
G1 X130.962 Y107.406
G1 Z0.200
G1 E0.80000 F2100.000
M204 S500
G1 F1200.000
G1 X130.923 Y107.339 E0.00242
G1 X129.771 Y106.139 E0.05216
G1 X128.533 Y105.320 E0.04657
G1 X127.827 Y105.020 E0.02403
G1 X128.951 Y104.444 E0.03959
G1 X129.960 Y103.699 E0.03932
G1 X130.932 Y102.646 E0.04494
G1 X130.962 Y102.593 E0.00189
M204 S1000
;WIPE_START
G1 F8640.000
G1 X130.932 Y102.646 E-0.01391
G1 X129.960 Y103.699 E-0.33098
G1 X128.951 Y104.444 E-0.28957
G1 X128.467 Y104.692 E-0.12554
;WIPE_END
G1 E-0.04000 F2100.000
G1 Z0.600 F10800.000
G1 X131.716 Y101.287
G1 Z0.200
G1 E0.80000 F2100.000
M204 S500
G1 F1200.000
G1 X131.987 Y100.819 E0.01697
G1 X132.448 Y99.294 E0.04994
G1 X132.550 Y98.342 E0.03001
G1 X132.541 Y97.467 E0.02743
G1 X132.430 Y96.615 E0.02696
G1 X132.225 Y95.766 E0.02737
G1 X130.863 Y93.265 E0.08930
G1 X129.698 Y92.075 E0.05220
G1 X129.100 Y91.652 E0.02299
G1 X128.471 Y91.286 E0.02281
G1 X127.250 Y90.787 E0.04135
G1 X125.870 Y90.542 E0.04396
M204 S1000
;WIPE_START
G1 F8640.000
G1 X127.250 Y90.787 E-0.32372
G1 X128.471 Y91.286 E-0.30453
G1 X128.964 Y91.573 E-0.13175
;WIPE_END
G1 E-0.04000 F2100.000
G1 Z0.600 F10800.000
G1 X124.153 Y90.918
G1 Z0.200
G1 E0.80000 F2100.000
M204 S500
G1 F1200.000
G1 X123.010 Y91.100 E0.03628
G1 X121.858 Y91.543 E0.03870
G1 X121.291 Y91.851 E0.02024
G1 X120.564 Y92.352 E0.02767
G1 X119.869 Y92.976 E0.02931
G1 X119.354 Y93.618 E0.02579
G1 X118.351 Y95.350 E0.06275
G1 X117.920 Y96.788 E0.04708
G1 X117.831 Y97.594 E0.02542
G1 X117.830 Y98.428 E0.02614
G1 X117.919 Y99.188 E0.02401
G1 X118.091 Y99.957 E0.02468
G1 X118.283 Y100.447 E0.01651
M204 S1000
;WIPE_START
G1 F8640.000
G1 X118.091 Y99.957 E-0.12160
G1 X117.919 Y99.188 E-0.18177
G1 X117.830 Y98.428 E-0.17685
G1 X117.831 Y97.594 E-0.19250
G1 X117.873 Y97.218 E-0.08728
;WIPE_END
G1 E-0.04000 F2100.000
G1 Z0.600 F10800.000
G1 X119.037 Y101.838
G1 Z0.200
G1 E0.80000 F2100.000
M204 S500
G1 F1200.000
G1 X119.339 Y102.360 E0.01890
G1 X120.042 Y103.195 E0.03425
M73 Q2 S28
G1 X120.659 Y103.717 E0.02534
G1 X121.322 Y104.170 E0.02518
G1 X122.341 Y104.672 E0.03560
G1 X122.926 Y104.848 E0.01917
G1 X122.934 Y105.120 E0.00853
G1 X122.226 Y105.378 E0.02362
G1 X121.535 Y105.709 E0.02402
G1 X120.948 Y106.070 E0.02162
M73 P2 R28
G1 X120.103 Y106.751 E0.03401
G1 X119.366 Y107.594 E0.03511
G1 X119.036 Y108.165 E0.02068
M204 S1000
;WIPE_START
G1 F8640.000
G1 X119.366 Y107.594 E-0.15231
G1 X120.103 Y106.751 E-0.25855
G1 X120.948 Y106.070 E-0.25044
G1 X121.312 Y105.846 E-0.09870
;WIPE_END
G1 E-0.04000 F2100.000
G1 Z0.600 F10800.000
G1 X118.282 Y109.575
G1 Z0.200
G1 E0.80000 F2100.000
M204 S500
G1 F1200.000
G1 X117.947 Y110.645 E0.03515
G1 X117.820 Y112.165 E0.04783
G1 X117.895 Y113.048 E0.02777
G1 X118.074 Y113.898 E0.02726
G1 X118.384 Y114.707 E0.02714
G1 X119.385 Y116.441 E0.06277
G1 X120.437 Y117.545 E0.04782
G1 X121.706 Y118.379 E0.04760
G1 X122.779 Y118.826 E0.03648
G1 X123.519 Y119.026 E0.02401
G1 X126.327 Y119.045 E0.08807
G1 X127.037 Y118.886 E0.02282
G1 X127.804 Y118.610 E0.02553
G1 X128.932 Y118.009 E0.04009
G1 X129.407 Y117.670 E0.01829
