; generated by PrusaSlicer 2.3.0+win64 on 2021-04-19 at 16:33:46 UTC

; 

; external perimeters extrusion width = 0.45mm
; perimeters extrusion width = 0.45mm
; infill extrusion width = 0.45mm
; solid infill extrusion width = 0.45mm
; top infill extrusion width = 0.40mm
; first layer extrusion width = 0.42mm

M73 P0 R11
M73 Q0 S11
M201 X1000 Y1000 Z200 E5000 ; sets maximum accelerations, mm/sec^2
M203 X200 Y200 Z12 E120 ; sets maximum feedrates, mm/sec
M204 P1250 R1250 T1250 ; sets acceleration (P, T) and retract acceleration (R), mm/sec^2
M205 X8.00 Y8.00 Z0.40 E4.50 ; sets the jerk limits, mm/sec
M205 S0 T0 ; sets the minimum extruding and travel feed rate, mm/sec
M107
;TYPE:Custom
M862.3 P "MK3S" ; printer model check
M862.1 P0.4 ; nozzle diameter check
M115 U3.9.2 ; tell printer latest fw version
G90 ; use absolute coordinates
M83 ; extruder relative mode
M104 S215 ; set extruder temp
M140 S60 ; set bed temp
M190 S60 ; wait for bed temp
M109 S215 ; wait for extruder temp
G28 W ; home all without mesh bed level
G80 ; mesh bed leveling
G1 Y-3.0 F1000.0 ; go outside print area
G92 E0.0
G1 X60.0 E9.0 F1000.0 ; intro line
G1 X100.0 E12.5 F1000.0 ; intro line
G92 E0.0
M221 S95

; Don't change E values below. Excessive value can damage the printer.
M907 E430 ; set extruder motor current
G21 ; set units to millimeters
G90 ; use absolute coordinates
M83 ; use relative distances for extrusion
M900 K0.05 ; Filament gcode LA 1.5
M900 K30 ; Filament gcode LA 1.0
;LAYER_CHANGE
;Z:0.2
;HEIGHT:0.2
;BEFORE_LAYER_CHANGE
G92 E0.0
;0.2


G1 E-0.80000 F2100.000
G1 Z0.400 F10800.000
;AFTER_LAYER_CHANGE
;0.2
G1 X118.359 Y97.378
M73 P1 R11
M73 Q1 S11
G1 Z0.200
G1 E0.80000 F2100.000
M204 S1000
;TYPE:Skirt
;WIDTH:0.42
G1 F1200.000
G1 X118.643 Y96.505 E0.02879
G1 X120.501 Y93.286 E0.11655
G1 X120.924 Y92.760 E0.02116
G1 X121.501 Y92.314 E0.02287
G1 X122.306 Y91.920 E0.02809
G1 X122.975 Y91.762 E0.02154
G1 X126.752 Y91.746 E0.11844
G1 X127.418 Y91.829 E0.02103
G1 X128.077 Y92.078 E0.02210
G1 X128.770 Y92.501 E0.02545
G1 X129.207 Y92.896 E0.01848
G1 X129.520 Y93.321 E0.01656
G1 X131.319 Y96.436 E0.11278
G1 X131.599 Y97.156 E0.02422
G1 X131.679 Y98.022 E0.02728
G1 X131.642 Y112.621 E0.45774
G1 X131.358 Y113.494 E0.02879
G1 X129.502 Y116.710 E0.11643
G1 X129.113 Y117.211 E0.01988
G1 X128.623 Y117.608 E0.01979
G1 X127.802 Y118.054 E0.02927
G1 X127.061 Y118.239 E0.02396
G1 X122.827 Y118.224 E0.13273
G1 X122.257 Y118.076 E0.01848
G1 X121.706 Y117.801 E0.01931
G1 X121.129 Y117.422 E0.02165
G1 X120.712 Y117.011 E0.01835
G1 X118.676 Y113.555 E0.12576
G1 X118.394 Y112.801 E0.02523
G1 X118.320 Y112.005 E0.02507
G1 X118.358 Y97.438 E0.45675
G1 X118.732 Y97.439 F10800.000
G1 F1200.000
G1 X118.982 Y96.670 E0.02535
G1 X120.822 Y93.483 E0.11539
G1 X121.198 Y93.020 E0.01870
G1 X121.724 Y92.619 E0.02073
G1 X122.449 Y92.270 E0.02524
G1 X123.038 Y92.134 E0.01894
G1 X126.752 Y92.123 E0.11644
G1 X127.340 Y92.198 E0.01858
G1 X127.934 Y92.427 E0.01997
G1 X128.563 Y92.817 E0.02319
G1 X128.949 Y93.172 E0.01645
G1 X130.993 Y96.625 E0.12584
G1 X131.239 Y97.271 E0.02166
G1 X131.302 Y98.024 E0.02370
G1 X131.268 Y112.569 E0.45605
G1 X131.018 Y113.329 E0.02508
G1 X129.164 Y116.541 E0.11629
G1 X128.776 Y117.014 E0.01917
G1 X128.257 Y117.394 E0.02019
G1 X127.597 Y117.729 E0.02321
G1 X126.974 Y117.868 E0.02000
G1 X122.879 Y117.851 E0.12840
G1 X122.333 Y117.701 E0.01775
G1 X121.742 Y117.386 E0.02098
G1 X120.988 Y116.753 E0.03087
M73 Q2 S11
G1 X119.004 Y113.370 E0.12296
G1 X118.759 Y112.700 E0.02237
G1 X118.697 Y112.005 E0.02189
G1 X118.732 Y97.499 E0.45482
;WIPE_START
M73 P2 R11
G1 F8640.000
G1 X118.982 Y96.670 E-0.19994
G1 X120.195 Y94.569 E-0.56006
;WIPE_END
G1 E-0.04000 F2100.000
G1 Z0.600 F10800.000
G1 X125.903 Y89.788
G1 Z0.200
G1 E0.80000 F2100.000
G1 F1200.000
G1 X124.109 Y89.786 E0.05626
G1 X122.658 Y90.023 E0.04608
G1 X121.351 Y90.532 E0.04400
G1 X120.672 Y90.903 E0.02424
G1 X119.835 Y91.486 E0.03199
G1 X119.079 Y92.166 E0.03188
G1 X118.446 Y92.942 E0.03141
G1 X117.340 Y94.840 E0.06888
G1 X116.822 Y96.511 E0.05484
G1 X116.704 Y97.499 E0.03120
G1 X116.700 Y98.482 E0.03081
G1 X116.809 Y99.408 E0.02926
G1 X117.022 Y100.331 E0.02970
G1 X117.389 Y101.246 E0.03091
G1 X118.156 Y102.570 E0.04797
;WIPE_START
G1 F8640.000
G1 X117.389 Y101.246 E-0.35329
G1 X117.022 Y100.331 E-0.22763
G1 X116.847 Y99.575 E-0.17908
;WIPE_END
G1 E-0.04000 F2100.000
G1 Z0.600 F10800.000
G1 X118.906 Y103.595
G1 Z0.200
G1 E0.80000 F2100.000
G1 F1200.000
G1 X119.229 Y103.981 E0.01578
G1 X119.965 Y104.611 E0.03037
G1 X120.505 Y104.976 E0.02045
G1 X119.308 Y105.947 E0.04832
G1 X118.899 Y106.415 E0.01948
;WIPE_START
G1 F8640.000
G1 X119.308 Y105.947 E-0.14345
G1 X120.505 Y104.976 E-0.35587
G1 X119.965 Y104.611 E-0.15061
G1 X119.603 Y104.301 E-0.11007
;WIPE_END
G1 E-0.04000 F2100.000
G1 Z0.600 F10800.000
G1 X118.143 Y107.464
G1 Z0.200
G1 E0.80000 F2100.000
G1 F1200.000
G1 X117.308 Y108.913 E0.05243
G1 X116.825 Y110.488 E0.05166
G1 X116.689 Y112.118 E0.05129
G1 X116.771 Y113.177 E0.03328
G1 X116.985 Y114.203 E0.03288
G1 X117.382 Y115.233 E0.03462
G1 X118.439 Y117.064 E0.06628
G1 X119.661 Y118.371 E0.05610
G1 X121.222 Y119.402 E0.05866
G1 X122.378 Y119.885 E0.03930
G1 X123.438 Y120.157 E0.03431
G1 X126.384 Y120.177 E0.09236
G1 X127.316 Y119.983 E0.02985
G1 X128.300 Y119.628 E0.03279
G1 X129.497 Y118.989 E0.04252
G1 X130.082 Y118.577 E0.02245
G1 X130.695 Y118.052 E0.02530
G1 X131.514 Y117.116 E0.03898
G1 X132.657 Y115.166 E0.07089
G1 X133.146 Y113.646 E0.05007
G1 X133.295 Y112.523 E0.03551
G1 X133.297 Y111.433 E0.03419
G1 X133.236 Y111.012 E0.01334
G1 X133.228 Y110.766 E0.00770
G1 X133.117 Y110.085 E0.02162
G1 X132.603 Y108.740 E0.04515
G1 X131.844 Y107.440 E0.04721
;WIPE_START
G1 F8640.000
G1 X132.603 Y108.740 E-0.34768
G1 X133.117 Y110.085 E-0.33247
G1 X133.173 Y110.427 E-0.07985
;WIPE_END
G1 E-0.04000 F2100.000
G1 Z0.600 F10800.000
G1 X131.094 Y106.428
G1 Z0.200
G1 E0.80000 F2100.000
G1 F1200.000
G1 X130.286 Y105.586 E0.03658
G1 X129.445 Y105.018 E0.03183
G1 X130.463 Y104.261 E0.03978
G1 X131.101 Y103.573 E0.02943
;WIPE_START
G1 F8640.000
G1 X130.463 Y104.261 E-0.21672
G1 X129.445 Y105.018 E-0.29293
G1 X130.286 Y105.586 E-0.23440
G1 X130.334 Y105.636 E-0.01595
;WIPE_END
G1 E-0.04000 F2100.000
G1 Z0.600 F10800.000
G1 X131.856 Y102.534
G1 Z0.200
G1 E0.80000 F2100.000
G1 F1200.000
G1 X132.696 Y101.078 E0.05269
G1 X133.180 Y99.478 E0.05241
G1 X133.304 Y98.357 E0.03539
G1 X133.292 Y97.393 E0.03023
M73 Q3 S11
G1 X133.168 Y96.457 E0.02958
G1 X132.946 Y95.541 E0.02956
G1 X131.501 Y92.859 E0.09554
G1 X130.161 Y91.479 E0.06028
M73 P3 R11
G1 X129.522 Y91.027 E0.02457
G1 X128.828 Y90.621 E0.02520
G1 X127.498 Y90.074 E0.04508
G1 X125.903 Y89.788 E0.05080
;WIPE_START
G1 F8640.000
G1 X127.498 Y90.074 E-0.37413
G1 X128.828 Y90.621 E-0.33201
G1 X129.029 Y90.739 E-0.05387
;WIPE_END
G1 E-0.04000 F2100.000
G1 Z0.600 F10800.000
G1 X124.124 Y90.163
G1 Z0.200
G1 E0.80000 F2100.000
G1 F1200.000
G1 X122.776 Y90.382 E0.04280
G1 X121.520 Y90.868 E0.04223
G1 X120.879 Y91.218 E0.02291
G1 X120.079 Y91.775 E0.03056
G1 X119.342 Y92.436 E0.03104
G1 X118.748 Y93.168 E0.02956
G1 X117.676 Y95.010 E0.06683
G1 X117.188 Y96.604 E0.05227
G1 X117.079 Y97.531 E0.02927
G1 X117.077 Y98.471 E0.02946
G1 X117.178 Y99.334 E0.02725
G1 X117.378 Y100.205 E0.02802
G1 X117.722 Y101.070 E0.02917
G1 X118.158 Y101.824 E0.02731
;WIPE_START
G1 F8640.000
G1 X117.722 Y101.070 E-0.20115
G1 X117.378 Y100.205 E-0.21480
G1 X117.178 Y99.334 E-0.20636
G1 X117.109 Y98.742 E-0.13770
;WIPE_END
G1 E-0.04000 F2100.000
G1 Z0.600 F10800.000
G1 X118.907 Y103.011
G1 Z0.200
G1 E0.80000 F2100.000
G1 F1200.000
G1 X119.486 Y103.705 E0.02834
G1 X120.201 Y104.317 E0.02952
G1 X121.232 Y105.010 E0.03893
G1 X120.513 Y105.454 E0.02650
G1 X119.581 Y106.207 E0.03758
G1 X118.897 Y106.989 E0.03256
;WIPE_START
G1 F8640.000
G1 X119.581 Y106.207 E-0.23977
G1 X120.513 Y105.454 E-0.27674
G1 X121.232 Y105.010 E-0.19513
G1 X121.058 Y104.893 E-0.04837
;WIPE_END
G1 E-0.04000 F2100.000
G1 Z0.600 F10800.000
G1 X118.141 Y108.215
G1 Z0.200
G1 E0.80000 F2100.000
G1 F1200.000
G1 X117.662 Y109.045 E0.03006
G1 X117.199 Y110.540 E0.04908
G1 X117.066 Y112.134 E0.05015
G1 X117.146 Y113.135 E0.03147
G1 X117.343 Y114.083 E0.03036
G1 X117.716 Y115.058 E0.03274
G1 X118.754 Y116.857 E0.06512
G1 X119.920 Y118.096 E0.05336
G1 X121.383 Y119.061 E0.05494
G1 X122.512 Y119.532 E0.03834
G1 X123.465 Y119.780 E0.03087
G1 X126.366 Y119.799 E0.09096
G1 X127.225 Y119.617 E0.02754
G1 X128.134 Y119.288 E0.03032
G1 X129.309 Y118.662 E0.04172
G1 X129.857 Y118.275 E0.02107
G1 X130.420 Y117.793 E0.02322
G1 X131.218 Y116.882 E0.03799
G1 X132.321 Y114.994 E0.06854
G1 X132.782 Y113.548 E0.04759
G1 X132.919 Y112.486 E0.03356
G1 X132.922 Y111.473 E0.03176
G1 X132.859 Y111.043 E0.01363
G1 X132.854 Y110.813 E0.00721
G1 X132.748 Y110.165 E0.02059
G1 X132.269 Y108.917 E0.04193
G1 X131.842 Y108.181 E0.02668
;WIPE_START
G1 F8640.000
G1 X132.269 Y108.917 E-0.19650
G1 X132.748 Y110.165 E-0.30878
G1 X132.854 Y110.813 E-0.15163
G1 X132.859 Y111.043 E-0.05308
G1 X132.891 Y111.257 E-0.05001
;WIPE_END
G1 E-0.04000 F2100.000
G1 Z0.600 F10800.000
G1 X131.093 Y106.971
G1 Z0.200
G1 E0.80000 F2100.000
G1 F1200.000
G1 X130.029 Y105.862 E0.04818
G1 X128.720 Y104.990 E0.04930
G1 X129.162 Y104.757 E0.01565
G1 X130.198 Y103.992 E0.04041
G1 X131.102 Y103.017 E0.04168
;WIPE_START
G1 F8640.000
G1 X130.198 Y103.992 E-0.30695
G1 X129.162 Y104.757 E-0.29757
G1 X128.720 Y104.990 E-0.11525
G1 X128.865 Y105.087 E-0.04023
;WIPE_END
G1 E-0.04000 F2100.000
G1 Z0.600 F10800.000
G1 X131.858 Y101.786
G1 Z0.200
G1 E0.80000 F2100.000
G1 F1200.000
G1 X132.341 Y100.948 E0.03031
G1 X132.814 Y99.386 E0.05118
G1 X132.927 Y98.349 E0.03270
G1 X132.917 Y97.430 E0.02882
G1 X132.799 Y96.536 E0.02828
G1 X132.586 Y95.654 E0.02847
G1 X131.182 Y93.061 E0.09243
G1 X129.930 Y91.777 E0.05623
G1 X129.311 Y91.339 E0.02378
G1 X128.649 Y90.953 E0.02401
G1 X127.374 Y90.430 E0.04322
G1 X125.886 Y90.165 E0.04737
M73 Q4 S11
G1 X124.124 Y90.163 E0.05527
;WIPE_START
G1 F8640.000
G1 X125.886 Y90.165 E-0.40702
G1 X127.374 Y90.430 E-0.34888
G1 X127.390 Y90.437 E-0.00411
;WIPE_END
G1 E-0.04000 F2100.000
G1 Z0.600 F10800.000
G1 X125.870 Y90.542
M73 P4 R11
G1 Z0.200
G1 E0.80000 F2100.000
G1 F1200.000
G1 X124.138 Y90.541 E0.05429
G1 X122.893 Y90.740 E0.03953
G1 X121.689 Y91.206 E0.04047
G1 X121.085 Y91.534 E0.02157
G1 X120.322 Y92.063 E0.02912
G1 X119.605 Y92.706 E0.03018
G1 X119.051 Y93.393 E0.02768
G1 X118.014 Y95.181 E0.06479
G1 X117.554 Y96.697 E0.04968
G1 X117.455 Y97.563 E0.02734
G1 X117.455 Y98.460 E0.02812
G1 X117.548 Y99.261 E0.02528
G1 X117.734 Y100.081 E0.02635
G1 X118.056 Y100.893 E0.02740
G1 X118.160 Y101.074 E0.00654
;WIPE_START
G1 F8640.000
G1 X118.056 Y100.893 E-0.04815
G1 X117.734 Y100.081 E-0.20180
G1 X117.548 Y99.261 E-0.19407
G1 X117.455 Y98.460 E-0.18618
G1 X117.455 Y97.898 E-0.12980
;WIPE_END
G1 E-0.04000 F2100.000
G1 Z0.600 F10800.000
G1 X118.909 Y102.369
G1 Z0.200
G1 E0.80000 F2100.000
G1 F1200.000
G1 X119.021 Y102.563 E0.00702
G1 X119.765 Y103.450 E0.03631
G1 X120.423 Y104.012 E0.02713
G1 X121.121 Y104.489 E0.02652
G1 X122.145 Y104.997 E0.03585
G1 X121.346 Y105.383 E0.02781
G1 X120.740 Y105.755 E0.02230
G1 X119.831 Y106.490 E0.03666
G1 X119.049 Y107.389 E0.03735
G1 X118.896 Y107.654 E0.00960
;WIPE_START
G1 F8640.000
G1 X119.049 Y107.389 E-0.07066
G1 X119.831 Y106.490 E-0.27507
G1 X120.740 Y105.755 E-0.27001
G1 X121.273 Y105.428 E-0.14426
;WIPE_END
G1 E-0.04000 F2100.000
G1 Z0.600 F10800.000
G1 X118.139 Y108.964
G1 Z0.200
G1 E0.80000 F2100.000
G1 F1200.000
G1 X118.016 Y109.178 E0.00774
G1 X117.573 Y110.593 E0.04648
G1 X117.443 Y112.150 E0.04899
G1 X117.521 Y113.092 E0.02963
G1 X117.709 Y113.991 E0.02880
G1 X118.050 Y114.882 E0.02994
G1 X119.069 Y116.649 E0.06395
G1 X120.179 Y117.821 E0.05060
G1 X121.544 Y118.720 E0.05126
G1 X122.645 Y119.179 E0.03740
G1 X123.491 Y119.403 E0.02744
G1 X126.347 Y119.422 E0.08953
G1 X127.132 Y119.251 E0.02519
G1 X127.969 Y118.949 E0.02790
G1 X129.120 Y118.335 E0.04091
G1 X129.632 Y117.972 E0.01969
G1 X130.145 Y117.534 E0.02115
G1 X130.923 Y116.647 E0.03698
G1 X131.984 Y114.823 E0.06618
G1 X132.417 Y113.451 E0.04509
G1 X132.544 Y112.451 E0.03161
G1 X132.545 Y111.488 E0.03020
G1 X132.482 Y111.074 E0.01311
G1 X132.479 Y110.860 E0.00673
G1 X132.379 Y110.245 E0.01952
G1 X131.935 Y109.092 E0.03874
G1 X131.840 Y108.927 E0.00597
;WIPE_START
G1 F8640.000
G1 X131.935 Y109.092 E-0.04395
G1 X132.379 Y110.245 E-0.28526
G1 X132.479 Y110.860 E-0.14376
G1 X132.482 Y111.074 E-0.04958
G1 X132.545 Y111.488 E-0.09654
G1 X132.544 Y112.098 E-0.14091
;WIPE_END
G1 E-0.04000 F2100.000
G1 Z0.600 F10800.000
G1 X131.091 Y107.630
G1 Z0.200
G1 E0.80000 F2100.000
G1 F1200.000
G1 X130.923 Y107.339 E0.01053
G1 X129.771 Y106.139 E0.05216
G1 X128.533 Y105.320 E0.04657
G1 X127.827 Y105.020 E0.02403
G1 X128.951 Y104.444 E0.03959
G1 X129.960 Y103.699 E0.03932
G1 X130.932 Y102.646 E0.04494
G1 X131.104 Y102.348 E0.01077
;WIPE_START
G1 F8640.000
G1 X130.932 Y102.646 E-0.07929
G1 X129.960 Y103.699 E-0.33098
G1 X128.951 Y104.444 E-0.28957
G1 X128.719 Y104.563 E-0.06017
;WIPE_END
G1 E-0.04000 F2100.000
G1 Z0.600 F10800.000
G1 X131.860 Y101.038
G1 Z0.200
G1 E0.80000 F2100.000
G1 F1200.000
G1 X131.987 Y100.819 E0.00794
G1 X132.448 Y99.294 E0.04994
G1 X132.550 Y98.342 E0.03001
G1 X132.541 Y97.467 E0.02743
G1 X132.430 Y96.615 E0.02696
G1 X132.225 Y95.766 E0.02737
G1 X130.863 Y93.265 E0.08930
G1 X129.698 Y92.075 E0.05220
G1 X129.100 Y91.652 E0.02299
G1 X128.471 Y91.286 E0.02281
G1 X127.250 Y90.787 E0.04135
G1 X125.870 Y90.542 E0.04396
;WIPE_START
G1 F8640.000
G1 X127.250 Y90.787 E-0.32372
G1 X128.471 Y91.286 E-0.30453
G1 X128.964 Y91.573 E-0.13175
;WIPE_END
G1 E-0.04000 F2100.000
G1 Z0.600 F10800.000
G1 X124.153 Y90.918
M73 P4 R10
G1 Z0.200
G1 E0.80000 F2100.000
G1 F1200.000
G1 X123.010 Y91.100 E0.03628
G1 X121.858 Y91.543 E0.03870
M73 Q5 S11
G1 X121.291 Y91.851 E0.02024
G1 X120.564 Y92.352 E0.02767
G1 X119.869 Y92.976 E0.02931
G1 X119.354 Y93.618 E0.02579
G1 X118.351 Y95.350 E0.06275
G1 X117.920 Y96.788 E0.04708
M73 P5 R10
G1 X117.831 Y97.594 E0.02542
G1 X117.830 Y98.428 E0.02614
G1 X117.919 Y99.188 E0.02401
G1 X118.091 Y99.957 E0.02468
G1 X118.163 Y100.140 E0.00617
;WIPE_START
G1 F8640.000
G1 X118.091 Y99.957 E-0.04542
G1 X117.919 Y99.188 E-0.18177
G1 X117.830 Y98.428 E-0.17685
G1 X117.831 Y97.594 E-0.19250
G1 X117.909 Y96.890 E-0.16346
;WIPE_END
G1 E-0.04000 F2100.000
G1 Z0.600 F10800.000
G1 X118.910 Y101.618
G1 Z0.200
G1 E0.80000 F2100.000
G1 F1200.000
G1 X119.339 Y102.360 E0.02684
G1 X120.042 Y103.195 E0.03425
G1 X120.659 Y103.717 E0.02534
G1 X121.322 Y104.170 E0.02518
G1 X122.341 Y104.672 E0.03560
G1 X122.926 Y104.848 E0.01917
G1 X122.934 Y105.120 E0.00853
G1 X122.226 Y105.378 E0.02362
G1 X121.535 Y105.709 E0.02402
G1 X120.948 Y106.070 E0.02162
G1 X120.103 Y106.751 E0.03401
G1 X119.366 Y107.594 E0.03511
G1 X118.894 Y108.411 E0.02960
;WIPE_START
G1 F8640.000
G1 X119.366 Y107.594 E-0.21797
G1 X120.103 Y106.751 E-0.25855
G1 X120.948 Y106.070 E-0.25044
G1 X121.070 Y105.995 E-0.03305
;WIPE_END
G1 E-0.04000 F2100.000
G1 Z0.600 F10800.000
G1 X118.136 Y110.040
G1 Z0.200
G1 E0.80000 F2100.000
G1 F1200.000
G1 X117.947 Y110.645 E0.01987
G1 X117.820 Y112.165 E0.04783
G1 X117.895 Y113.048 E0.02777
G1 X118.074 Y113.898 E0.02726
G1 X118.384 Y114.707 E0.02714
G1 X119.385 Y116.441 E0.06277
G1 X120.437 Y117.545 E0.04782
G1 X121.706 Y118.379 E0.04760
G1 X122.779 Y118.826 E0.03648
G1 X123.519 Y119.026 E0.02401
G1 X126.327 Y119.045 E0.08807
G1 X127.037 Y118.886 E0.02282
G1 X127.804 Y118.610 E0.02553
G1 X128.932 Y118.009 E0.04009
G1 X129.407 Y117.670 E0.01829
G1 X129.871 Y117.275 E0.01911
G1 X130.627 Y116.412 E0.03596
M73 Q5 S10
G1 X131.647 Y114.652 E0.06379
G1 X132.052 Y113.356 E0.04259
G1 X132.168 Y112.416 E0.02968
G1 X132.170 Y111.530 E0.02779
G1 X132.105 Y111.103 E0.01354
G1 X132.104 Y110.903 E0.00629
G1 X132.019 Y110.361 E0.01720
G1 X131.837 Y109.885 E0.01596
;WIPE_START
G1 F8640.000
G1 X132.019 Y110.361 E-0.11751
G1 X132.104 Y110.903 E-0.12664
G1 X132.105 Y111.103 E-0.04632
