; generated by PrusaSlicer 2.3.0+win64 on 2021-04-21 at 05:42:25 UTC

; 

; external perimeters extrusion width = 0.45mm
; perimeters extrusion width = 0.45mm
; infill extrusion width = 0.45mm
; solid infill extrusion width = 0.45mm
; top infill extrusion width = 0.40mm
; first layer extrusion width = 0.42mm

M73 P0 R55
M73 Q0 S55
M201 X1000 Y1000 Z200 E5000 ; sets maximum accelerations, mm/sec^2
M203 X200 Y200 Z12 E120 ; sets maximum feedrates, mm/sec
M204 P1250 R1250 T1250 ; sets acceleration (P, T) and retract acceleration (R), mm/sec^2
M205 X8.00 Y8.00 Z0.40 E4.50 ; sets the jerk limits, mm/sec
M205 S0 T0 ; sets the minimum extruding and travel feed rate, mm/sec
M107
;TYPE:Custom
M862.3 P "MK3S" ; printer model check
M862.1 P0.4 ; nozzle diameter check
M115 U3.9.2 ; tell printer latest fw version
G90 ; use absolute coordinates
M83 ; extruder relative mode
M104 S215 ; set extruder temp
M140 S60 ; set bed temp
M190 S60 ; wait for bed temp
M109 S215 ; wait for extruder temp
G28 W ; home all without mesh bed level
G80 ; mesh bed leveling
G1 Y-3.0 F1000.0 ; go outside print area
G92 E0.0
G1 X60.0 E9.0 F1000.0 ; intro line
G1 X100.0 E12.5 F1000.0 ; intro line
G92 E0.0
M221 S95

; Don't change E values below. Excessive value can damage the printer.

G21 ; set units to millimeters
G90 ; use absolute coordinates
M83 ; use relative distances for extrusion
M900 K0.05 ; Filament gcode LA 1.5
M900 K30 ; Filament gcode LA 1.0
;LAYER_CHANGE
;Z:0.2
;HEIGHT:0.2
;BEFORE_LAYER_CHANGE
G92 E0.0
;0.2


G1 E-0.80000 F2100.000
G1 Z0.400 F10800.000
;AFTER_LAYER_CHANGE
;0.2
G1 X105.105 Y107.142
G1 Z0.200
G1 E0.80000 F2100.000
M204 S1000
;TYPE:Skirt
;WIDTH:0.42
G1 F1200.000
G1 X104.860 Y105.877 E0.04038
G1 X104.826 Y104.749 E0.03538
G1 X104.959 Y103.360 E0.04376
G1 X105.273 Y102.470 E0.02958
G1 X107.686 Y98.286 E0.15145
G1 X108.026 Y97.830 E0.01784
G1 X108.429 Y97.465 E0.01706
G1 X109.633 Y96.631 E0.04589
G1 X111.302 Y95.898 E0.05717
G1 X112.187 Y95.746 E0.02816
G1 X137.878 Y95.746 E0.80551
G1 X138.735 Y95.881 E0.02721
G1 X139.979 Y96.424 E0.04255
G1 X141.403 Y97.332 E0.05297
G1 X142.058 Y97.933 E0.02787
G1 X144.794 Y102.598 E0.16956
G1 X145.012 Y103.228 E0.02090
G1 X145.154 Y104.279 E0.03324
G1 X145.107 Y106.118 E0.05767
G1 X144.888 Y107.184 E0.03414
G1 X142.304 Y111.726 E0.16385
G1 X141.943 Y112.182 E0.01822
G1 X141.336 Y112.712 E0.02526
G1 X140.310 Y113.402 E0.03878
G1 X138.973 Y114.031 E0.04631
G1 X137.849 Y114.254 E0.03595
G1 X112.117 Y114.254 E0.80681
G1 X111.571 Y114.199 E0.01720
G1 X111.012 Y114.026 E0.01835
G1 X109.662 Y113.386 E0.04685
G1 X108.567 Y112.646 E0.04143
G1 X108.021 Y112.163 E0.02287
G1 X107.669 Y111.685 E0.01860
G1 X105.135 Y107.194 E0.16169
G1 X105.462 Y107.009 F10800.000
G1 F1200.000
G1 X105.233 Y105.821 E0.03795
G1 X105.203 Y104.764 E0.03315
G1 X105.327 Y103.442 E0.04161
G1 X105.608 Y102.644 E0.02652
G1 X108.008 Y98.483 E0.15061
G1 X108.299 Y98.089 E0.01538
G1 X109.833 Y96.951 E0.05988
G1 X111.448 Y96.246 E0.05525
G1 X112.193 Y96.123 E0.02367
G1 X137.877 Y96.123 E0.80532
M73 P0 R54
G1 X138.637 Y96.246 E0.02413
G1 X139.813 Y96.763 E0.04029
G1 X141.180 Y97.637 E0.05087
G1 X141.780 Y98.189 E0.02557
G1 X144.454 Y102.761 E0.16606
G1 X144.646 Y103.322 E0.01858
G1 X144.778 Y104.316 E0.03145
G1 X144.732 Y106.078 E0.05525
G1 X144.533 Y107.056 E0.03131
G1 X141.983 Y111.528 E0.16140
G1 X141.316 Y112.253 E0.03090
G1 X140.306 Y112.961 E0.03867
G1 X138.823 Y113.684 E0.05173
G1 X137.841 Y113.877 E0.03138
G1 X111.652 Y113.830 E0.82115
G1 X111.156 Y113.678 E0.01625
G1 X109.846 Y113.057 E0.04545
G1 X108.795 Y112.345 E0.03981
G1 X108.290 Y111.899 E0.02113
G1 X107.992 Y111.490 E0.01587
G1 X105.491 Y107.061 E0.15946
;WIPE_START
G1 F8640.000
G1 X105.233 Y105.821 E-0.29262
G1 X105.203 Y104.764 E-0.24415
G1 X105.294 Y103.801 E-0.22323
;WIPE_END
G1 E-0.04000 F2100.000
G1 Z0.600 F10800.000
G1 X115.637 Y93.795
G1 Z0.200
G1 E0.80000 F2100.000
G1 F1200.000
G1 X113.378 Y93.794 E0.07080
G1 X112.748 Y93.849 E0.01983
G1 X112.116 Y93.948 E0.02007
G1 X111.333 Y94.137 E0.02524
G1 X109.799 Y94.714 E0.05140
G1 X108.858 Y95.190 E0.03308
G1 X107.468 Y96.135 E0.05268
G1 X106.293 Y97.215 E0.05005
G1 X105.569 Y98.091 E0.03563
G1 X104.210 Y100.389 E0.08372
G1 X103.745 Y101.492 E0.03752
G1 X103.312 Y103.295 E0.05813
G1 X103.196 Y104.596 E0.04095
G1 X103.217 Y105.856 E0.03952
G1 X103.363 Y106.987 E0.03576
G1 X103.662 Y108.243 E0.04047
G1 X104.155 Y109.511 E0.04267
G1 X105.594 Y111.948 E0.08873
G1 X106.632 Y113.126 E0.04925
G1 X107.707 Y114.043 E0.04430
G1 X108.750 Y114.748 E0.03945
G1 X110.602 Y115.621 E0.06421
G1 X112.605 Y116.146 E0.06492
G1 X115.740 Y116.208 E0.09832
G1 X117.061 Y116.015 E0.04186
G1 X118.362 Y115.628 E0.04257
G1 X119.382 Y115.198 E0.03470
G1 X120.342 Y114.680 E0.03419
G1 X120.684 Y114.443 E0.01307
;WIPE_START
G1 F8640.000
G1 X120.342 Y114.680 E-0.09627
G1 X119.382 Y115.198 E-0.25175
G1 X118.362 Y115.628 E-0.25557
G1 X117.713 Y115.821 E-0.15641
;WIPE_END
G1 E-0.04000 F2100.000
G1 Z0.600 F10800.000
G1 X121.738 Y113.660
G1 Z0.200
G1 E0.80000 F2100.000
M73 Q0 S54
G1 F1200.000
G1 X122.726 Y112.750 E0.04211
G1 X123.618 Y111.616 E0.04524
G1 X124.988 Y109.198 E0.08715
G1 X126.567 Y111.890 E0.09785
G1 X127.628 Y113.107 E0.05063
G1 X128.288 Y113.671 E0.02722
;WIPE_START
G1 F8640.000
G1 X127.628 Y113.107 E-0.20046
G1 X126.567 Y111.890 E-0.37286
G1 X126.158 Y111.193 E-0.18667
;WIPE_END
G1 E-0.04000 F2100.000
G1 Z0.600 F10800.000
G1 X129.314 Y114.443
G1 Z0.200
G1 E0.80000 F2100.000
G1 F1200.000
G1 X129.766 Y114.748 E0.01711
G1 X131.586 Y115.610 E0.06316
G1 X133.577 Y116.140 E0.06460
G1 X136.755 Y116.208 E0.09967
G1 X138.076 Y116.015 E0.04184
G1 X139.357 Y115.635 E0.04190
G1 X140.381 Y115.206 E0.03481
G1 X141.339 Y114.691 E0.03410
G1 X142.484 Y113.902 E0.04362
G1 X143.741 Y112.751 E0.05343
G1 X144.617 Y111.640 E0.04436
G1 X145.933 Y109.321 E0.08359
G1 X146.278 Y108.431 E0.02994
G1 X146.688 Y106.701 E0.05575
G1 X146.805 Y105.362 E0.04215
G1 X146.779 Y104.080 E0.04020
G1 X146.628 Y102.960 E0.03542
G1 X146.289 Y101.585 E0.04443
G1 X145.822 Y100.451 E0.03843
G1 X144.385 Y98.020 E0.08856
G1 X143.796 Y97.306 E0.02901
G1 X142.592 Y96.182 E0.05165
G1 X141.660 Y95.512 E0.03600
G1 X140.553 Y94.878 E0.03999
G1 X138.729 Y94.158 E0.06149
G1 X137.822 Y93.948 E0.02917
G1 X136.652 Y93.795 E0.03701
G1 X134.393 Y93.794 E0.07083
G1 X133.775 Y93.848 E0.01944
G1 X133.160 Y93.943 E0.01951
G1 X132.395 Y94.123 E0.02466
G1 X130.833 Y94.705 E0.05226
G1 X129.915 Y95.165 E0.03220
G1 X129.335 Y95.557 E0.02195
;WIPE_START
G1 F8640.000
G1 X129.915 Y95.165 E-0.16162
G1 X130.833 Y94.705 E-0.23713
G1 X132.299 Y94.159 E-0.36124
;WIPE_END
G1 E-0.04000 F2100.000
G1 Z0.600 F10800.000
G1 X128.294 Y96.311
G1 Z0.200
G1 E0.80000 F2100.000
G1 F1200.000
G1 X127.308 Y97.215 E0.04192
G1 X126.568 Y98.115 E0.03655
G1 X125.002 Y100.799 E0.09743
G1 X123.335 Y97.970 E0.10298
G1 X122.764 Y97.289 E0.02786
G1 X121.713 Y96.311 E0.04501
;WIPE_START
G1 F8640.000
G1 X122.764 Y97.289 E-0.33145
G1 X123.335 Y97.970 E-0.20517
G1 X123.826 Y98.803 E-0.22338
;WIPE_END
G1 E-0.04000 F2100.000
G1 Z0.600 F10800.000
G1 X120.708 Y95.557
G1 Z0.200
G1 E0.80000 F2100.000
G1 F1200.000
G1 X119.539 Y94.878 E0.04240
G1 X117.687 Y94.150 E0.06238
G1 X116.807 Y93.948 E0.02832
G1 X115.637 Y93.795 E0.03701
;WIPE_START
G1 F8640.000
G1 X116.807 Y93.948 E-0.27257
G1 X117.687 Y94.150 E-0.20853
G1 X118.811 Y94.592 E-0.27890
;WIPE_END
G1 E-0.04000 F2100.000
G1 Z0.600 F10800.000
G1 X113.403 Y94.171
G1 Z0.200
G1 E0.80000 F2100.000
G1 F1200.000
G1 X112.800 Y94.223 E0.01897
G1 X112.196 Y94.317 E0.01917
G1 X111.455 Y94.494 E0.02389
G1 X109.941 Y95.063 E0.05071
G1 X109.059 Y95.509 E0.03099
G1 X107.713 Y96.422 E0.05100
G1 X106.557 Y97.484 E0.04919
G1 X105.870 Y98.319 E0.03393
G1 X104.541 Y100.570 E0.08196
G1 X104.108 Y101.595 E0.03489
G1 X103.682 Y103.369 E0.05720
G1 X103.574 Y104.600 E0.03873
G1 X103.592 Y105.819 E0.03822
G1 X103.733 Y106.910 E0.03450
G1 X104.019 Y108.119 E0.03896
G1 X104.488 Y109.333 E0.04082
G1 X105.889 Y111.713 E0.08657
G1 X106.887 Y112.848 E0.04741
G1 X107.944 Y113.749 E0.04353
G1 X108.949 Y114.427 E0.03800
G1 X110.715 Y115.261 E0.06126
G1 X112.636 Y115.769 E0.06228
G1 X115.701 Y115.833 E0.09614
G1 X116.993 Y115.644 E0.04093
G1 X118.244 Y115.270 E0.04095
G1 X119.227 Y114.854 E0.03346
G1 X119.990 Y114.443 E0.02719
;WIPE_START
G1 F8640.000
G1 X119.227 Y114.854 E-0.20026
G1 X118.244 Y115.270 E-0.24639
G1 X116.993 Y115.644 E-0.30160
G1 X116.942 Y115.651 E-0.01175
;WIPE_END
G1 E-0.04000 F2100.000
G1 Z0.600 F10800.000
G1 X121.155 Y113.659
G1 Z0.200
G1 E0.80000 F2100.000
G1 F1200.000
G1 X121.265 Y113.582 E0.00421
G1 X122.460 Y112.483 E0.05089
G1 X123.297 Y111.418 E0.04248
G1 X124.584 Y109.146 E0.08186
G1 X125.008 Y108.060 E0.03657
G1 X125.503 Y109.333 E0.04284
G1 X126.883 Y111.684 E0.08546
G1 X127.902 Y112.848 E0.04853
G1 X128.869 Y113.672 E0.03982
;WIPE_START
G1 F8640.000
G1 X127.902 Y112.848 E-0.29328
G1 X126.883 Y111.684 E-0.35742
G1 X126.643 Y111.275 E-0.10930
;WIPE_END
G1 E-0.04000 F2100.000
G1 Z0.600 F10800.000
G1 X129.997 Y114.443
G1 Z0.200
G1 E0.80000 F2100.000
G1 F1200.000
G1 X131.731 Y115.262 E0.06015
G1 X133.652 Y115.769 E0.06228
G1 X136.716 Y115.833 E0.09610
G1 X138.007 Y115.644 E0.04092
G1 X139.239 Y115.277 E0.04030
G1 X140.226 Y114.862 E0.03356
G1 X141.151 Y114.364 E0.03294
G1 X142.239 Y113.615 E0.04143
G1 X143.475 Y112.483 E0.05254
G1 X144.296 Y111.441 E0.04160
G1 X145.587 Y109.171 E0.08186
G1 X145.914 Y108.331 E0.02828
G1 X146.318 Y106.627 E0.05490
G1 X146.428 Y105.360 E0.03990
G1 X146.402 Y104.099 E0.03954
G1 X146.256 Y103.021 E0.03409
G1 X145.926 Y101.689 E0.04303
G1 X145.479 Y100.608 E0.03668
G1 X144.068 Y98.225 E0.08684
G1 X143.529 Y97.574 E0.02650
G1 X142.344 Y96.465 E0.05089
G1 X141.463 Y95.834 E0.03397
G1 X140.402 Y95.224 E0.03840
G1 X138.603 Y94.514 E0.06061
G1 X137.764 Y94.321 E0.02701
G1 X136.639 Y94.172 E0.03557
G1 X134.401 Y94.171 E0.07018
G1 X133.815 Y94.223 E0.01846
G1 X133.225 Y94.314 E0.01870
G1 X132.493 Y94.487 E0.02359
G1 X130.975 Y95.055 E0.05082
G1 X130.006 Y95.557 E0.03423
;WIPE_START
G1 F8640.000
G1 X130.975 Y95.055 E-0.25206
G1 X132.493 Y94.487 E-0.37429
G1 X133.056 Y94.354 E-0.13365
;WIPE_END
G1 E-0.04000 F2100.000
G1 Z0.600 F10800.000
G1 X128.889 Y96.311
G1 Z0.200
G1 E0.80000 F2100.000
G1 F1200.000
G1 X128.750 Y96.405 E0.00524
G1 X127.573 Y97.483 E0.05006
G1 X126.869 Y98.343 E0.03484
G1 X125.545 Y100.593 E0.08186
M73 Q1 S54
G1 X124.999 Y101.899 E0.04437
G1 X124.464 Y100.608 E0.04382
G1 X123.036 Y98.200 E0.08778
G1 X122.498 Y97.557 E0.02629
G1 X121.310 Y96.450 E0.05092
M73 P1 R54
G1 X121.116 Y96.311 E0.00746
;WIPE_START
G1 F8640.000
G1 X121.310 Y96.450 E-0.05491
G1 X122.498 Y97.557 E-0.37498
G1 X123.036 Y98.200 E-0.19360
G1 X123.337 Y98.708 E-0.13651
;WIPE_END
G1 E-0.04000 F2100.000
G1 Z0.600 F10800.000
G1 X119.967 Y95.557
G1 Z0.200
G1 E0.80000 F2100.000
G1 F1200.000
G1 X119.387 Y95.224 E0.02097
G1 X117.589 Y94.514 E0.06063
G1 X116.749 Y94.321 E0.02703
G1 X115.624 Y94.172 E0.03557
G1 X113.403 Y94.171 E0.06964
;WIPE_START
G1 F8640.000
G1 X115.624 Y94.172 E-0.51285
G1 X116.685 Y94.312 E-0.24715
;WIPE_END
G1 E-0.04000 F2100.000
G1 Z0.600 F10800.000
G1 X116.690 Y94.693
G1 Z0.200
G1 E0.80000 F2100.000
G1 F1200.000
G1 X115.587 Y94.547 E0.03489
G1 X113.411 Y94.548 E0.06821
G1 X112.839 Y94.598 E0.01800
G1 X112.276 Y94.686 E0.01789
G1 X111.576 Y94.851 E0.02254
G1 X110.083 Y95.413 E0.05001
G1 X109.260 Y95.828 E0.02891
G1 X107.958 Y96.710 E0.04931
G1 X106.822 Y97.752 E0.04833
G1 X106.171 Y98.547 E0.03222
G1 X104.873 Y100.751 E0.08019
G1 X104.462 Y101.727 E0.03321
G1 X104.052 Y103.443 E0.05532
G1 X103.951 Y104.604 E0.03654
G1 X103.968 Y105.782 E0.03692
G1 X104.102 Y106.833 E0.03325
G1 X104.376 Y107.996 E0.03745
G1 X104.821 Y109.156 E0.03896
G1 X106.184 Y111.478 E0.08441
G1 X107.143 Y112.570 E0.04557
G1 X108.181 Y113.456 E0.04277
G1 X109.123 Y114.092 E0.03567
G1 X110.830 Y114.902 E0.05921
G1 X112.667 Y115.393 E0.05962
G1 X115.663 Y115.457 E0.09396
G1 X116.898 Y115.278 E0.03915
G1 X118.107 Y114.918 E0.03955
G1 X119.056 Y114.518 E0.03230
G1 X119.196 Y114.443 E0.00498
;WIPE_START
G1 F8640.000
G1 X119.056 Y114.518 E-0.03664
G1 X118.107 Y114.918 E-0.23787
G1 X116.898 Y115.278 E-0.29124
G1 X116.066 Y115.399 E-0.19425
;WIPE_END
G1 E-0.04000 F2100.000
G1 Z0.600 F10800.000
G1 X120.496 Y113.658
G1 Z0.200
G1 E0.80000 F2100.000
G1 F1200.000
G1 X121.020 Y113.296 E0.01997
G1 X122.193 Y112.216 E0.05000
G1 X122.976 Y111.219 E0.03972
G1 X124.249 Y108.973 E0.08097
G1 X124.536 Y108.232 E0.02492
G1 X124.844 Y106.938 E0.04168
G1 X125.141 Y106.939 E0.00934
G1 X125.398 Y108.020 E0.03486
G1 X125.836 Y109.156 E0.03816
G1 X127.179 Y111.449 E0.08332
G1 X128.158 Y112.570 E0.04667
G1 X129.195 Y113.455 E0.04276
G1 X129.520 Y113.674 E0.01226
;WIPE_START
G1 F8640.000
G1 X129.195 Y113.455 E-0.09025
G1 X128.158 Y112.570 E-0.31490
G1 X127.179 Y111.449 E-0.34372
G1 X127.154 Y111.407 E-0.01113
;WIPE_END
G1 E-0.04000 F2100.000
G1 Z0.600 F10800.000
G1 X130.877 Y114.443
G1 Z0.200
G1 E0.80000 F2100.000
G1 F1200.000
G1 X131.876 Y114.913 E0.03463
G1 X133.726 Y115.399 E0.05996
G1 X136.677 Y115.457 E0.09257
G1 X137.913 Y115.278 E0.03916
G1 X139.103 Y114.925 E0.03890
G1 X140.071 Y114.518 E0.03295
G1 X140.963 Y114.037 E0.03176
G1 X142.014 Y113.312 E0.04005
G1 X143.208 Y112.216 E0.05082
G1 X143.991 Y111.219 E0.03972
G1 X145.252 Y108.997 E0.08012
G1 X145.551 Y108.231 E0.02577
G1 X145.948 Y106.554 E0.05405
G1 X146.051 Y105.338 E0.03827
G1 X146.025 Y104.118 E0.03826
G1 X145.884 Y103.082 E0.03277
G1 X145.572 Y101.819 E0.04079
G1 X145.148 Y100.788 E0.03496
G1 X143.751 Y98.430 E0.08593
G1 X143.247 Y97.824 E0.02471
G1 X142.114 Y96.764 E0.04865
G1 X141.267 Y96.156 E0.03269
G1 X140.226 Y95.557 E0.03766
G1 X138.505 Y94.879 E0.05801
G1 X137.705 Y94.693 E0.02574
G1 X136.627 Y94.549 E0.03411
G1 X134.410 Y94.549 E0.06951
G1 X133.854 Y94.598 E0.01748
G1 X133.290 Y94.686 E0.01790
G1 X132.614 Y94.845 E0.02179
G1 X131.116 Y95.405 E0.05013
G1 X130.812 Y95.557 E0.01067
;WIPE_START
G1 F8640.000
G1 X131.116 Y95.405 E-0.07861
G1 X132.614 Y94.845 E-0.36916
G1 X133.290 Y94.686 E-0.16045
G1 X133.854 Y94.598 E-0.13182
G1 X133.941 Y94.590 E-0.01996
;WIPE_END
G1 E-0.04000 F2100.000
G1 Z0.600 F10800.000
G1 X129.562 Y96.311
G1 Z0.200
G1 E0.80000 F2100.000
G1 F1200.000
G1 X128.973 Y96.710 E0.02232
G1 X127.855 Y97.733 E0.04751
G1 X127.186 Y98.547 E0.03304
G1 X125.876 Y100.773 E0.08098
G1 X125.468 Y101.756 E0.03337
G1 X125.159 Y103.051 E0.04176
G1 X124.862 Y103.053 E0.00930
G1 X124.557 Y101.819 E0.03983
G1 X124.133 Y100.788 E0.03496
G1 X122.719 Y98.406 E0.08686
G1 X122.233 Y97.824 E0.02377
G1 X121.080 Y96.749 E0.04942
G1 X120.469 Y96.311 E0.02357
;WIPE_START
G1 F8640.000
G1 X121.080 Y96.749 E-0.17358
G1 X122.233 Y97.824 E-0.36391
G1 X122.719 Y98.406 E-0.17506
G1 X122.824 Y98.582 E-0.04745
;WIPE_END
G1 E-0.04000 F2100.000
G1 Z0.600 F10800.000
G1 X119.205 Y95.557
G1 Z0.200
G1 E0.80000 F2100.000
G1 F1200.000
G1 X117.490 Y94.879 E0.05785
G1 X116.690 Y94.693 E0.02573
;WIPE_START
G1 F8640.000
G1 X117.490 Y94.879 E-0.18949
G1 X119.205 Y95.557 E-0.42603
;WIPE_END
G1 E-0.18447 F2100.000
G1 Z0.600 F10800.000
G1 X115.574 Y94.925
G1 Z0.200
G1 E0.80000 F2100.000
G1 F1200.000
G1 X113.420 Y94.925 E0.06755
G1 X112.879 Y94.973 E0.01702
G1 X112.341 Y95.057 E0.01709
G1 X111.697 Y95.209 E0.02073
G1 X110.243 Y95.754 E0.04868
G1 X109.461 Y96.148 E0.02745
G1 X108.181 Y97.014 E0.04849
G1 X107.105 Y98.002 E0.04579
G1 X106.488 Y98.751 E0.03043
G1 X105.204 Y100.931 E0.07932
G1 X104.816 Y101.858 E0.03153
G1 X104.427 Y103.490 E0.05259
G1 X104.327 Y104.627 E0.03580
G1 X104.345 Y105.765 E0.03568
G1 X104.471 Y106.756 E0.03134
G1 X104.740 Y107.897 E0.03673
G1 X105.167 Y109.006 E0.03727
G1 X106.480 Y111.243 E0.08132
G1 X107.398 Y112.292 E0.04372
G1 X108.417 Y113.162 E0.04200
G1 X109.322 Y113.772 E0.03422
G1 X110.975 Y114.553 E0.05733
G1 X112.741 Y115.023 E0.05730
G1 X115.624 Y115.082 E0.09041
G1 X116.804 Y114.913 E0.03738
G1 X117.970 Y114.567 E0.03813
G1 X118.264 Y114.443 E0.01001
;WIPE_START
G1 F8640.000
G1 X117.970 Y114.567 E-0.07373
G1 X116.804 Y114.913 E-0.28079
