; generated by PrusaSlicer 2.3.0+win64 on 2021-04-20 at 16:23:15 UTC

; 

; external perimeters extrusion width = 0.45mm
; perimeters extrusion width = 0.45mm
; infill extrusion width = 0.45mm
; solid infill extrusion width = 0.45mm
; top infill extrusion width = 0.40mm
; first layer extrusion width = 0.42mm

M73 P0 R13
M73 Q0 S13
M201 X1000 Y1000 Z200 E5000 ; sets maximum accelerations, mm/sec^2
M203 X200 Y200 Z12 E120 ; sets maximum feedrates, mm/sec
M204 P1250 R1250 T1250 ; sets acceleration (P, T) and retract acceleration (R), mm/sec^2
M205 X8.00 Y8.00 Z0.40 E4.50 ; sets the jerk limits, mm/sec
M205 S0 T0 ; sets the minimum extruding and travel feed rate, mm/sec
M107
;TYPE:Custom
M862.3 P "MK3S" ; printer model check
M862.1 P0.4 ; nozzle diameter check
M115 U3.9.2 ; tell printer latest fw version
G90 ; use absolute coordinates
M83 ; extruder relative mode
M104 S215 ; set extruder temp
M140 S60 ; set bed temp
M190 S60 ; wait for bed temp
M109 S215 ; wait for extruder temp
G28 W ; home all without mesh bed level
G80 ; mesh bed leveling
G1 Y-3.0 F1000.0 ; go outside print area
G92 E0.0
G1 X60.0 E9.0 F1000.0 ; intro line
G1 X100.0 E12.5 F1000.0 ; intro line
G92 E0.0
M221 S95

; Don't change E values below. Excessive value can damage the printer.
M907 E430 ; set extruder motor current
G21 ; set units to millimeters
G90 ; use absolute coordinates
M83 ; use relative distances for extrusion
M900 K0.05 ; Filament gcode LA 1.5
M900 K30 ; Filament gcode LA 1.0
;LAYER_CHANGE
;Z:0.2
;HEIGHT:0.2
;BEFORE_LAYER_CHANGE
G92 E0.0
;0.2


G1 E-0.80000 F2100.000
G1 Z0.400 F10800.000
;AFTER_LAYER_CHANGE
;0.2
G1 X118.012 Y97.870
G1 Z0.200
G1 E0.80000 F2100.000
M204 S1000
;TYPE:Skirt
;WIDTH:0.42
G1 F1200.000
G1 X118.616 Y97.233 E0.02754
G1 X119.890 Y96.340 E0.04878
G1 X121.320 Y95.643 E0.04987
G1 X122.228 Y95.395 E0.02953
G1 X127.385 Y95.369 E0.16169
M73 Q1 S13
G1 X128.294 Y95.505 E0.02882
G1 X129.506 Y96.015 E0.04123
G1 X131.258 Y97.130 E0.06509
G1 X131.736 Y97.562 E0.02022
G1 X132.091 Y98.022 E0.01820
G1 X134.528 Y102.237 E0.15265
M73 P1 R13
G1 X134.793 Y102.863 E0.02134
G1 X135.015 Y104.089 E0.03906
G1 X135.052 Y105.131 E0.03269
G1 X134.946 Y106.482 E0.04248
G1 X134.818 Y107.087 E0.01939
G1 X134.546 Y107.730 E0.02189
G1 X132.006 Y112.100 E0.15850
G1 X131.253 Y112.868 E0.03373
G1 X130.136 Y113.640 E0.04257
G1 X129.017 Y114.212 E0.03939
G1 X128.211 Y114.504 E0.02690
G1 X127.645 Y114.615 E0.01807
G1 X122.559 Y114.631 E0.15946
G1 X121.732 Y114.503 E0.02624
G1 X120.472 Y113.964 E0.04297
G1 X118.838 Y112.939 E0.06048
G1 X118.262 Y112.435 E0.02400
G1 X117.867 Y111.908 E0.02066
G1 X115.484 Y107.782 E0.14939
G1 X115.246 Y107.252 E0.01820
G1 X115.085 Y106.616 E0.02060
G1 X114.952 Y105.295 E0.04162
G1 X115.021 Y103.852 E0.04530
G1 X115.182 Y102.914 E0.02982
G1 X115.455 Y102.267 E0.02202
G1 X117.981 Y97.922 E0.15759
G1 X118.306 Y98.111 F10800.000
G1 F1200.000
G1 X118.864 Y97.518 E0.02553
G1 X120.098 Y96.655 E0.04721
G1 X121.461 Y95.993 E0.04750
G1 X122.288 Y95.767 E0.02689
G1 X127.385 Y95.746 E0.15981
G1 X128.196 Y95.869 E0.02574
G1 X129.328 Y96.348 E0.03851
G1 X131.016 Y97.419 E0.06269
G1 X131.455 Y97.815 E0.01854
G1 X131.778 Y98.233 E0.01656
G1 X134.196 Y102.416 E0.15148
G1 X134.429 Y102.961 E0.01860
G1 X134.641 Y104.132 E0.03731
G1 X134.675 Y105.137 E0.03151
G1 X134.571 Y106.439 E0.04096
G1 X134.451 Y106.996 E0.01787
G1 X134.215 Y107.549 E0.01886
G1 X131.701 Y111.879 E0.15698
G1 X131.006 Y112.583 E0.03103
G1 X129.946 Y113.314 E0.04037
G1 X128.888 Y113.858 E0.03730
G1 X127.606 Y114.240 E0.04195
G1 X122.571 Y114.254 E0.15784
G1 X121.824 Y114.137 E0.02371
G1 X120.664 Y113.640 E0.03958
G1 X119.056 Y112.631 E0.05952
G1 X118.525 Y112.164 E0.02216
G1 X118.186 Y111.708 E0.01784
G1 X115.809 Y107.592 E0.14903
G1 X115.450 Y106.519 E0.03546
G1 X115.328 Y105.260 E0.03967
G1 X115.422 Y103.620 E0.05149
G1 X115.548 Y103.005 E0.01969
G1 X115.786 Y102.448 E0.01899
G1 X118.276 Y98.163 E0.15540
;WIPE_START
G1 F8640.000
G1 X118.864 Y97.518 E-0.20153
G1 X120.098 Y96.655 E-0.34770
G1 X120.919 Y96.256 E-0.21077
;WIPE_END
G1 E-0.04000 F2100.000
G1 Z0.600 F10800.000
G1 X118.795 Y111.900
G1 Z0.200
G1 E0.80000 F2100.000
G1 F1200.000
G1 X116.137 Y107.405 E0.16376
G1 X115.815 Y106.425 E0.03233
G1 X115.703 Y105.226 E0.03775
G1 X115.798 Y103.653 E0.04942
G1 X115.914 Y103.098 E0.01779
G1 X116.116 Y102.630 E0.01597
G1 X118.625 Y98.309 E0.15665
G1 X119.110 Y97.803 E0.02199
G1 X120.301 Y96.972 E0.04554
G1 X121.598 Y96.344 E0.04518
G1 X122.348 Y96.140 E0.02438
G1 X127.384 Y96.123 E0.15790
G1 X128.097 Y96.233 E0.02260
G1 X129.146 Y96.679 E0.03575
G1 X130.776 Y97.711 E0.06049
G1 X131.464 Y98.443 E0.03150
G1 X133.866 Y102.599 E0.15052
G1 X134.065 Y103.060 E0.01574
G1 X134.267 Y104.180 E0.03567
M73 Q2 S13
G1 X134.298 Y105.138 E0.03007
G1 X134.085 Y106.903 E0.05575
G1 X133.885 Y107.368 E0.01585
G1 X131.395 Y111.658 E0.15555
M73 P2 R13
G1 X130.760 Y112.297 E0.02825
G1 X129.759 Y112.986 E0.03809
G1 X128.760 Y113.503 E0.03528
G1 X127.563 Y113.865 E0.03920
G1 X122.579 Y113.877 E0.15629
G1 X121.915 Y113.770 E0.02107
G1 X120.853 Y113.314 E0.03624
G1 X119.692 Y112.612 E0.04253
G1 X118.842 Y111.938 E0.03403
;WIPE_START
G1 F8640.000
G1 X117.155 Y109.111 E-0.76000
;WIPE_END
G1 E-0.04000 F2100.000
G1 Z0.600 F10800.000
G1 X117.749 Y113.689
G1 Z0.200
G1 E0.80000 F2100.000
G1 F1200.000
G1 X116.734 Y112.722 E0.04396
G1 X116.199 Y112.104 E0.02565
G1 X114.658 Y109.519 E0.09436
G1 X114.044 Y107.814 E0.05680
G1 X113.793 Y106.542 E0.04065
G1 X113.688 Y105.233 E0.04118
G1 X113.806 Y103.359 E0.05888
G1 X114.181 Y101.701 E0.05331
G1 X114.430 Y100.985 E0.02376
G1 X114.818 Y100.206 E0.02730
G1 X115.880 Y98.369 E0.06654
G1 X116.502 Y97.533 E0.03266
G1 X117.238 Y96.773 E0.03317
G1 X118.368 Y95.836 E0.04603
G1 X119.471 Y95.131 E0.04106
G1 X120.645 Y94.563 E0.04088
G1 X121.441 Y94.267 E0.02662
G1 X122.283 Y94.029 E0.02744
G1 X123.756 Y93.786 E0.04679
G1 X126.304 Y93.790 E0.07991
G1 X128.167 Y94.145 E0.05945
G1 X130.191 Y94.951 E0.06830
G1 X132.259 Y96.318 E0.07774
G1 X133.066 Y97.089 E0.03499
G1 X133.764 Y97.850 E0.03236
G1 X135.317 Y100.438 E0.09465
G1 X135.898 Y101.933 E0.05028
G1 X136.030 Y102.680 E0.02379
G1 X136.040 Y102.872 E0.00603
G1 X136.291 Y104.196 E0.04225
G1 X136.302 Y105.428 E0.03862
G1 X136.195 Y106.646 E0.03834
G1 X135.914 Y107.920 E0.04092
G1 X135.568 Y109.028 E0.03639
G1 X134.100 Y111.669 E0.09472
G1 X133.118 Y112.872 E0.04870
G1 X131.953 Y113.923 E0.04921
G1 X130.848 Y114.678 E0.04197
G1 X129.671 Y115.300 E0.04171
G1 X127.722 Y115.976 E0.06471
G1 X126.199 Y116.215 E0.04833
G1 X123.062 Y116.142 E0.09839
G1 X121.598 Y115.787 E0.04724
G1 X119.813 Y115.048 E0.06057
G1 X117.800 Y113.722 E0.07558
G1 X118.005 Y113.409 F10800.000
G1 F1200.000
G1 X117.001 Y112.455 E0.04342
G1 X116.495 Y111.870 E0.02427
G1 X114.991 Y109.342 E0.09223
G1 X114.411 Y107.727 E0.05379
G1 X114.168 Y106.501 E0.03919
G1 X114.065 Y105.217 E0.04041
G1 X114.181 Y103.398 E0.05712
G1 X114.546 Y101.795 E0.05155
G1 X114.782 Y101.122 E0.02238
G1 X115.148 Y100.390 E0.02565
G1 X116.201 Y98.567 E0.06601
G1 X116.797 Y97.768 E0.03124
G1 X117.501 Y97.043 E0.03170
G1 X118.600 Y96.134 E0.04470
G1 X119.665 Y95.455 E0.03962
G1 X120.801 Y94.907 E0.03955
G1 X121.565 Y94.623 E0.02555
G1 X122.375 Y94.395 E0.02641
G1 X123.771 Y94.163 E0.04435
G1 X126.286 Y94.167 E0.07887
G1 X128.045 Y94.502 E0.05613
G1 X130.000 Y95.277 E0.06593
G1 X132.011 Y96.602 E0.07554
G1 X132.801 Y97.357 E0.03426
G1 X133.473 Y98.090 E0.03117
G1 X134.985 Y100.618 E0.09235
G1 X135.540 Y102.051 E0.04817
G1 X135.656 Y102.731 E0.02163
G1 X135.664 Y102.916 E0.00581
G1 X135.914 Y104.217 E0.04154
G1 X135.926 Y105.404 E0.03722
G1 X135.821 Y106.601 E0.03766
G1 X135.547 Y107.831 E0.03951
G1 X135.214 Y108.897 E0.03504
G1 X133.779 Y111.470 E0.09237
G1 X132.836 Y112.622 E0.04668
G1 X131.730 Y113.619 E0.04670
G1 X130.662 Y114.350 E0.04057
G1 X129.508 Y114.959 E0.04092
G1 X127.646 Y115.607 E0.06181
M73 Q3 S13
G1 X126.190 Y115.838 E0.04622
G1 X123.130 Y115.771 E0.09596
G1 X121.727 Y115.432 E0.04524
G1 X120.004 Y114.723 E0.05842
M73 P3 R13
G1 X118.055 Y113.442 E0.07313
G1 X118.260 Y113.129 F10800.000
G1 F1200.000
G1 X117.268 Y112.189 E0.04287
G1 X116.791 Y111.636 E0.02288
G1 X115.325 Y109.165 E0.09011
G1 X114.778 Y107.640 E0.05079
G1 X114.543 Y106.460 E0.03773
G1 X114.442 Y105.200 E0.03963
G1 X114.556 Y103.438 E0.05536
G1 X114.911 Y101.890 E0.04980
G1 X115.134 Y101.258 E0.02100
G1 X115.477 Y100.574 E0.02401
G1 X116.522 Y98.765 E0.06549
G1 X117.091 Y98.004 E0.02980
G1 X117.764 Y97.313 E0.03024
G1 X118.831 Y96.433 E0.04337
G1 X119.858 Y95.779 E0.03817
G1 X120.956 Y95.250 E0.03822
G1 X121.688 Y94.980 E0.02448
G1 X122.468 Y94.761 E0.02538
G1 X123.786 Y94.540 E0.04191
G1 X126.268 Y94.544 E0.07782
G1 X127.923 Y94.860 E0.05283
G1 X129.809 Y95.603 E0.06356
G1 X131.763 Y96.887 E0.07332
G1 X132.536 Y97.625 E0.03352
G1 X133.182 Y98.330 E0.02997
G1 X134.653 Y100.797 E0.09006
G1 X135.171 Y102.133 E0.04492
G1 X135.282 Y102.781 E0.02061
G1 X135.288 Y102.958 E0.00556
G1 X135.537 Y104.238 E0.04088
G1 X135.548 Y105.398 E0.03638
G1 X135.446 Y106.555 E0.03640
G1 X135.181 Y107.740 E0.03809
G1 X134.860 Y108.766 E0.03369
G1 X133.458 Y111.272 E0.09002
G1 X132.573 Y112.352 E0.04380
G1 X131.506 Y113.315 E0.04507
G1 X130.458 Y114.033 E0.03982
G1 X129.345 Y114.619 E0.03945
G1 X127.538 Y115.245 E0.05995
G1 X126.181 Y115.461 E0.04310
G1 X123.198 Y115.399 E0.09354
G1 X121.857 Y115.078 E0.04325
G1 X120.196 Y114.398 E0.05628
G1 X118.310 Y113.162 E0.07067
;WIPE_START
G1 F8640.000
G1 X117.268 Y112.189 E-0.32932
G1 X116.791 Y111.636 E-0.16849
G1 X116.212 Y110.660 E-0.26219
;WIPE_END
G1 E-0.04000 F2100.000
G1 Z0.600 F10800.000
G1 X127.898 Y95.255
G1 Z0.200
G1 E0.80000 F2100.000
G1 F1200.000
G1 X127.802 Y95.217 E0.00324
G1 X126.250 Y94.921 E0.04954
G1 X123.801 Y94.918 E0.07677
G1 X122.560 Y95.126 E0.03948
G1 X122.276 Y95.206 E0.00924
;WIPE_START
G1 F8640.000
G1 X122.560 Y95.126 E-0.06807
G1 X123.801 Y94.918 E-0.29072
;WIPE_END
G1 E-0.44122 F2100.000
G1 Z0.600 F10800.000
G1 X117.922 Y97.691
G1 Z0.200
G1 E0.80000 F2100.000
G1 F1200.000
G1 X117.385 Y98.241 E0.02410
G1 X116.842 Y98.964 E0.02835
G1 X115.806 Y100.758 E0.06496
G1 X115.485 Y101.396 E0.02240
G1 X115.276 Y101.986 E0.01962
G1 X115.163 Y102.474 E0.01571
;WIPE_START
G1 F8640.000
G1 X115.276 Y101.986 E-0.11567
G1 X115.485 Y101.396 E-0.14449
G1 X115.806 Y100.758 E-0.16493
G1 X116.532 Y99.502 E-0.33491
;WIPE_END
G1 E-0.04000 F2100.000
G1 Z0.600 F10800.000
G1 X115.122 Y107.436
G1 Z0.200
G1 E0.80000 F2100.000
G1 F1200.000
G1 X115.145 Y107.553 E0.00373
G1 X115.658 Y108.988 E0.04782
G1 X117.088 Y111.403 E0.08798
G1 X117.535 Y111.922 E0.02148
G1 X117.909 Y112.279 E0.01620
;WIPE_START
G1 F8640.000
G1 X117.535 Y111.922 E-0.11928
G1 X117.088 Y111.403 E-0.15818
G1 X116.023 Y109.605 E-0.48254
;WIPE_END
G1 E-0.04000 F2100.000
G1 Z0.600 F10800.000
G1 X122.101 Y114.750
G1 Z0.200
G1 E0.80000 F2100.000
G1 F1200.000
G1 X123.265 Y115.028 E0.03753
G1 X126.171 Y115.083 E0.09111
G1 X127.462 Y114.875 E0.04100
G1 X127.676 Y114.801 E0.00712
;WIPE_START
G1 F8640.000
G1 X127.462 Y114.875 E-0.05243
G1 X126.171 Y115.083 E-0.30194
G1 X124.414 Y115.050 E-0.40563
;WIPE_END
G1 E-0.04000 F2100.000
G1 Z0.600 F10800.000
G1 X132.104 Y112.269
G1 Z0.200
G1 E0.80000 F2100.000
G1 F1200.000
G1 X132.291 Y112.101 E0.00786
G1 X133.138 Y111.072 E0.04179
G1 X134.506 Y108.634 E0.08766
G1 X134.849 Y107.498 E0.03722
;WIPE_START
G1 F8640.000
G1 X134.506 Y108.634 E-0.27409
G1 X133.476 Y110.469 E-0.48591
;WIPE_END
G1 E-0.04000 F2100.000
G1 Z0.600 F10800.000
G1 X134.856 Y102.529
M73 Q4 S13
G1 Z0.200
G1 E0.80000 F2100.000
G1 F1200.000
G1 X134.803 Y102.215 E0.00998
G1 X134.321 Y100.977 E0.04167
G1 X132.890 Y98.571 E0.08777
M73 P4 R13
G1 X132.113 Y97.743 E0.03561
;WIPE_START
G1 F8640.000
G1 X132.890 Y98.571 E-0.26227
G1 X133.992 Y100.423 E-0.49773
;WIPE_END
G1 E-0.04000 F2100.000
G1 Z0.600 F10800.000
G1 X131.182 Y98.417
G1 Z0.200
G1 E0.80000 F2100.000
G1 F1200.000
G1 X130.772 Y98.026 E0.01776
G1 X129.052 Y96.910 E0.06430
G1 X127.581 Y96.344 E0.04942
;WIPE_START
G1 F8640.000
G1 X129.052 Y96.910 E-0.36397
G1 X130.491 Y97.843 E-0.39603
;WIPE_END
G1 E-0.04000 F2100.000
G1 Z0.600 F10800.000
G1 X122.464 Y96.328
G1 Z0.200
G1 E0.80000 F2100.000
G1 F1200.000
G1 X122.152 Y96.415 E0.01015
G1 X121.576 Y96.626 E0.01923
G1 X120.570 Y97.109 E0.03499
G1 X119.752 Y97.627 E0.03035
G1 X118.761 Y98.450 E0.04040
;WIPE_START
G1 F8640.000
G1 X119.752 Y97.627 E-0.29750
G1 X120.570 Y97.109 E-0.22349
G1 X121.503 Y96.661 E-0.23901
;WIPE_END
G1 E-0.04000 F2100.000
G1 Z0.600 F10800.000
G1 X116.243 Y102.812
G1 Z0.200
G1 E0.80000 F2100.000
G1 F1200.000
G1 X116.057 Y103.602 E0.02547
G1 X115.950 Y105.135 E0.04818
G1 X116.043 Y106.294 E0.03644
G1 X116.161 Y106.875 E0.01859
;WIPE_START
G1 F8640.000
G1 X116.043 Y106.294 E-0.13688
G1 X115.950 Y105.135 E-0.26834
G1 X116.057 Y103.603 E-0.35478
;WIPE_END
G1 E-0.04000 F2100.000
G1 Z0.600 F10800.000
G1 X118.836 Y111.600
G1 Z0.200
G1 E0.80000 F2100.000
G1 F1200.000
G1 X119.234 Y111.979 E0.01724
G1 X120.956 Y113.093 E0.06428
G1 X122.344 Y113.648 E0.04688
;WIPE_START
G1 F8640.000
G1 X120.956 Y113.093 E-0.34521
G1 X119.448 Y112.117 E-0.41479
;WIPE_END
G1 E-0.04000 F2100.000
G1 Z0.600 F10800.000
G1 X127.482 Y113.677
G1 Z0.200
G1 E0.80000 F2100.000
G1 F1200.000
G1 X128.692 Y113.258 E0.04016
G1 X129.715 Y112.719 E0.03625
G1 X130.610 Y112.101 E0.03408
G1 X131.263 Y111.511 E0.02760
;WIPE_START
G1 F8640.000
G1 X130.610 Y112.101 E-0.20328
G1 X129.715 Y112.719 E-0.25098
G1 X128.692 Y113.258 E-0.26694
G1 X128.534 Y113.313 E-0.03880
;WIPE_END
G1 E-0.04000 F2100.000
G1 Z0.600 F10800.000
G1 X133.764 Y107.172
G1 Z0.200
G1 E0.80000 F2100.000
G1 F1200.000
G1 X133.949 Y106.369 E0.02584
G1 X134.040 Y105.357 E0.03185
G1 X134.030 Y104.326 E0.03235
G1 X133.779 Y103.103 E0.03913
G1 X133.764 Y102.838 E0.00832
G1 X133.356 Y102.645 F10800.000
G1 F1200.000
G1 X133.406 Y102.991 E0.01095
G1 X133.399 Y103.129 E0.00435
G1 X133.653 Y104.348 E0.03905
G1 X133.663 Y105.352 E0.03146
G1 X133.574 Y106.322 E0.03054
G1 X133.352 Y107.282 E0.03092
G1 X133.092 Y108.104 E0.02702
G1 X131.859 Y110.270 E0.07813
G1 X131.184 Y111.076 E0.03296
G1 X130.385 Y111.798 E0.03379
G1 X129.529 Y112.391 E0.03263
G1 X128.529 Y112.918 E0.03544
G1 X127.121 Y113.406 E0.04675
G1 X126.125 Y113.574 E0.03165
G1 X123.529 Y113.540 E0.08142
G1 X122.492 Y113.301 E0.03335
G1 X121.144 Y112.766 E0.04547
G1 X119.482 Y111.694 E0.06203
G1 X118.604 Y110.857 E0.03801
G1 X118.278 Y110.474 E0.01576
G1 X116.995 Y108.286 E0.07952
G1 X116.612 Y107.200 E0.03611
G1 X116.418 Y106.252 E0.03036
G1 X116.327 Y105.119 E0.03562
G1 X116.432 Y103.645 E0.04636
G1 X116.734 Y102.374 E0.04094
G1 X116.887 Y101.953 E0.01407
G1 X117.122 Y101.496 E0.01611
G1 X118.125 Y99.758 E0.06290
G1 X118.527 Y99.226 E0.02092
G1 X119.073 Y98.670 E0.02443
G1 X119.982 Y97.926 E0.03683
G1 X120.743 Y97.444 E0.02824
G1 X121.731 Y96.970 E0.03435
G1 X122.260 Y96.776 E0.01768
G1 X122.929 Y96.589 E0.02178
G1 X123.864 Y96.426 E0.02977
G1 X126.177 Y96.430 E0.07250
G1 X127.323 Y96.649 E0.03660
G1 X128.864 Y97.237 E0.05172
G1 X130.525 Y98.311 E0.06201
G1 X131.211 Y98.966 E0.02974
G1 X131.723 Y99.529 E0.02387
G1 X132.990 Y101.688 E0.07850
G1 X133.335 Y102.589 E0.03023
G1 X132.995 Y102.757 F10800.000
G1 F1200.000
G1 X133.030 Y103.015 E0.00815
G1 X133.017 Y103.148 E0.00420
G1 X133.276 Y104.371 E0.03919
G1 X133.286 Y105.346 E0.03056
G1 X133.200 Y106.274 E0.02922
G1 X132.986 Y107.189 E0.02947
G1 X132.738 Y107.970 E0.02570
G1 X131.540 Y110.067 E0.07572
G1 X130.904 Y110.823 E0.03096
G1 X130.160 Y111.496 E0.03147
G1 X129.343 Y112.063 E0.03117
G1 X128.366 Y112.578 E0.03463
M73 Q5 S13
G1 X127.041 Y113.037 E0.04397
G1 X126.112 Y113.197 E0.02956
G1 X123.593 Y113.168 E0.07899
G1 X122.617 Y112.945 E0.03138
G1 X121.332 Y112.438 E0.04330
G1 X119.729 Y111.408 E0.05976
M73 P5 R13
G1 X118.871 Y110.591 E0.03712
G1 X118.577 Y110.243 E0.01430
G1 X117.330 Y108.112 E0.07743
G1 X116.979 Y107.112 E0.03324
G1 X116.793 Y106.210 E0.02887
G1 X116.704 Y105.104 E0.03480
G1 X116.807 Y103.688 E0.04452
G1 X117.098 Y102.474 E0.03915
G1 X117.237 Y102.094 E0.01266
