; generated by PrusaSlicer 2.3.0+win64 on 2021-04-19 at 20:31:31 UTC

; 

; external perimeters extrusion width = 0.45mm
; perimeters extrusion width = 0.45mm
; infill extrusion width = 0.45mm
; solid infill extrusion width = 0.45mm
; top infill extrusion width = 0.40mm
; first layer extrusion width = 0.42mm

M73 P0 R12
M73 Q0 S12
M201 X1000 Y1000 Z200 E5000 ; sets maximum accelerations, mm/sec^2
M203 X200 Y200 Z12 E120 ; sets maximum feedrates, mm/sec
M204 P1250 R1250 T1250 ; sets acceleration (P, T) and retract acceleration (R), mm/sec^2
M205 X8.00 Y8.00 Z0.40 E4.50 ; sets the jerk limits, mm/sec
M205 S0 T0 ; sets the minimum extruding and travel feed rate, mm/sec
M107
;TYPE:Custom
M862.3 P "MK3S" ; printer model check
M862.1 P0.4 ; nozzle diameter check
M115 U3.9.2 ; tell printer latest fw version
G90 ; use absolute coordinates
M83 ; extruder relative mode
M104 S215 ; set extruder temp
M140 S60 ; set bed temp
M190 S60 ; wait for bed temp
M109 S215 ; wait for extruder temp
G28 W ; home all without mesh bed level
G80 ; mesh bed leveling
G1 Y-3.0 F1000.0 ; go outside print area
G92 E0.0
G1 X60.0 E9.0 F1000.0 ; intro line
G1 X100.0 E12.5 F1000.0 ; intro line
G92 E0.0
M221 S95

; Don't change E values below. Excessive value can damage the printer.
M907 E430 ; set extruder motor current
G21 ; set units to millimeters
G90 ; use absolute coordinates
M83 ; use relative distances for extrusion
M900 K0.05 ; Filament gcode LA 1.5
M900 K30 ; Filament gcode LA 1.0
;LAYER_CHANGE
;Z:0.2
;HEIGHT:0.2
;BEFORE_LAYER_CHANGE
G92 E0.0
;0.2


G1 E-0.80000 F2100.000
G1 Z0.400 F10800.000
;AFTER_LAYER_CHANGE
;0.2
G1 X116.132 Y99.201
M73 Q1 S12
G1 Z0.200
G1 E0.80000 F2100.000
M204 S1000
;TYPE:Skirt
;WIDTH:0.42
G1 F1200.000
G1 X116.681 Y98.702 E0.02325
G1 X123.554 Y94.723 E0.24902
M73 P1 R12
G1 X124.256 Y94.458 E0.02352
G1 X125.005 Y94.369 E0.02366
G1 X125.796 Y94.472 E0.02502
G1 X126.540 Y94.773 E0.02515
G1 X133.162 Y98.596 E0.23976
G1 X133.681 Y99.003 E0.02066
G1 X134.103 Y99.509 E0.02066
G1 X134.469 Y100.256 E0.02610
G1 X134.626 Y101.070 E0.02597
G1 X134.631 Y108.750 E0.24081
G1 X134.543 Y109.486 E0.02325
G1 X134.285 Y110.181 E0.02325
G1 X133.868 Y110.799 E0.02338
G1 X133.319 Y111.298 E0.02325
G1 X126.446 Y115.277 E0.24902
G1 X125.744 Y115.542 E0.02352
G1 X124.999 Y115.631 E0.02352
G1 X124.204 Y115.528 E0.02515
G1 X123.460 Y115.227 E0.02515
G1 X116.838 Y111.404 E0.23976
G1 X116.319 Y110.997 E0.02066
G1 X115.897 Y110.491 E0.02066
G1 X115.531 Y109.744 E0.02610
G1 X115.374 Y108.930 E0.02597
G1 X115.369 Y101.250 E0.24081
G1 X115.457 Y100.514 E0.02325
G1 X115.715 Y99.819 E0.02325
G1 X116.099 Y99.251 E0.02150
G1 X116.409 Y99.463 F10800.000
G1 F1200.000
G1 X116.917 Y98.996 E0.02163
G1 X123.721 Y95.061 E0.24642
G1 X124.344 Y94.825 E0.02090
G1 X125.006 Y94.746 E0.02090
G1 X125.707 Y94.838 E0.02218
G1 X126.358 Y95.104 E0.02205
G1 X132.954 Y98.911 E0.23876
G1 X133.421 Y99.276 E0.01860
G1 X133.799 Y99.734 E0.01860
G1 X134.117 Y100.393 E0.02294
G1 X134.251 Y101.112 E0.02294
G1 X134.254 Y108.750 E0.23948
G1 X134.175 Y109.404 E0.02065
G1 X133.944 Y110.020 E0.02065
G1 X133.572 Y110.564 E0.02065
G1 X133.083 Y111.004 E0.02065
G1 X126.283 Y114.937 E0.24629
G1 X125.660 Y115.174 E0.02090
G1 X124.998 Y115.254 E0.02090
G1 X124.297 Y115.163 E0.02218
G1 X123.642 Y114.896 E0.02218
G1 X117.046 Y111.089 E0.23876
G1 X116.582 Y110.726 E0.01848
G1 X116.203 Y110.270 E0.01860
G1 X115.883 Y109.607 E0.02307
G1 X115.749 Y108.888 E0.02294
G1 X115.746 Y101.250 E0.23948
G1 X115.825 Y100.596 E0.02065
G1 X116.056 Y99.980 E0.02065
G1 X116.376 Y99.512 E0.01775
G1 X116.720 Y99.675 F10800.000
G1 F1200.000
G1 X117.149 Y99.294 E0.01799
G1 X123.885 Y95.400 E0.24397
G1 X124.428 Y95.193 E0.01823
G1 X125.005 Y95.123 E0.01823
G1 X125.612 Y95.203 E0.01917
G1 X126.174 Y95.433 E0.01906
G1 X132.750 Y99.228 E0.23805
M73 Q2 S12
G1 X133.160 Y99.549 E0.01633
G1 X133.491 Y99.951 E0.01633
G1 X133.762 Y100.520 E0.01977
G1 X133.875 Y101.144 E0.01989
G1 X133.877 Y108.750 E0.23847
M73 P2 R12
G1 X133.809 Y109.316 E0.01787
G1 X133.606 Y109.853 E0.01799
G1 X133.280 Y110.325 E0.01799
G1 X132.851 Y110.706 E0.01799
G1 X126.115 Y114.600 E0.24397
G1 X125.575 Y114.806 E0.01811
G1 X124.998 Y114.877 E0.01823
G1 X124.392 Y114.798 E0.01917
G1 X123.826 Y114.567 E0.01917
G1 X117.250 Y110.772 E0.23805
G1 X116.840 Y110.451 E0.01633
G1 X116.507 Y110.046 E0.01645
G1 X116.237 Y109.476 E0.01977
G1 X116.125 Y108.856 E0.01977
G1 X116.123 Y101.250 E0.23847
G1 X116.191 Y100.684 E0.01787
G1 X116.394 Y100.147 E0.01799
G1 X116.686 Y99.724 E0.01611
; printing object m4-m5-m6-m7-m8-printing (2).stl id:0 copy 0
;WIPE_START
G1 F8640.000
G1 X117.149 Y99.294 E-0.14597
G1 X119.451 Y97.963 E-0.61403
;WIPE_END
G1 E-0.04000 F2100.000
G1 Z0.600 F10800.000
G1 X126.073 Y99.993
G1 Z0.200
G1 E0.80000 F2100.000
;TYPE:Perimeter
G1 F1200.000
G1 X126.638 Y100.188 E0.01874
G1 X127.195 Y100.462 E0.01946
G1 X127.751 Y100.833 E0.02096
G1 X128.187 Y101.206 E0.01800
G1 X128.648 Y101.721 E0.02165
G1 X128.952 Y102.156 E0.01667
G1 X129.278 Y102.789 E0.02229
G1 X129.451 Y103.245 E0.01530
G1 X129.611 Y103.962 E0.02304
G1 X129.660 Y104.403 E0.01391
G1 X129.634 Y105.158 E0.02369
G1 X129.578 Y105.553 E0.01251
G1 X129.350 Y106.333 E0.02549
G1 X128.893 Y107.219 E0.03123
G1 X128.267 Y107.948 E0.03014
G1 X127.587 Y108.467 E0.02684
G1 X127.376 Y108.596 E0.00774
G1 X126.589 Y108.928 E0.02678
G1 X126.393 Y108.988 E0.00645
G1 X125.395 Y109.125 E0.03156
G1 X124.439 Y109.022 E0.03017
G1 X124.153 Y108.922 E0.00948
G1 X123.537 Y108.824 E0.01958
G1 X122.654 Y108.454 E0.03000
G1 X121.821 Y107.837 E0.03253
G1 X121.232 Y107.152 E0.02830
G1 X120.801 Y106.326 E0.02922
G1 X120.558 Y105.512 E0.02666
G1 X120.511 Y105.186 E0.01032
G1 X120.483 Y104.396 E0.02477
G1 X120.523 Y104.025 E0.01170
G1 X120.690 Y103.273 E0.02416
G1 X120.837 Y102.884 E0.01302
G1 X121.176 Y102.218 E0.02343
G1 X121.441 Y101.841 E0.01445
G1 X121.922 Y101.299 E0.02272
G1 X122.304 Y100.970 E0.01580
G1 X122.889 Y100.578 E0.02209
G1 X123.381 Y100.336 E0.01717
G1 X124.024 Y100.110 E0.02139
G1 X124.604 Y99.990 E0.01858
G1 X125.207 Y99.940 E0.01895
G1 X125.892 Y99.962 E0.02148
G1 X126.014 Y99.983 E0.00388
G1 X125.950 Y100.355 F10800.000
;TYPE:External perimeter
G1 F1200.000
G1 X126.493 Y100.537 E0.01794
G1 X127.006 Y100.789 E0.01794
G1 X127.523 Y101.134 E0.01947
G1 X127.923 Y101.476 E0.01651
G1 X128.351 Y101.955 E0.02015
G1 X128.629 Y102.352 E0.01517
G1 X128.933 Y102.942 E0.02083
G1 X129.089 Y103.353 E0.01378
G1 X129.239 Y104.024 E0.02154
G1 X129.282 Y104.417 E0.01241
G1 X129.258 Y105.125 E0.02221
G1 X129.209 Y105.473 E0.01102
G1 X128.998 Y106.193 E0.02351
G1 X128.578 Y107.007 E0.02872
G1 X128.007 Y107.673 E0.02751
G1 X127.373 Y108.156 E0.02499
G1 X127.204 Y108.260 E0.00624
G1 X126.460 Y108.573 E0.02529
G1 X126.311 Y108.619 E0.00490
G1 X125.390 Y108.745 E0.02915
G1 X124.522 Y108.652 E0.02736
G1 X124.246 Y108.555 E0.00918
G1 X123.641 Y108.459 E0.01922
G1 X122.842 Y108.124 E0.02715
G1 X122.079 Y107.559 E0.02977
G1 X121.547 Y106.939 E0.02562
G1 X121.152 Y106.184 E0.02673
G1 X120.927 Y105.431 E0.02464
G1 X120.888 Y105.152 E0.00882
G1 X120.861 Y104.410 E0.02330
G1 X120.896 Y104.086 E0.01020
G1 X121.053 Y103.381 E0.02266
G1 X121.183 Y103.037 E0.01153
G1 X121.500 Y102.413 E0.02195
G1 X121.737 Y102.075 E0.01295
G1 X122.187 Y101.568 E0.02124
G1 X122.533 Y101.271 E0.01430
G1 X123.078 Y100.905 E0.02059
G1 X123.527 Y100.685 E0.01568
G1 X124.125 Y100.474 E0.01990
G1 X124.658 Y100.364 E0.01705
G1 X125.216 Y100.318 E0.01756
G1 X125.891 Y100.345 E0.02117
G1 X126.219 Y100.059 F10800.000
;WIPE_START
G1 F8640.000
G1 X126.493 Y100.537 E-0.14586
G1 X127.006 Y100.789 E-0.13213
G1 X127.523 Y101.134 E-0.14341
G1 X127.923 Y101.476 E-0.12157
G1 X128.351 Y101.955 E-0.14841
G1 X128.522 Y102.199 E-0.06862
;WIPE_END
G1 E-0.04000 F2100.000
G1 Z0.600 F10800.000
G1 X125.033 Y98.428
G1 Z0.200
G1 E0.80000 F2100.000
;TYPE:Perimeter
G1 F1200.000
G1 X130.713 Y101.705 E0.20559
G1 X130.713 Y108.295 E0.20665
G1 X125.000 Y111.591 E0.20680
G1 X119.287 Y108.295 E0.20680
G1 X119.287 Y101.705 E0.20665
M73 Q3 S12
G1 X124.981 Y98.419 E0.20612
M73 P3 R12
G1 X125.000 Y97.973 F10800.000
;TYPE:External perimeter
G1 F1200.000
G1 X131.090 Y101.487 E0.22045
G1 X131.090 Y108.513 E0.22031
G1 X125.000 Y112.027 E0.22045
G1 X118.910 Y108.513 E0.22045
G1 X118.910 Y101.487 E0.22031
G1 X124.948 Y98.003 E0.21857
G1 X125.200 Y98.320 F10800.000
;WIPE_START
G1 F8640.000
G1 X127.811 Y99.627 E-0.76000
;WIPE_END
G1 E-0.04000 F2100.000
G1 Z0.600 F10800.000
G1 X126.811 Y99.870
G1 Z0.200
G1 E0.80000 F2100.000
;TYPE:Gap fill
;WIDTH:0.347093
G1 F1200.000
G1 X127.374 Y100.171 E0.01615
;WIDTH:0.37931
G1 X127.935 Y100.520 E0.01847
G1 X128.766 Y100.712 F10800.000
;TYPE:Solid infill
;WIDTH:0.422599
G1 F1200.000
G1 X130.430 Y102.376 E0.07429
G1 X130.430 Y102.913 E0.01695
G1 X128.179 Y100.662 E0.10050
G1 X128.112 Y100.770 E0.00401
G1 X128.385 Y101.003 E0.01135
G1 X128.870 Y101.545 E0.02293
G1 X129.195 Y102.010 E0.01792
G1 X129.412 Y102.432 E0.01499
G1 X130.430 Y103.450 E0.04544
G1 X130.430 Y103.987 E0.01695
G1 X129.756 Y103.312 E0.03012
G1 X129.899 Y103.993 E0.02196
G1 X130.430 Y104.524 E0.02371
G1 X130.430 Y105.061 E0.01695
G1 X129.937 Y104.568 E0.02201
G1 X129.920 Y105.087 E0.01641
G1 X130.430 Y105.598 E0.02278
G1 X130.430 Y106.135 E0.01695
G1 X129.862 Y105.567 E0.02536
G1 X129.746 Y105.987 E0.01378
G1 X130.430 Y106.672 E0.03055
G1 X130.430 Y107.209 E0.01695
G1 X129.624 Y106.402 E0.03599
G1 X129.447 Y106.762 E0.01266
G1 X130.430 Y107.745 E0.04390
G1 X130.430 Y108.132 E0.01221
G1 X130.335 Y108.187 E0.00347
G1 X129.264 Y107.117 E0.04780
G1 X129.130 Y107.378 E0.00928
G1 X129.064 Y107.454 E0.00316
G1 X129.994 Y108.384 E0.04151
G1 X129.654 Y108.580 E0.01241
G1 X128.817 Y107.743 E0.03738
G1 X128.569 Y108.032 E0.01202
G1 X129.313 Y108.776 E0.03325
G1 X128.973 Y108.973 E0.01241
G1 X128.288 Y108.288 E0.03057
G1 X127.983 Y108.520 E0.01209
G1 X128.632 Y109.169 E0.02897
G1 X128.292 Y109.366 E0.01241
G1 X127.673 Y108.746 E0.02765
G1 X127.506 Y108.849 E0.00618
G1 X127.317 Y108.928 E0.00646
G1 X127.951 Y109.562 E0.02831
G1 X127.611 Y109.759 E0.01241
G1 X126.939 Y109.087 E0.02998
G1 X126.551 Y109.235 E0.01313
G1 X127.270 Y109.955 E0.03213
G1 X126.930 Y110.152 E0.01241
G1 X126.093 Y109.315 E0.03736
G1 X125.621 Y109.380 E0.01504
G1 X126.589 Y110.348 E0.04323
G1 X126.249 Y110.544 E0.01241
G1 X125.080 Y109.376 E0.05218
G1 X124.478 Y109.311 E0.01911
G1 X125.908 Y110.741 E0.06385
G1 X125.568 Y110.937 E0.01241
G1 X123.575 Y108.945 E0.08896
;WIPE_START
G1 F8640.000
G1 X125.568 Y110.937 E-0.65062
G1 X125.908 Y110.741 E-0.09077
G1 X125.851 Y110.684 E-0.01861
;WIPE_END
G1 E-0.04000 F2100.000
G1 Z0.600 F10800.000
G1 X126.446 Y100.002
G1 Z0.200
G1 E0.80000 F2100.000
G1 F1200.000
G1 X125.422 Y98.979 E0.04571
G1 X125.000 Y98.735 E0.01537
G1 X124.773 Y98.866 E0.00829
G1 X125.576 Y99.669 E0.03585
G1 X125.200 Y99.657 E0.01187
G1 X125.040 Y99.670 E0.00507
G1 X124.432 Y99.063 E0.02713
G1 X124.092 Y99.259 E0.01241
G1 X124.545 Y99.713 E0.02026
G1 X124.100 Y99.805 E0.01434
G1 X123.751 Y99.456 E0.01560
G1 X123.411 Y99.652 E0.01241
G1 X123.687 Y99.929 E0.01234
G1 X123.290 Y100.069 E0.01329
G1 X123.070 Y99.849 E0.00982
G1 X122.730 Y100.045 E0.01241
G1 X122.928 Y100.243 E0.00886
G1 X122.747 Y100.332 E0.00636
G1 X122.587 Y100.440 E0.00608
G1 X122.389 Y100.241 E0.00885
G1 X122.049 Y100.438 E0.01241
G1 X122.266 Y100.655 E0.00971
G1 X121.964 Y100.890 E0.01208
G1 X121.708 Y100.634 E0.01141
G1 X121.368 Y100.831 E0.01241
G1 X121.681 Y101.144 E0.01399
G1 X121.429 Y101.429 E0.01201
G1 X121.027 Y101.027 E0.01792
G1 X120.687 Y101.224 E0.01241
G1 X121.181 Y101.718 E0.02209
G1 X120.960 Y102.034 E0.01217
G1 X120.346 Y101.420 E0.02741
G1 X120.006 Y101.617 E0.01241
G1 X120.774 Y102.385 E0.03431
M73 Q4 S12
G1 X120.593 Y102.741 E0.01261
G1 X119.665 Y101.813 E0.04143
G1 X119.570 Y101.868 E0.00347
G1 X119.570 Y102.255 E0.01221
G1 X120.443 Y103.128 E0.03898
G1 X120.337 Y103.559 E0.01402
G1 X119.570 Y102.792 E0.03425
G1 X119.570 Y103.329 E0.01695
M73 P4 R12
G1 X120.242 Y104.000 E0.02999
G1 X120.200 Y104.386 E0.01224
G1 X120.204 Y104.499 E0.00359
G1 X119.570 Y103.866 E0.02830
G1 X119.570 Y104.402 E0.01695
G1 X120.224 Y105.056 E0.02920
G1 X120.281 Y105.572 E0.01638
G1 X120.314 Y105.684 E0.00367
G1 X119.570 Y104.939 E0.03322
G1 X119.570 Y105.476 E0.01695
G1 X120.550 Y106.456 E0.04374
G1 X120.997 Y107.312 E0.03049
G1 X121.627 Y108.045 E0.03052
G1 X122.514 Y108.702 E0.03483
G1 X122.999 Y108.905 E0.01661
G1 X125.227 Y111.134 E0.09950
G1 X125.000 Y111.265 E0.00828
G1 X124.578 Y111.021 E0.01539
G1 X119.570 Y106.013 E0.22359
G1 X119.570 Y106.550 E0.01695
G1 X123.309 Y110.289 E0.16693
G1 X122.040 Y109.557 E0.04626
G1 X119.570 Y107.087 E0.11027
G1 X119.570 Y107.624 E0.01695
G1 X121.233 Y109.288 E0.07427
; stop printing object m4-m5-m6-m7-m8-printing (2).stl id:0 copy 0
M106 S84.15
;LAYER_CHANGE
;Z:0.35
;HEIGHT:0.15
;BEFORE_LAYER_CHANGE
G92 E0.0
;0.35


;WIPE_START
G1 F8640.000
G1 X119.570 Y107.624 E-0.54324
G1 X119.570 Y107.087 E-0.12398
G1 X119.854 Y107.371 E-0.09278
;WIPE_END
G1 E-0.04000 F2100.000
G1 Z0.600 F10800.000
;AFTER_LAYER_CHANGE
;0.35
G1 X115.531 Y109.744
G1 Z0.350
G1 E0.80000 F2100.000
;TYPE:Skirt
;WIDTH:0.42
G1 F2039
G1 X115.374 Y108.930 E0.02003
G1 X115.369 Y101.250 E0.18575
G1 X115.457 Y100.514 E0.01793
G1 X115.715 Y99.819 E0.01793
G1 X116.132 Y99.201 E0.01804
G1 X116.681 Y98.702 E0.01793
G1 X123.554 Y94.723 E0.19208
G1 X124.256 Y94.458 E0.01814
G1 X125.005 Y94.369 E0.01825
G1 X125.796 Y94.472 E0.01930
G1 X126.540 Y94.773 E0.01940
G1 X133.162 Y98.596 E0.18493
G1 X133.681 Y99.003 E0.01594
G1 X134.103 Y99.509 E0.01594
G1 X134.469 Y100.256 E0.02013
G1 X134.626 Y101.070 E0.02003
G1 X134.631 Y108.750 E0.18575
G1 X134.543 Y109.486 E0.01793
G1 X134.285 Y110.181 E0.01793
G1 X133.868 Y110.799 E0.01804
G1 X133.319 Y111.298 E0.01793
G1 X126.446 Y115.277 E0.19208
G1 X125.744 Y115.542 E0.01814
G1 X124.999 Y115.631 E0.01814
G1 X124.204 Y115.528 E0.01940
G1 X123.460 Y115.227 E0.01940
G1 X116.838 Y111.404 E0.18493
G1 X116.319 Y110.997 E0.01594
G1 X115.897 Y110.491 E0.01594
G1 X115.557 Y109.798 E0.01868
G1 X115.895 Y109.634 F10800.000
G1 F2039
G1 X115.749 Y108.888 E0.01838
G1 X115.746 Y101.250 E0.18472
G1 X115.825 Y100.596 E0.01593
G1 X116.056 Y99.980 E0.01593
G1 X116.428 Y99.436 E0.01593
G1 X116.917 Y98.996 E0.01593
G1 X123.721 Y95.061 E0.19007
G1 X124.344 Y94.825 E0.01612
G1 X125.006 Y94.746 E0.01612
G1 X125.707 Y94.838 E0.01711
G1 X126.358 Y95.104 E0.01701
G1 X132.954 Y98.911 E0.18417
G1 X133.421 Y99.276 E0.01435
G1 X133.799 Y99.734 E0.01435
G1 X134.117 Y100.393 E0.01770
G1 X134.251 Y101.112 E0.01770
G1 X134.254 Y108.750 E0.18472
G1 X134.175 Y109.404 E0.01593
G1 X133.944 Y110.020 E0.01593
G1 X133.572 Y110.564 E0.01593
G1 X133.083 Y111.004 E0.01593
G1 X126.283 Y114.937 E0.18997
G1 X125.660 Y115.174 E0.01612
G1 X124.998 Y115.254 E0.01612
G1 X124.297 Y115.163 E0.01711
G1 X123.642 Y114.896 E0.01711
G1 X117.046 Y111.089 E0.18417
G1 X116.582 Y110.726 E0.01425
G1 X116.203 Y110.270 E0.01435
G1 X115.922 Y109.688 E0.01564
G1 X116.237 Y109.476 F10800.000
G1 F2039
G1 X116.125 Y108.856 E0.01525
G1 X116.123 Y101.250 E0.18394
G1 X116.191 Y100.684 E0.01378
G1 X116.394 Y100.147 E0.01388
G1 X116.720 Y99.675 E0.01388
G1 X117.149 Y99.294 E0.01388
G1 X123.885 Y95.400 E0.18818
G1 X124.428 Y95.193 E0.01406
G1 X125.005 Y95.123 E0.01406
G1 X125.612 Y95.203 E0.01479
G1 X126.174 Y95.433 E0.01470
G1 X132.750 Y99.228 E0.18362
G1 X133.160 Y99.549 E0.01260
M73 Q5 S12
G1 X133.491 Y99.951 E0.01260
G1 X133.762 Y100.520 E0.01525
G1 X133.875 Y101.144 E0.01534
G1 X133.877 Y108.750 E0.18394
G1 X133.809 Y109.316 E0.01378
G1 X133.606 Y109.853 E0.01388
G1 X133.280 Y110.325 E0.01388
M73 P5 R12
G1 X132.851 Y110.706 E0.01388
G1 X126.115 Y114.600 E0.18818
G1 X125.575 Y114.806 E0.01397
G1 X124.998 Y114.877 E0.01406
G1 X124.392 Y114.798 E0.01479
G1 X123.826 Y114.567 E0.01479
G1 X117.250 Y110.772 E0.18362
G1 X116.840 Y110.451 E0.01260
G1 X116.507 Y110.046 E0.01269
G1 X116.262 Y109.530 E0.01380
; printing object m4-m5-m6-m7-m8-printing (2).stl id:0 copy 0
;WIPE_START
G1 F8640.000
