; generated by PrusaSlicer 2.3.0+win64 on 2021-04-20 at 18:49:14 UTC

; 

; external perimeters extrusion width = 0.45mm
; perimeters extrusion width = 0.45mm
; infill extrusion width = 0.45mm
; solid infill extrusion width = 0.45mm
; top infill extrusion width = 0.40mm
; first layer extrusion width = 0.42mm

M73 P0 R29
M73 Q0 S29
M201 X1000 Y1000 Z200 E5000 ; sets maximum accelerations, mm/sec^2
M203 X200 Y200 Z12 E120 ; sets maximum feedrates, mm/sec
M204 P1250 R1250 T1250 ; sets acceleration (P, T) and retract acceleration (R), mm/sec^2
M205 X8.00 Y8.00 Z0.40 E4.50 ; sets the jerk limits, mm/sec
M205 S0 T0 ; sets the minimum extruding and travel feed rate, mm/sec
M107
;TYPE:Custom
M862.3 P "MK3S" ; printer model check
M862.1 P0.4 ; nozzle diameter check
M115 U3.9.2 ; tell printer latest fw version
G90 ; use absolute coordinates
M83 ; extruder relative mode
M104 S215 ; set extruder temp
M140 S60 ; set bed temp
M190 S60 ; wait for bed temp
M109 S215 ; wait for extruder temp
G28 W ; home all without mesh bed level
G80 ; mesh bed leveling
G1 Y-3.0 F1000.0 ; go outside print area
G92 E0.0
G1 X60.0 E9.0 F1000.0 ; intro line
G1 X100.0 E12.5 F1000.0 ; intro line
G92 E0.0
M221 S95

; Don't change E values below. Excessive value can damage the printer.

G21 ; set units to millimeters
G90 ; use absolute coordinates
M83 ; use relative distances for extrusion
M900 K0.05 ; Filament gcode LA 1.5
M900 K30 ; Filament gcode LA 1.0
;LAYER_CHANGE
;Z:0.2
;HEIGHT:0.2
;BEFORE_LAYER_CHANGE
G92 E0.0
;0.2


G1 E-0.80000 F2100.000
G1 Z0.400 F10800.000
;AFTER_LAYER_CHANGE
;0.2
G1 X116.823 Y101.779
G1 Z0.200
G1 E0.80000 F2100.000
M204 S1000
;TYPE:Skirt
;WIDTH:0.42
G1 F1200.000
G1 X117.651 Y100.182 E0.05640
G1 X118.307 Y99.300 E0.03446
G1 X119.002 Y98.570 E0.03160
G1 X120.182 Y97.651 E0.04689
G1 X121.533 Y96.926 E0.04810
G1 X122.620 Y96.543 E0.03613
G1 X123.435 Y96.360 E0.02620
G1 X124.108 Y96.256 E0.02134
G1 X125.206 Y96.223 E0.03445
G1 X125.989 Y96.263 E0.02457
G1 X127.036 Y96.457 E0.03340
G1 X128.182 Y96.811 E0.03762
G1 X129.719 Y97.588 E0.05400
G1 X130.996 Y98.569 E0.05049
G1 X131.992 Y99.676 E0.04669
G1 X132.926 Y101.205 E0.05616
G1 X133.536 Y102.899 E0.05647
G1 X133.729 Y103.932 E0.03294
G1 X133.781 Y104.714 E0.02456
G1 X133.756 Y105.851 E0.03566
G1 X133.623 Y106.650 E0.02541
G1 X133.466 Y107.359 E0.02277
G1 X133.037 Y108.555 E0.03984
G1 X132.176 Y110.086 E0.05506
G1 X131.045 Y111.387 E0.05406
G1 X130.396 Y111.939 E0.02672
G1 X129.348 Y112.641 E0.03954
G1 X127.914 Y113.298 E0.04945
G1 X126.441 Y113.673 E0.04767
G1 X125.028 Y113.796 E0.04447
G1 X123.078 Y113.580 E0.06153
G1 X121.610 Y113.116 E0.04827
G1 X120.473 Y112.543 E0.03993
G1 X119.016 Y111.449 E0.05712
G1 X117.880 Y110.170 E0.05363
G1 X117.022 Y108.700 E0.05338
G1 X116.489 Y107.196 E0.05001
G1 X116.264 Y105.948 E0.03977
G1 X116.212 Y105.162 E0.02470
G1 X116.345 Y103.456 E0.05364
G1 X116.807 Y101.837 E0.05281
G1 X117.167 Y101.939 F10800.000
G1 F1200.000
G1 X117.962 Y100.395 E0.05446
G1 X118.595 Y99.544 E0.03323
G1 X119.267 Y98.838 E0.03059
G1 X120.388 Y97.967 E0.04450
G1 X121.670 Y97.277 E0.04564
G1 X122.725 Y96.905 E0.03507
G1 X123.506 Y96.730 E0.02509
G1 X125.206 Y96.600 E0.05346
G1 X125.945 Y96.637 E0.02321
G1 X126.964 Y96.827 E0.03249
G1 X128.038 Y97.159 E0.03526
G1 X129.238 Y97.733 E0.04169
G1 X130.728 Y98.835 E0.05812
G1 X131.686 Y99.896 E0.04482
G1 X132.581 Y101.357 E0.05372
G1 X133.168 Y102.984 E0.05424
G1 X133.355 Y103.980 E0.03176
G1 X133.404 Y104.712 E0.02303
G1 X133.380 Y105.819 E0.03472
G1 X133.252 Y106.579 E0.02415
G1 X133.106 Y107.247 E0.02144
G1 X132.688 Y108.412 E0.03881
G1 X131.866 Y109.872 E0.05252
G1 X130.778 Y111.121 E0.05195
G1 X130.169 Y111.638 E0.02505
G1 X129.149 Y112.321 E0.03848
G1 X127.774 Y112.948 E0.04739
G1 X126.373 Y113.302 E0.04529
G1 X125.030 Y113.419 E0.04228
G1 X123.150 Y113.210 E0.05931
G1 X121.749 Y112.766 E0.04606
G1 X120.678 Y112.227 E0.03759
G1 X119.282 Y111.182 E0.05468
G1 X118.187 Y109.951 E0.05166
G1 X117.368 Y108.549 E0.05093
G1 X116.857 Y107.112 E0.04780
G1 X116.638 Y105.897 E0.03872
G1 X116.589 Y105.163 E0.02307
G1 X116.716 Y103.524 E0.05154
G1 X117.150 Y101.997 E0.04979
G1 X117.511 Y102.099 F10800.000
G1 F1200.000
G1 X118.273 Y100.607 E0.05254
G1 X118.885 Y99.785 E0.03212
G1 X119.533 Y99.105 E0.02945
G1 X120.595 Y98.282 E0.04213
G1 X121.807 Y97.628 E0.04319
G1 X122.834 Y97.266 E0.03414
G1 X123.576 Y97.101 E0.02383
G1 X125.205 Y96.977 E0.05123
G1 X125.898 Y97.011 E0.02175
G1 X126.892 Y97.197 E0.03169
G1 X127.896 Y97.508 E0.03295
G1 X129.034 Y98.050 E0.03953
G1 X130.462 Y99.101 E0.05560
G1 X131.378 Y100.114 E0.04280
G1 X132.236 Y101.510 E0.05139
G1 X132.801 Y103.070 E0.05201
G1 X133.027 Y104.708 E0.05185
G1 X133.005 Y105.785 E0.03379
G1 X132.883 Y106.504 E0.02286
G1 X132.746 Y107.136 E0.02028
G1 X132.339 Y108.269 E0.03775
G1 X131.558 Y109.655 E0.04986
G1 X130.507 Y110.859 E0.05011
G1 X129.938 Y111.340 E0.02335
G1 X128.949 Y112.001 E0.03731
G1 X127.633 Y112.598 E0.04533
G1 X126.309 Y112.930 E0.04279
G1 X125.034 Y113.042 E0.04013
G1 X123.225 Y112.841 E0.05706
G1 X121.891 Y112.416 E0.04389
G1 X120.883 Y111.910 E0.03538
G1 X119.547 Y110.914 E0.05225
G1 X118.493 Y109.731 E0.04967
G1 X117.713 Y108.397 E0.04847
G1 X117.225 Y107.031 E0.04548
G1 X116.966 Y105.168 E0.05898
G1 X117.086 Y103.595 E0.04945
G1 X117.494 Y102.157 E0.04688
;WIPE_START
G1 F8640.000
G1 X118.273 Y100.607 E-0.40053
G1 X118.885 Y99.785 E-0.23656
G1 X119.252 Y99.400 E-0.12291
;WIPE_END
G1 E-0.04000 F2100.000
G1 Z0.600 F10800.000
G1 X115.101 Y103.261
G1 Z0.200
G1 E0.80000 F2100.000
G1 F1200.000
G1 X115.352 Y102.181 E0.03478
G1 X115.606 Y101.443 E0.02447
G1 X116.119 Y100.300 E0.03928
G1 X116.513 Y99.624 E0.02453
G1 X117.249 Y98.609 E0.03932
G1 X118.109 Y97.678 E0.03973
G1 X119.515 Y96.589 E0.05578
G1 X120.006 Y96.279 E0.01819
G1 X120.930 Y95.810 E0.03251
G1 X121.905 Y95.438 E0.03270
G1 X123.786 Y95.024 E0.06041
G1 X125.747 Y94.982 E0.06148
G1 X126.404 Y95.052 E0.02071
G1 X127.962 Y95.397 E0.05005
G1 X128.539 Y95.601 E0.01917
G1 X129.786 Y96.160 E0.04284
G1 X131.466 Y97.307 E0.06379
G1 X132.632 Y98.466 E0.05155
G1 X133.797 Y100.132 E0.06374
G1 X134.275 Y101.129 E0.03467
G1 X134.642 Y102.177 E0.03483
G1 X134.995 Y103.921 E0.05579
G1 X135.027 Y105.747 E0.05727
G1 X134.695 Y107.637 E0.06015
M73 Q1 S29
G1 X134.023 Y109.420 E0.05975
G1 X133.091 Y110.968 E0.05665
G1 X131.867 Y112.349 E0.05785
G1 X129.978 Y113.724 E0.07327
M73 P1 R29
G1 X128.402 Y114.462 E0.05456
G1 X126.717 Y114.905 E0.05462
G1 X125.381 Y115.044 E0.04213
G1 X124.784 Y115.053 E0.01872
G1 X122.906 Y114.834 E0.05928
G1 X121.091 Y114.262 E0.05968
G1 X119.653 Y113.513 E0.05082
G1 X118.048 Y112.267 E0.06371
G1 X116.810 Y110.835 E0.05936
G1 X115.879 Y109.215 E0.05860
G1 X115.233 Y107.369 E0.06129
G1 X115.002 Y105.956 E0.04491
G1 X114.964 Y104.965 E0.03110
G1 X115.096 Y103.321 E0.05170
G1 X115.470 Y103.351 F10800.000
G1 F1200.000
G1 X115.717 Y102.276 E0.03459
G1 X115.953 Y101.589 E0.02276
G1 X116.458 Y100.463 E0.03870
G1 X116.824 Y99.838 E0.02271
G1 X117.547 Y98.839 E0.03867
G1 X118.375 Y97.946 E0.03817
G1 X119.739 Y96.893 E0.05403
G1 X120.199 Y96.603 E0.01707
G1 X121.092 Y96.151 E0.03137
G1 X122.026 Y95.795 E0.03133
G1 X123.849 Y95.396 E0.05852
G1 X125.719 Y95.359 E0.05865
G1 X126.333 Y95.423 E0.01935
G1 X127.848 Y95.757 E0.04864
G1 X128.392 Y95.949 E0.01808
G1 X129.616 Y96.497 E0.04206
G1 X131.238 Y97.608 E0.06166
G1 X132.353 Y98.721 E0.04940
G1 X133.463 Y100.309 E0.06074
G1 X133.930 Y101.282 E0.03385
G1 X134.282 Y102.289 E0.03344
G1 X134.622 Y103.978 E0.05403
G1 X134.650 Y105.735 E0.05508
G1 X134.327 Y107.553 E0.05790
G1 X133.677 Y109.270 E0.05757
G1 X132.777 Y110.758 E0.05450
G1 X131.600 Y112.083 E0.05559
G1 X129.772 Y113.408 E0.07079
G1 X128.258 Y114.113 E0.05234
G1 X126.664 Y114.532 E0.05168
G1 X125.350 Y114.668 E0.04140
G1 X124.791 Y114.675 E0.01753
G1 X122.968 Y114.462 E0.05757
G1 X121.250 Y113.920 E0.05648
G1 X119.870 Y113.204 E0.04873
G1 X118.321 Y112.006 E0.06142
G1 X117.128 Y110.630 E0.05709
G1 X116.228 Y109.073 E0.05639
G1 X115.603 Y107.292 E0.05918
G1 X115.376 Y105.906 E0.04402
G1 X115.340 Y104.983 E0.02896
G1 X115.465 Y103.411 E0.04947
G1 X115.839 Y103.440 F10800.000
G1 F1200.000
G1 X116.082 Y102.371 E0.03438
G1 X116.301 Y101.736 E0.02104
G1 X116.798 Y100.627 E0.03812
G1 X117.135 Y100.051 E0.02090
G1 X117.832 Y99.087 E0.03731
G1 X118.640 Y98.215 E0.03730
G1 X119.961 Y97.198 E0.05226
G1 X120.392 Y96.927 E0.01596
G1 X121.253 Y96.492 E0.03024
G1 X122.146 Y96.153 E0.02995
G1 X123.911 Y95.768 E0.05663
G1 X125.692 Y95.735 E0.05586
G1 X126.263 Y95.794 E0.01799
G1 X127.734 Y96.117 E0.04722
G1 X128.245 Y96.296 E0.01698
G1 X129.446 Y96.834 E0.04127
G1 X131.010 Y97.909 E0.05950
G1 X132.075 Y98.976 E0.04726
G1 X133.130 Y100.486 E0.05778
G1 X133.578 Y101.417 E0.03239
G1 X133.922 Y102.401 E0.03269
G1 X134.249 Y104.035 E0.05225
G1 X134.273 Y105.722 E0.05289
G1 X133.959 Y107.469 E0.05566
G1 X133.330 Y109.120 E0.05540
G1 X132.484 Y110.521 E0.05132
G1 X131.361 Y111.790 E0.05311
G1 X129.565 Y113.092 E0.06955
G1 X128.115 Y113.763 E0.05011
G1 X126.611 Y114.158 E0.04877
G1 X125.320 Y114.292 E0.04068
G1 X124.799 Y114.298 E0.01635
G1 X123.063 Y114.097 E0.05478
G1 X121.408 Y113.578 E0.05439
G1 X120.087 Y112.895 E0.04663
G1 X118.592 Y111.744 E0.05914
G1 X117.445 Y110.425 E0.05481
G1 X116.578 Y108.931 E0.05418
G1 X115.972 Y107.214 E0.05706
G1 X115.750 Y105.857 E0.04313
G1 X115.717 Y105.002 E0.02684
G1 X115.835 Y103.500 E0.04724
;WIPE_START
G1 F8640.000
G1 X116.082 Y102.371 E-0.26689
G1 X116.301 Y101.736 E-0.15495
G1 X116.798 Y100.627 E-0.28071
G1 X116.924 Y100.412 E-0.05746
;WIPE_END
G1 E-0.04000 F2100.000
G1 Z0.600 F10800.000
G1 X117.325 Y103.688
G1 Z0.200
G1 E0.80000 F2100.000
G1 F1200.000
G1 X117.542 Y102.750 E0.03018
G1 X117.690 Y102.323 E0.01417
G1 X118.158 Y101.282 E0.03580
G1 X118.379 Y100.904 E0.01373
G1 X118.998 Y100.043 E0.03323
G1 X119.701 Y99.289 E0.03232
G1 X120.847 Y98.419 E0.04510
G1 X121.159 Y98.226 E0.01152
G1 X121.878 Y97.865 E0.02522
G1 X122.627 Y97.584 E0.02508
G1 X124.086 Y97.266 E0.04683
G1 X125.591 Y97.240 E0.04718
G1 X125.987 Y97.277 E0.01249
G1 X127.282 Y97.556 E0.04154
G1 X127.658 Y97.686 E0.01247
G1 X128.765 Y98.182 E0.03802
G1 X130.092 Y99.107 E0.05072
G1 X130.956 Y99.989 E0.03869
G1 X131.798 Y101.196 E0.04615
G1 X132.184 Y101.993 E0.02777
G1 X132.480 Y102.847 E0.02833
G1 X132.752 Y104.224 E0.04403
G1 X132.764 Y105.663 E0.04511
G1 X132.489 Y107.125 E0.04664
G1 X131.948 Y108.512 E0.04670
G1 X131.233 Y109.675 E0.04281
G1 X130.293 Y110.722 E0.04412
G1 X128.747 Y111.822 E0.05947
G1 X127.549 Y112.364 E0.04122
G1 X126.398 Y112.664 E0.03730
G1 X125.201 Y112.788 E0.03773
G1 X124.834 Y112.790 E0.01151
G1 X123.377 Y112.622 E0.04598
G1 X121.980 Y112.182 E0.04592
G1 X120.947 Y111.654 E0.03638
G1 X119.674 Y110.690 E0.05005
G1 X118.708 Y109.599 E0.04570
G1 X117.974 Y108.355 E0.04531
G1 X117.450 Y106.903 E0.04841
G1 X117.246 Y105.660 E0.03948
G1 X117.224 Y105.071 E0.01847
G1 X117.320 Y103.748 E0.04160
G1 X117.694 Y103.774 F10800.000
G1 F1200.000
G1 X117.907 Y102.846 E0.02988
G1 X118.038 Y102.470 E0.01246
G1 X118.498 Y101.445 E0.03522
G1 X118.691 Y101.117 E0.01196
G1 X119.282 Y100.291 E0.03183
G1 X119.965 Y99.558 E0.03142
G1 X121.066 Y98.726 E0.04328
G1 X121.350 Y98.552 E0.01043
G1 X122.020 Y98.214 E0.02353
G1 X122.746 Y97.942 E0.02433
G1 X124.147 Y97.639 E0.04494
G1 X125.567 Y97.617 E0.04452
G1 X125.920 Y97.648 E0.01111
G1 X127.171 Y97.917 E0.04012
G1 X127.512 Y98.034 E0.01132
G1 X128.594 Y98.518 E0.03718
G1 X129.861 Y99.406 E0.04848
G1 X130.675 Y100.241 E0.03656
G1 X131.465 Y101.373 E0.04331
G1 X131.839 Y102.147 E0.02695
G1 X132.119 Y102.957 E0.02688
G1 X132.379 Y104.279 E0.04224
G1 X132.387 Y105.646 E0.04286
G1 X132.122 Y107.036 E0.04437
G1 X131.603 Y108.359 E0.04454
G1 X130.941 Y109.436 E0.03965
G1 X130.026 Y110.455 E0.04292
G1 X128.545 Y111.504 E0.05692
G1 X127.410 Y112.013 E0.03901
G1 X126.345 Y112.290 E0.03449
G1 X125.172 Y112.412 E0.03698
G1 X124.844 Y112.413 E0.01027
G1 X123.472 Y112.256 E0.04329
G1 X122.137 Y111.839 E0.04388
G1 X121.160 Y111.343 E0.03433
G1 X119.943 Y110.425 E0.04778
G1 X119.023 Y109.391 E0.04342
G1 X118.322 Y108.209 E0.04309
G1 X117.819 Y106.824 E0.04620
G1 X117.620 Y105.611 E0.03855
G1 X117.601 Y105.088 E0.01641
G1 X117.690 Y103.834 E0.03940
G1 X118.064 Y103.860 F10800.000
G1 F1200.000
G1 X118.272 Y102.941 E0.02955
G1 X118.385 Y102.617 E0.01074
G1 X118.837 Y101.609 E0.03464
G1 X119.002 Y101.329 E0.01020
G1 X119.567 Y100.539 E0.03042
G1 X120.230 Y99.828 E0.03051
G1 X121.286 Y99.033 E0.04143
G1 X121.540 Y98.878 E0.00934
G1 X122.162 Y98.564 E0.02186
G1 X122.866 Y98.299 E0.02358
G1 X124.172 Y98.016 E0.04191
G1 X125.545 Y97.993 E0.04304
G1 X125.853 Y98.020 E0.00970
G1 X127.060 Y98.277 E0.03870
G1 X127.366 Y98.382 E0.01014
G1 X128.424 Y98.855 E0.03632
G1 X129.629 Y99.703 E0.04621
G1 X130.393 Y100.492 E0.03443
G1 X131.132 Y101.551 E0.04051
G1 X131.487 Y102.281 E0.02543
G1 X131.758 Y103.068 E0.02610
G1 X132.005 Y104.333 E0.04043
G1 X132.009 Y105.629 E0.04063
G1 X131.764 Y106.915 E0.04105
G1 X131.258 Y108.206 E0.04347
G1 X130.649 Y109.197 E0.03647
G1 X129.760 Y110.187 E0.04171
G1 X128.343 Y111.185 E0.05435
G1 X127.271 Y111.662 E0.03681
G1 X126.292 Y111.916 E0.03171
G1 X125.143 Y112.036 E0.03622
G1 X124.855 Y112.036 E0.00901
G1 X123.534 Y111.884 E0.04172
G1 X122.265 Y111.484 E0.04171
G1 X121.373 Y111.031 E0.03135
G1 X120.212 Y110.160 E0.04552
G1 X119.338 Y109.182 E0.04114
G1 X118.670 Y108.063 E0.04086
G1 X118.188 Y106.746 E0.04397
G1 X117.994 Y105.562 E0.03761
G1 X117.978 Y105.104 E0.01437
G1 X118.060 Y103.920 E0.03721
G1 X118.434 Y103.945 F10800.000
G1 F1200.000
G1 X118.637 Y103.036 E0.02920
G1 X118.732 Y102.765 E0.00902
G1 X119.177 Y101.773 E0.03406
G1 X119.314 Y101.542 E0.00844
G1 X119.866 Y100.769 E0.02978
G1 X120.494 Y100.097 E0.02882
G1 X121.504 Y99.340 E0.03958
G1 X121.729 Y99.204 E0.00825
G1 X122.304 Y98.913 E0.02021
G1 X122.985 Y98.657 E0.02282
G1 X124.233 Y98.388 E0.04002
G1 X125.524 Y98.370 E0.04047
G1 X125.787 Y98.391 E0.00829
G1 X126.950 Y98.638 E0.03728
G1 X127.221 Y98.730 E0.00895
G1 X128.253 Y99.192 E0.03545
G1 X129.396 Y100.001 E0.04393
G1 X130.111 Y100.743 E0.03230
G1 X130.800 Y101.730 E0.03775
G1 X131.134 Y102.415 E0.02390
G1 X131.398 Y103.179 E0.02533
G1 X131.628 Y104.353 E0.03752
G1 X131.632 Y105.612 E0.03949
G1 X131.407 Y106.794 E0.03772
G1 X130.914 Y108.053 E0.04239
G1 X130.357 Y108.957 E0.03330
G1 X129.494 Y109.918 E0.04050
G1 X128.142 Y110.865 E0.05174
G1 X127.133 Y111.311 E0.03461
G1 X126.239 Y111.543 E0.02895
G1 X125.114 Y111.660 E0.03545
G1 X124.868 Y111.659 E0.00773
G1 X123.595 Y111.511 E0.04017
G1 X122.394 Y111.129 E0.03953
G1 X121.586 Y110.719 E0.02842
G1 X120.480 Y109.894 E0.04327
G1 X119.651 Y108.972 E0.03885
G1 X119.017 Y107.915 E0.03864
G1 X118.557 Y106.667 E0.04172
G1 X118.368 Y105.513 E0.03665
G1 X118.355 Y105.120 E0.01235
G1 X118.430 Y104.005 E0.03503
G1 X118.804 Y104.029 F10800.000
G1 F1200.000
G1 X119.002 Y103.132 E0.02881
G1 X119.080 Y102.912 E0.00731
G1 X119.517 Y101.938 E0.03348
G1 X119.626 Y101.754 E0.00670
G1 X120.150 Y101.017 E0.02836
G1 X120.758 Y100.367 E0.02788
G1 X121.722 Y99.648 E0.03771
G1 X121.917 Y99.530 E0.00717
G1 X122.447 Y99.262 E0.01860
G1 X123.105 Y99.015 E0.02204
G1 X124.293 Y98.761 E0.03811
M73 Q2 S29
G1 X125.504 Y98.746 E0.03796
G1 X125.722 Y98.763 E0.00686
G1 X126.841 Y98.999 E0.03586
G1 X127.075 Y99.078 E0.00774
G1 X128.081 Y99.528 E0.03456
G1 X129.163 Y100.297 E0.04161
G1 X129.828 Y100.993 E0.03018
M73 P2 R29
G1 X130.468 Y101.909 E0.03503
G1 X130.781 Y102.549 E0.02235
G1 X131.037 Y103.290 E0.02456
G1 X131.251 Y104.372 E0.03460
G1 X131.255 Y105.595 E0.03835
G1 X131.049 Y106.672 E0.03438
G1 X130.569 Y107.900 E0.04132
G1 X130.065 Y108.718 E0.03013
G1 X129.228 Y109.650 E0.03927
G1 X127.943 Y110.545 E0.04912
G1 X126.995 Y110.960 E0.03242
G1 X126.186 Y111.169 E0.02622
G1 X125.086 Y111.283 E0.03466
G1 X124.881 Y111.282 E0.00643
G1 X123.692 Y111.146 E0.03753
G1 X122.523 Y110.774 E0.03847
G1 X121.797 Y110.407 E0.02550
G1 X120.747 Y109.627 E0.04100
G1 X119.944 Y108.733 E0.03769
G1 X119.365 Y107.767 E0.03532
