; generated by PrusaSlicer 2.3.0+win64 on 2021-04-19 at 19:36:24 UTC

; 

; external perimeters extrusion width = 0.45mm
; perimeters extrusion width = 0.45mm
; infill extrusion width = 0.45mm
; solid infill extrusion width = 0.45mm
; top infill extrusion width = 0.40mm
; first layer extrusion width = 0.42mm

M73 P0 R38
M73 Q0 S38
M201 X1000 Y1000 Z200 E5000 ; sets maximum accelerations, mm/sec^2
M203 X200 Y200 Z12 E120 ; sets maximum feedrates, mm/sec
M204 P1250 R1250 T1250 ; sets acceleration (P, T) and retract acceleration (R), mm/sec^2
M205 X8.00 Y8.00 Z0.40 E4.50 ; sets the jerk limits, mm/sec
M205 S0 T0 ; sets the minimum extruding and travel feed rate, mm/sec
M107
;TYPE:Custom
M862.3 P "MK3S" ; printer model check
M862.1 P0.4 ; nozzle diameter check
M115 U3.9.2 ; tell printer latest fw version
G90 ; use absolute coordinates
M83 ; extruder relative mode
M104 S215 ; set extruder temp
M140 S60 ; set bed temp
M190 S60 ; wait for bed temp
M109 S215 ; wait for extruder temp
G28 W ; home all without mesh bed level
G80 ; mesh bed leveling
G1 Y-3.0 F1000.0 ; go outside print area
G92 E0.0
G1 X60.0 E9.0 F1000.0 ; intro line
M73 P0 R37
G1 X100.0 E12.5 F1000.0 ; intro line
G92 E0.0
M221 S95

; Don't change E values below. Excessive value can damage the printer.
M907 E430 ; set extruder motor current
G21 ; set units to millimeters
G90 ; use absolute coordinates
M83 ; use relative distances for extrusion
M900 K0.05 ; Filament gcode LA 1.5
M900 K30 ; Filament gcode LA 1.0
;LAYER_CHANGE
;Z:0.2
;HEIGHT:0.2
;BEFORE_LAYER_CHANGE
G92 E0.0
;0.2


M73 Q0 S37
G1 E-0.80000 F2100.000
G1 Z0.400 F10800.000
;AFTER_LAYER_CHANGE
;0.2
G1 X122.186 Y85.782
G1 Z0.200
G1 E0.80000 F2100.000
M204 S1000
;TYPE:Skirt
;WIDTH:0.42
G1 F1200.000
G1 X127.384 Y85.746 E0.16296
G1 X128.160 Y85.859 E0.02460
G1 X129.212 Y86.286 E0.03560
G1 X130.505 Y87.066 E0.04733
G1 X131.432 Y87.790 E0.03689
G1 X131.809 Y88.284 E0.01950
G1 X134.188 Y92.401 E0.14908
G1 X134.476 Y93.136 E0.02473
G1 X134.645 Y94.169 E0.03283
G1 X134.675 Y95.141 E0.03048
G1 X134.675 Y115.164 E0.62780
G1 X134.567 Y116.475 E0.04124
G1 X134.250 Y117.486 E0.03325
G1 X131.755 Y121.796 E0.15613
G1 X131.039 Y122.556 E0.03273
G1 X129.930 Y123.328 E0.04237
G1 X128.582 Y123.989 E0.04708
G1 X127.646 Y124.235 E0.03035
G1 X122.262 Y124.230 E0.16879
G1 X121.571 Y124.048 E0.02242
G1 X120.195 Y123.402 E0.04763
G1 X119.069 Y122.645 E0.04257
G1 X118.496 Y122.132 E0.02412
G1 X118.184 Y121.705 E0.01656
G1 X115.790 Y117.559 E0.15011
G1 X115.459 Y116.569 E0.03274
G1 X115.325 Y114.849 E0.05407
G1 X115.319 Y94.984 E0.62286
G1 X115.433 Y93.527 E0.04584
G1 X115.747 Y92.519 E0.03310
G1 X118.226 Y88.228 E0.15537
G1 X118.698 Y87.660 E0.02317
G1 X119.522 Y87.023 E0.03264
G1 X121.054 Y86.168 E0.05503
G1 X122.130 Y85.801 E0.03563
G1 X122.251 Y86.155 F10800.000
G1 F1200.000
G1 X127.384 Y86.123 E0.16094
G1 X128.067 Y86.224 E0.02166
G1 X129.053 Y86.628 E0.03339
G1 X130.294 Y87.379 E0.04550
G1 X131.173 Y88.065 E0.03497
G1 X131.489 Y88.484 E0.01645
G1 X133.862 Y92.592 E0.14876
G1 X134.114 Y93.244 E0.02190
G1 X134.270 Y94.214 E0.03080
G1 X134.298 Y95.146 E0.02923
G1 X134.298 Y115.163 E0.62762
G1 X134.193 Y116.429 E0.03983
G1 X133.913 Y117.316 E0.02916
G1 X131.442 Y121.586 E0.15469
G1 X130.786 Y122.276 E0.02986
G1 X129.723 Y123.012 E0.04053
G1 X128.445 Y123.637 E0.04461
G1 X127.594 Y123.862 E0.02761
G1 X122.311 Y123.856 E0.16564
G1 X121.704 Y123.695 E0.01968
G1 X120.374 Y123.070 E0.04607
G1 X119.293 Y122.342 E0.04088
G1 X118.767 Y121.870 E0.02217
G1 X116.121 Y117.378 E0.16346
G1 X115.824 Y116.472 E0.02989
G1 X115.702 Y114.849 E0.05101
G1 X115.696 Y94.989 E0.62270
G1 X115.807 Y93.574 E0.04452
G1 X116.086 Y92.686 E0.02919
G1 X118.546 Y88.426 E0.15424
G1 X118.966 Y87.926 E0.02048
G1 X119.739 Y87.332 E0.03056
G1 X121.208 Y86.512 E0.05273
G1 X122.194 Y86.174 E0.03269
;WIPE_START
G1 F8640.000
G1 X125.485 Y86.142 E-0.76000
;WIPE_END
G1 E-0.04000 F2100.000
G1 Z0.600 F10800.000
G1 X126.304 Y83.790
G1 Z0.200
G1 E0.80000 F2100.000
G1 F1200.000
G1 X123.756 Y83.786 E0.07991
G1 X122.283 Y84.029 E0.04679
G1 X121.441 Y84.267 E0.02743
G1 X120.645 Y84.563 E0.02663
G1 X119.471 Y85.131 E0.04089
G1 X118.368 Y85.837 E0.04107
G1 X117.237 Y86.773 E0.04602
G1 X116.502 Y87.533 E0.03316
G1 X115.880 Y88.368 E0.03263
G1 X114.817 Y90.207 E0.06662
G1 X114.416 Y91.017 E0.02835
G1 X114.178 Y91.706 E0.02285
G1 X113.805 Y93.360 E0.05314
G1 X113.687 Y95.150 E0.05626
G1 X113.793 Y96.541 E0.04374
G1 X114.066 Y97.896 E0.04332
G1 X114.657 Y99.518 E0.05412
G1 X115.132 Y100.322 E0.02930
;WIPE_START
G1 F8640.000
G1 X114.657 Y99.518 E-0.21576
G1 X114.066 Y97.896 E-0.39857
G1 X113.941 Y97.277 E-0.14567
;WIPE_END
G1 E-0.04000 F2100.000
G1 Z0.600 F10800.000
G1 X115.887 Y101.600
G1 Z0.200
G1 E0.80000 F2100.000
G1 F1200.000
G1 X116.120 Y101.994 E0.01437
G1 X116.721 Y102.708 E0.02927
G1 X117.860 Y103.776 E0.04895
G1 X119.737 Y104.995 E0.07018
G1 X119.339 Y105.204 E0.01409
G1 X117.994 Y106.118 E0.05099
G1 X116.780 Y107.232 E0.05167
G1 X116.042 Y108.134 E0.03654
G1 X115.889 Y108.394 E0.00947
;WIPE_START
G1 F8640.000
G1 X116.042 Y108.134 E-0.06977
G1 X116.780 Y107.232 E-0.26906
G1 X117.994 Y106.118 E-0.38052
G1 X118.140 Y106.019 E-0.04065
;WIPE_END
G1 E-0.04000 F2100.000
G1 Z0.600 F10800.000
G1 X115.135 Y109.673
G1 Z0.200
G1 E0.80000 F2100.000
G1 F1200.000
G1 X114.710 Y110.394 E0.02624
G1 X114.365 Y111.148 E0.02601
G1 X113.827 Y113.215 E0.06696
G1 X113.698 Y114.575 E0.04285
G1 X113.721 Y115.899 E0.04152
G1 X113.864 Y116.988 E0.03443
G1 X114.149 Y118.194 E0.03886
G1 X114.669 Y119.538 E0.04518
G1 X116.012 Y121.831 E0.08333
G1 X117.136 Y123.128 E0.05380
G1 X118.214 Y124.046 E0.04439
G1 X119.334 Y124.793 E0.04220
G1 X121.142 Y125.634 E0.06254
G1 X123.157 Y126.152 E0.06523
G1 X126.156 Y126.214 E0.09403
G1 X127.594 Y126.009 E0.04557
G1 X128.831 Y125.643 E0.04042
G1 X129.943 Y125.174 E0.03784
G1 X130.869 Y124.670 E0.03308
G1 X132.042 Y123.853 E0.04481
G1 X133.237 Y122.752 E0.05094
G1 X134.064 Y121.714 E0.04162
G1 X135.406 Y119.375 E0.08454
G1 X135.777 Y118.434 E0.03173
G1 X136.178 Y116.758 E0.05402
G1 X136.303 Y115.404 E0.04265
G1 X136.272 Y114.013 E0.04361
G1 X136.115 Y112.898 E0.03531
G1 X135.778 Y111.553 E0.04348
M73 Q1 S37
G1 X135.295 Y110.399 E0.03921
G1 X134.863 Y109.672 E0.02652
;WIPE_START
G1 F8640.000
G1 X135.295 Y110.399 E-0.19529
G1 X135.778 Y111.553 E-0.28875
G1 X136.069 Y112.712 E-0.27596
;WIPE_END
G1 E-0.04000 F2100.000
G1 Z0.600 F10800.000
M73 P1 R37
G1 X134.109 Y108.403
G1 Z0.200
G1 E0.80000 F2100.000
G1 F1200.000
G1 X133.880 Y108.016 E0.01408
G1 X133.291 Y107.305 E0.02897
G1 X132.070 Y106.166 E0.05235
G1 X131.187 Y105.532 E0.03406
G1 X130.247 Y104.989 E0.03406
G1 X131.011 Y104.577 E0.02723
G1 X132.006 Y103.881 E0.03804
G1 X133.100 Y102.892 E0.04626
G1 X134.109 Y101.653 E0.05011
;WIPE_START
G1 F8640.000
G1 X133.100 Y102.892 E-0.36901
G1 X132.006 Y103.881 E-0.34065
G1 X131.827 Y104.006 E-0.05034
;WIPE_END
G1 E-0.04000 F2100.000
G1 Z0.600 F10800.000
G1 X134.863 Y100.305
G1 Z0.200
G1 E0.80000 F2100.000
G1 F1200.000
G1 X135.536 Y99.102 E0.04320
G1 X135.905 Y97.953 E0.03784
G1 X136.180 Y96.747 E0.03877
G1 X136.300 Y95.467 E0.04033
G1 X136.280 Y94.092 E0.04312
G1 X136.040 Y92.871 E0.03901
G1 X136.029 Y92.673 E0.00623
G1 X135.866 Y91.817 E0.02730
G1 X135.317 Y90.438 E0.04656
G1 X133.850 Y87.966 E0.09011
G1 X133.055 Y87.079 E0.03736
G1 X132.253 Y86.314 E0.03474
G1 X130.050 Y84.879 E0.08245
G1 X128.164 Y84.144 E0.06344
G1 X126.304 Y83.790 E0.05937
;WIPE_START
G1 F8640.000
G1 X128.164 Y84.144 E-0.43719
G1 X129.467 Y84.652 E-0.32281
;WIPE_END
G1 E-0.04000 F2100.000
G1 Z0.600 F10800.000
G1 X123.771 Y84.163
G1 Z0.200
G1 E0.80000 F2100.000
G1 F1200.000
G1 X122.375 Y84.395 E0.04435
G1 X121.565 Y84.623 E0.02640
G1 X120.801 Y84.907 E0.02556
G1 X119.664 Y85.455 E0.03956
G1 X118.599 Y86.135 E0.03963
G1 X117.501 Y87.043 E0.04469
G1 X116.797 Y87.768 E0.03170
G1 X116.201 Y88.566 E0.03121
G1 X115.146 Y90.391 E0.06609
G1 X114.768 Y91.153 E0.02667
G1 X114.544 Y91.800 E0.02149
G1 X114.181 Y93.400 E0.05142
G1 X114.064 Y95.162 E0.05537
G1 X114.168 Y96.501 E0.04211
G1 X114.426 Y97.781 E0.04094
G1 X114.991 Y99.341 E0.05203
G1 X115.132 Y99.580 E0.00871
;WIPE_START
G1 F8640.000
G1 X114.991 Y99.341 E-0.06416
G1 X114.426 Y97.781 E-0.38320
G1 X114.168 Y96.501 E-0.30146
G1 X114.164 Y96.453 E-0.01118
;WIPE_END
G1 E-0.04000 F2100.000
G1 Z0.600 F10800.000
G1 X115.887 Y100.858
G1 Z0.200
G1 E0.80000 F2100.000
G1 F1200.000
G1 X116.436 Y101.788 E0.03389
G1 X117.002 Y102.456 E0.02744
G1 X118.079 Y103.469 E0.04637
G1 X120.039 Y104.741 E0.07325
G1 X120.600 Y104.981 E0.01913
G1 X119.541 Y105.523 E0.03732
G1 X118.218 Y106.422 E0.05016
G1 X117.063 Y107.481 E0.04914
G1 X116.360 Y108.338 E0.03475
G1 X115.889 Y109.136 E0.02906
;WIPE_START
G1 F8640.000
G1 X116.360 Y108.338 E-0.21397
G1 X117.063 Y107.481 E-0.25592
G1 X117.989 Y106.632 E-0.29011
;WIPE_END
G1 E-0.04000 F2100.000
G1 Z0.600 F10800.000
G1 X115.135 Y110.415
G1 Z0.200
G1 E0.80000 F2100.000
G1 F1200.000
G1 X115.040 Y110.577 E0.00589
G1 X114.715 Y111.290 E0.02456
G1 X114.196 Y113.295 E0.06494
G1 X114.075 Y114.579 E0.04046
G1 X114.096 Y115.861 E0.04019
G1 X114.234 Y116.911 E0.03319
G1 X114.513 Y118.095 E0.03816
G1 X115.002 Y119.361 E0.04254
G1 X116.328 Y121.626 E0.08230
G1 X117.392 Y122.850 E0.05083
G1 X118.450 Y123.751 E0.04360
G1 X119.507 Y124.457 E0.03983
G1 X121.254 Y125.274 E0.06048
G1 X123.187 Y125.776 E0.06262
G1 X126.148 Y125.836 E0.09285
G1 X127.501 Y125.644 E0.04284
G1 X128.713 Y125.284 E0.03966
G1 X129.771 Y124.838 E0.03599
G1 X130.663 Y124.354 E0.03183
G1 X131.796 Y123.567 E0.04327
G1 X132.970 Y122.485 E0.05007
G1 X133.760 Y121.491 E0.03980
G1 X135.072 Y119.200 E0.08278
G1 X135.413 Y118.333 E0.02921
G1 X135.808 Y116.684 E0.05317
G1 X135.926 Y115.381 E0.04103
G1 X135.896 Y114.033 E0.04227
G1 X135.747 Y112.980 E0.03333
G1 X135.415 Y111.659 E0.04272
G1 X134.964 Y110.581 E0.03664
G1 X134.863 Y110.411 E0.00620
;WIPE_START
G1 F8640.000
G1 X134.964 Y110.581 E-0.04565
G1 X135.415 Y111.659 E-0.26984
G1 X135.747 Y112.980 E-0.31461
G1 X135.826 Y113.537 E-0.12991
;WIPE_END
G1 E-0.04000 F2100.000
G1 Z0.600 F10800.000
G1 X134.109 Y109.141
G1 Z0.200
G1 E0.80000 F2100.000
G1 F1200.000
G1 X133.563 Y108.222 E0.03351
G1 X133.009 Y107.555 E0.02720
G1 X131.840 Y106.465 E0.05010
G1 X130.975 Y105.844 E0.03339
G1 X129.896 Y105.223 E0.03904
G1 X129.396 Y105.016 E0.01698
G1 X130.804 Y104.261 E0.05012
G1 X131.780 Y103.579 E0.03732
G1 X132.817 Y102.642 E0.04384
G1 X133.780 Y101.470 E0.04754
G1 X134.109 Y100.882 E0.02112
;WIPE_START
G1 F8640.000
G1 X133.780 Y101.470 E-0.15557
G1 X132.817 Y102.642 E-0.35009
G1 X132.000 Y103.380 E-0.25434
;WIPE_END
G1 E-0.04000 F2100.000
G1 Z0.600 F10800.000
G1 X134.863 Y99.538
G1 Z0.200
G1 E0.80000 F2100.000
G1 F1200.000
G1 X135.183 Y98.968 E0.02047
G1 X135.539 Y97.861 E0.03647
G1 X135.809 Y96.676 E0.03812
G1 X135.924 Y95.442 E0.03885
G1 X135.907 Y94.148 E0.04058
G1 X135.664 Y92.916 E0.03937
G1 X135.655 Y92.728 E0.00591
G1 X135.509 Y91.939 E0.02516
G1 X134.985 Y90.617 E0.04458
G1 X133.535 Y88.175 E0.08904
G1 X132.780 Y87.337 E0.03539
G1 X132.006 Y86.598 E0.03354
G1 X129.895 Y85.223 E0.07900
G1 X128.044 Y84.502 E0.06229
G1 X126.286 Y84.167 E0.05609
G1 X123.771 Y84.163 E0.07887
;WIPE_START
G1 F8640.000
G1 X126.286 Y84.167 E-0.58081
G1 X127.049 Y84.313 E-0.17919
;WIPE_END
G1 E-0.04000 F2100.000
G1 Z0.600 F10800.000
G1 X126.268 Y84.544
G1 Z0.200
G1 E0.80000 F2100.000
G1 F1200.000
G1 X127.923 Y84.860 E0.05282
G1 X129.740 Y85.567 E0.06114
G1 X131.758 Y86.883 E0.07555
G1 X132.505 Y87.595 E0.03236
G1 X133.221 Y88.384 E0.03339
G1 X134.653 Y90.797 E0.08796
G1 X135.151 Y92.059 E0.04256
G1 X135.282 Y92.780 E0.02298
G1 X135.288 Y92.959 E0.00559
G1 X135.534 Y94.204 E0.03980
G1 X135.548 Y95.417 E0.03805
G1 X135.439 Y96.605 E0.03739
G1 X135.177 Y97.755 E0.03698
G1 X134.863 Y98.741 E0.03246
;WIPE_START
G1 F8640.000
G1 X135.177 Y97.755 E-0.23903
G1 X135.439 Y96.605 E-0.27236
G1 X135.537 Y95.532 E-0.24862
;WIPE_END
G1 E-0.04000 F2100.000
G1 Z0.600 F10800.000
G1 X134.109 Y100.112
G1 Z0.200
G1 E0.80000 F2100.000
G1 F1200.000
G1 X133.459 Y101.271 E0.04167
G1 X132.535 Y102.391 E0.04552
G1 X131.554 Y103.277 E0.04145
G1 X130.598 Y103.946 E0.03660
G1 X129.309 Y104.635 E0.04582
G1 X128.295 Y104.990 E0.03368
G1 X129.721 Y105.557 E0.04809
G1 X130.779 Y106.166 E0.03828
G1 X131.610 Y106.764 E0.03211
G1 X132.743 Y107.823 E0.04861
G1 X133.247 Y108.427 E0.02469
G1 X134.109 Y109.879 E0.05295
;WIPE_START
G1 F8640.000
G1 X133.247 Y108.427 E-0.38992
G1 X132.743 Y107.823 E-0.18182
G1 X132.147 Y107.266 E-0.18827
;WIPE_END
G1 E-0.04000 F2100.000
G1 Z0.600 F10800.000
G1 X134.863 Y111.311
G1 Z0.200
G1 E0.80000 F2100.000
G1 F1200.000
G1 X135.053 Y111.764 E0.01540
G1 X135.379 Y113.062 E0.04196
G1 X135.521 Y114.074 E0.03204
G1 X135.550 Y115.358 E0.04025
G1 X135.438 Y116.609 E0.03940
G1 X135.049 Y118.232 E0.05233
G1 X134.738 Y119.025 E0.02669
G1 X133.455 Y121.268 E0.08102
G1 X132.704 Y122.218 E0.03797
G1 X131.550 Y123.280 E0.04918
G1 X130.457 Y124.038 E0.04171
G1 X129.599 Y124.502 E0.03057
G1 X128.596 Y124.926 E0.03414
G1 X127.407 Y125.279 E0.03890
G1 X126.140 Y125.459 E0.04010
G1 X123.217 Y125.399 E0.09167
G1 X121.367 Y124.913 E0.05999
G1 X119.680 Y124.122 E0.05843
G1 X118.687 Y123.457 E0.03747
G1 X117.647 Y122.572 E0.04282
G1 X116.645 Y121.420 E0.04786
G1 X115.335 Y119.183 E0.08127
G1 X114.877 Y117.996 E0.03989
G1 X114.603 Y116.834 E0.03745
G1 X114.472 Y115.823 E0.03195
G1 X114.452 Y114.584 E0.03887
G1 X114.565 Y113.374 E0.03810
G1 X115.065 Y111.430 E0.06292
G1 X115.136 Y111.275 E0.00536
;WIPE_START
G1 F8640.000
G1 X115.065 Y111.430 E-0.03944
G1 X114.565 Y113.374 E-0.46334
G1 X114.462 Y114.483 E-0.25722
;WIPE_END
G1 E-0.04000 F2100.000
G1 Z0.600 F10800.000
G1 X115.889 Y109.879
G1 Z0.200
G1 E0.80000 F2100.000
G1 F1200.000
G1 X116.677 Y108.543 E0.04863
G1 X117.345 Y107.731 E0.03295
G1 X118.441 Y106.726 E0.04662
G1 X119.743 Y105.842 E0.04935
G1 X120.569 Y105.421 E0.02906
G1 X121.670 Y105.004 E0.03694
G1 X120.228 Y104.415 E0.04885
G1 X118.299 Y103.162 E0.07211
G1 X117.269 Y102.189 E0.04445
G1 X116.753 Y101.583 E0.02496
G1 X115.886 Y100.116 E0.05341
;WIPE_START
G1 F8640.000
G1 X116.753 Y101.583 E-0.39330
G1 X117.269 Y102.189 E-0.18385
G1 X117.844 Y102.733 E-0.18285
;WIPE_END
G1 E-0.04000 F2100.000
G1 Z0.600 F10800.000
G1 X115.132 Y98.629
G1 Z0.200
G1 E0.80000 F2100.000
G1 F1200.000
G1 X114.785 Y97.666 E0.03209
G1 X114.543 Y96.460 E0.03858
G1 X114.441 Y95.173 E0.04048
G1 X114.556 Y93.440 E0.05446
G1 X114.909 Y91.895 E0.04969
G1 X115.120 Y91.288 E0.02014
G1 X115.476 Y90.575 E0.02500
G1 X116.522 Y88.764 E0.06556
G1 X117.091 Y88.004 E0.02977
G1 X117.764 Y87.313 E0.03023
G1 X118.830 Y86.433 E0.04336
G1 X119.857 Y85.779 E0.03818
G1 X120.956 Y85.250 E0.03823
G1 X121.689 Y84.979 E0.02448
G1 X122.468 Y84.761 E0.02538
G1 X123.786 Y84.540 E0.04191
G1 X126.268 Y84.544 E0.07782
;WIPE_START
G1 F8640.000
G1 X123.786 Y84.540 E-0.57308
G1 X122.988 Y84.674 E-0.18692
;WIPE_END
G1 E-0.04000 F2100.000
G1 Z0.600 F10800.000
G1 X123.801 Y84.918
G1 Z0.200
G1 E0.80000 F2100.000
G1 F1200.000
G1 X122.560 Y85.126 E0.03948
G1 X121.812 Y85.336 E0.02436
G1 X121.111 Y85.594 E0.02341
G1 X120.050 Y86.103 E0.03690
G1 X119.061 Y86.731 E0.03674
G1 X118.026 Y87.584 E0.04204
G1 X117.385 Y88.241 E0.02877
G1 X116.843 Y88.963 E0.02833
G1 X115.805 Y90.759 E0.06503
G1 X115.472 Y91.424 E0.02334
G1 X115.274 Y91.990 E0.01878
G1 X114.931 Y93.480 E0.04794
G1 X114.819 Y95.184 E0.05355
G1 X114.918 Y96.419 E0.03884
G1 X115.132 Y97.486 E0.03413
;WIPE_START
G1 F8640.000
G1 X114.918 Y96.419 E-0.25136
G1 X114.819 Y95.184 E-0.28603
G1 X114.882 Y94.222 E-0.22262
;WIPE_END
G1 E-0.04000 F2100.000
G1 Z0.600 F10800.000
G1 X115.886 Y99.374
G1 Z0.200
G1 E0.80000 F2100.000
G1 F1200.000
G1 X117.069 Y101.377 E0.07292
G1 X117.535 Y101.922 E0.02251
G1 X118.519 Y102.856 E0.04253
G1 X120.418 Y104.088 E0.07098
G1 X121.986 Y104.723 E0.05302
G1 X122.486 Y104.844 E0.01614
G1 X122.486 Y105.140 E0.00929
G1 X122.181 Y105.215 E0.00984
G1 X120.730 Y105.762 E0.04863
G1 X119.945 Y106.160 E0.02760
G1 X118.664 Y107.030 E0.04854
G1 X117.610 Y108.000 E0.04491
