; generated by PrusaSlicer 2.3.0+win64 on 2021-04-19 at 15:25:11 UTC

; 

; external perimeters extrusion width = 0.45mm
; perimeters extrusion width = 0.45mm
; infill extrusion width = 0.45mm
; solid infill extrusion width = 0.45mm
; top infill extrusion width = 0.40mm
; first layer extrusion width = 0.42mm

M73 P0 R35
M73 Q0 S35
M201 X1000 Y1000 Z200 E5000 ; sets maximum accelerations, mm/sec^2
M203 X200 Y200 Z12 E120 ; sets maximum feedrates, mm/sec
M204 P1250 R1250 T1250 ; sets acceleration (P, T) and retract acceleration (R), mm/sec^2
M205 X8.00 Y8.00 Z0.40 E4.50 ; sets the jerk limits, mm/sec
M205 S0 T0 ; sets the minimum extruding and travel feed rate, mm/sec
M107
;TYPE:Custom
M862.3 P "MK3S" ; printer model check
M862.1 P0.4 ; nozzle diameter check
M115 U3.9.2 ; tell printer latest fw version
G90 ; use absolute coordinates
M83 ; extruder relative mode
M104 S215 ; set extruder temp
M140 S60 ; set bed temp
M190 S60 ; wait for bed temp
M109 S215 ; wait for extruder temp
G28 W ; home all without mesh bed level
G80 ; mesh bed leveling
G1 Y-3.0 F1000.0 ; go outside print area
G92 E0.0
G1 X60.0 E9.0 F1000.0 ; intro line
G1 X100.0 E12.5 F1000.0 ; intro line
G92 E0.0
M221 S95

; Don't change E values below. Excessive value can damage the printer.
M907 E430 ; set extruder motor current
G21 ; set units to millimeters
G90 ; use absolute coordinates
M83 ; use relative distances for extrusion
M900 K0.05 ; Filament gcode LA 1.5
M900 K30 ; Filament gcode LA 1.0
;LAYER_CHANGE
;Z:0.2
;HEIGHT:0.2
;BEFORE_LAYER_CHANGE
G92 E0.0
;0.2


G1 E-0.80000 F2100.000
G1 Z0.400 F10800.000
;AFTER_LAYER_CHANGE
;0.2
G1 X122.186 Y81.782
G1 Z0.200
G1 E0.80000 F2100.000
M204 S1000
;TYPE:Skirt
;WIDTH:0.42
G1 F1200.000
G1 X127.384 Y81.746 E0.16296
G1 X128.160 Y81.859 E0.02460
G1 X129.216 Y82.288 E0.03572
G1 X130.508 Y83.068 E0.04734
G1 X131.443 Y83.802 E0.03727
G1 X131.811 Y84.288 E0.01912
G1 X134.198 Y88.420 E0.14961
G1 X134.501 Y89.256 E0.02790
G1 X134.647 Y90.189 E0.02959
G1 X134.675 Y91.141 E0.02985
G1 X134.675 Y119.160 E0.87851
G1 X134.602 Y120.161 E0.03148
G1 X134.483 Y120.884 E0.02296
G1 X134.274 Y121.439 E0.01860
G1 X131.786 Y125.749 E0.15602
G1 X131.058 Y126.540 E0.03372
G1 X129.978 Y127.297 E0.04134
G1 X128.597 Y127.983 E0.04835
G1 X127.662 Y128.233 E0.03036
G1 X122.327 Y128.238 E0.16726
G1 X121.593 Y128.057 E0.02370
G1 X120.210 Y127.410 E0.04789
G1 X119.069 Y126.645 E0.04308
G1 X118.493 Y126.129 E0.02425
G1 X118.182 Y125.702 E0.01656
G1 X115.782 Y121.544 E0.15050
G1 X115.437 Y120.456 E0.03581
G1 X115.325 Y118.849 E0.05050
G1 X115.319 Y90.988 E0.87356
G1 X115.425 Y89.592 E0.04391
G1 X115.546 Y89.012 E0.01859
G1 X115.744 Y88.526 E0.01643
G1 X118.219 Y84.238 E0.15524
G1 X118.695 Y83.663 E0.02343
G1 X119.515 Y83.028 E0.03251
G1 X121.054 Y82.168 E0.05528
G1 X122.130 Y81.801 E0.03563
G1 X122.251 Y82.155 F10800.000
G1 F1200.000
G1 X127.384 Y82.123 E0.16094
G1 X128.070 Y82.225 E0.02178
G1 X129.056 Y82.630 E0.03339
G1 X130.298 Y83.381 E0.04554
G1 X131.181 Y84.074 E0.03517
G1 X131.489 Y84.484 E0.01609
G1 X133.868 Y88.603 E0.14914
G1 X134.133 Y89.341 E0.02461
G1 X134.272 Y90.229 E0.02815
G1 X134.298 Y91.146 E0.02877
G1 X134.298 Y119.159 E0.87834
G1 X134.227 Y120.127 E0.03042
G1 X134.118 Y120.788 E0.02101
G1 X133.933 Y121.279 E0.01645
G1 X131.467 Y125.548 E0.15459
G1 X130.800 Y126.264 E0.03066
G1 X129.762 Y126.988 E0.03969
G1 X128.456 Y127.633 E0.04568
G1 X127.605 Y127.861 E0.02761
G1 X122.368 Y127.863 E0.16422
G1 X121.722 Y127.703 E0.02086
G1 X120.384 Y127.076 E0.04631
G1 X119.296 Y126.344 E0.04111
G1 X118.767 Y125.870 E0.02229
G1 X116.116 Y121.368 E0.16382
G1 X115.805 Y120.375 E0.03262
G1 X115.702 Y118.858 E0.04766
G1 X115.696 Y91.000 E0.87346
G1 X115.800 Y89.630 E0.04308
G1 X116.082 Y88.692 E0.03071
G1 X118.542 Y84.432 E0.15424
G1 X118.963 Y83.928 E0.02060
G1 X119.733 Y83.336 E0.03044
G1 X121.208 Y82.512 E0.05297
G1 X122.194 Y82.174 E0.03269
; printing object m8-v2-NUT JOB copy.stl id:0 copy 0
;WIPE_START
G1 F8640.000
G1 X125.485 Y82.142 E-0.76000
;WIPE_END
G1 E-0.04000 F2100.000
G1 Z0.600 F10800.000
G1 X129.345 Y115.141
G1 Z0.200
G1 E0.80000 F2100.000
;TYPE:Perimeter
G1 F1200.000
G1 X129.413 Y115.230 E0.00353
G1 X130.448 Y117.008 E0.06449
G1 X130.513 Y117.160 E0.00521
G1 X130.736 Y118.059 E0.02904
G1 X130.794 Y118.523 E0.01466
G1 X130.805 Y119.208 E0.02148
G1 X130.738 Y119.925 E0.02257
G1 X130.494 Y120.886 E0.03108
G1 X130.444 Y121.000 E0.00391
G1 X129.466 Y122.693 E0.06128
G1 X129.308 Y122.895 E0.00806
G1 X128.652 Y123.518 E0.02838
G1 X127.893 Y124.040 E0.02887
G1 X127.540 Y124.226 E0.01250
G1 X127.097 Y124.420 E0.01518
G1 X126.231 Y124.676 E0.02831
G1 X125.991 Y124.712 E0.00761
G1 X124.008 Y124.712 E0.06217
G1 X122.942 Y124.433 E0.03456
G1 X122.082 Y124.026 E0.02982
G1 X121.641 Y123.740 E0.01648
G1 X120.876 Y123.088 E0.03152
G1 X120.536 Y122.696 E0.01627
G1 X119.549 Y120.988 E0.06183
G1 X119.456 Y120.736 E0.00843
G1 X119.256 Y119.889 E0.02729
G1 X119.206 Y119.477 E0.01303
G1 X119.195 Y118.788 E0.02160
G1 X119.262 Y118.075 E0.02245
G1 X119.506 Y117.114 E0.03108
G1 X119.556 Y117.000 E0.00392
G1 X120.515 Y115.340 E0.06009
G1 X120.732 Y115.062 E0.01106
G1 X121.313 Y114.509 E0.02515
G1 X122.108 Y113.959 E0.03033
G1 X122.444 Y113.783 E0.01187
G1 X123.387 Y113.417 E0.03172
G1 X123.905 Y113.312 E0.01659
G1 X124.197 Y113.287 E0.00916
G1 X125.817 Y113.287 E0.05080
G1 X126.398 Y113.372 E0.01841
M73 Q1 S35
G1 X126.708 Y113.449 E0.01003
G1 X127.537 Y113.774 E0.02792
G1 X128.270 Y114.197 E0.02652
G1 X128.655 Y114.482 E0.01502
G1 X129.301 Y115.099 E0.02803
G1 X129.626 Y114.888 F10800.000
;TYPE:External perimeter
G1 F1200.000
G1 X129.727 Y115.019 E0.00519
G1 X130.786 Y116.838 E0.06600
M73 P1 R35
G1 X130.872 Y117.040 E0.00689
G1 X131.107 Y117.991 E0.03069
G1 X131.171 Y118.497 E0.01601
G1 X131.182 Y119.223 E0.02276
G1 X131.111 Y119.990 E0.02414
G1 X130.852 Y121.009 E0.03298
G1 X130.780 Y121.171 E0.00554
G1 X129.779 Y122.903 E0.06274
G1 X129.588 Y123.149 E0.00976
G1 X128.890 Y123.812 E0.03019
G1 X128.089 Y124.364 E0.03050
G1 X127.704 Y124.566 E0.01363
G1 X127.226 Y124.775 E0.01634
G1 X126.312 Y125.046 E0.02989
G1 X126.019 Y125.089 E0.00931
G1 X123.960 Y125.089 E0.06455
G1 X122.812 Y124.789 E0.03719
G1 X121.898 Y124.356 E0.03171
G1 X121.416 Y124.043 E0.01804
G1 X120.610 Y123.356 E0.03318
G1 X120.227 Y122.916 E0.01830
G1 X119.207 Y121.149 E0.06396
G1 X119.094 Y120.846 E0.01016
G1 X118.885 Y119.955 E0.02867
G1 X118.829 Y119.503 E0.01431
G1 X118.818 Y118.773 E0.02287
G1 X118.889 Y118.010 E0.02402
G1 X119.148 Y116.991 E0.03299
G1 X119.220 Y116.829 E0.00554
G1 X120.201 Y115.129 E0.06156
G1 X120.452 Y114.808 E0.01276
G1 X121.074 Y114.216 E0.02694
G1 X121.913 Y113.636 E0.03197
G1 X122.287 Y113.439 E0.01327
G1 X123.273 Y113.057 E0.03314
G1 X123.859 Y112.937 E0.01876
G1 X124.180 Y112.910 E0.01012
G1 X125.840 Y112.910 E0.05202
G1 X126.473 Y113.003 E0.02008
G1 X126.823 Y113.089 E0.01129
G1 X127.701 Y113.434 E0.02958
G1 X128.476 Y113.881 E0.02807
G1 X128.898 Y114.193 E0.01644
G1 X129.582 Y114.846 E0.02967
G1 X129.573 Y115.045 F10800.000
;WIPE_START
G1 F8640.000
G1 X129.727 Y115.019 E-0.05199
G1 X130.786 Y116.838 E-0.48606
G1 X130.872 Y117.040 E-0.05075
G1 X131.050 Y117.760 E-0.17120
;WIPE_END
G1 E-0.04000 F2100.000
G1 Z0.600 F10800.000
G1 X127.936 Y114.135
G1 Z0.200
G1 E0.80000 F2100.000
;TYPE:Solid infill
;WIDTH:0.42353
G1 F1200.000
G1 X129.141 Y115.340 E0.05392
G1 X129.913 Y116.650 E0.04812
G1 X127.214 Y113.952 E0.12079
G1 X126.622 Y113.720 E0.02013
G1 X126.385 Y113.661 E0.00773
G1 X130.333 Y117.609 E0.17670
G1 X130.458 Y118.111 E0.01638
G1 X130.480 Y118.294 E0.00584
G1 X125.756 Y113.570 E0.21145
G1 X125.218 Y113.570 E0.01703
G1 X130.517 Y118.869 E0.23716
G1 X130.522 Y119.198 E0.01041
G1 X130.503 Y119.394 E0.00624
G1 X124.679 Y113.570 E0.26067
G1 X124.146 Y113.575 E0.01687
G1 X130.457 Y119.885 E0.28242
G1 X130.347 Y120.314 E0.01401
G1 X123.679 Y113.646 E0.29844
G1 X123.467 Y113.690 E0.00687
G1 X123.263 Y113.768 E0.00690
G1 X130.238 Y120.744 E0.31218
G1 X130.191 Y120.872 E0.00434
G1 X130.058 Y121.102 E0.00839
G1 X122.875 Y113.919 E0.32149
G1 X122.494 Y114.076 E0.01305
G1 X129.861 Y121.443 E0.32973
G1 X129.664 Y121.784 E0.01247
G1 X122.152 Y114.272 E0.33621
G1 X121.834 Y114.492 E0.01224
G1 X129.467 Y122.125 E0.34162
G1 X129.270 Y122.466 E0.01247
G1 X121.516 Y114.713 E0.34703
G1 X121.237 Y114.972 E0.01205
G1 X129.032 Y122.767 E0.34890
G1 X128.756 Y123.029 E0.01205
G1 X120.961 Y115.234 E0.34889
G1 X120.727 Y115.538 E0.01215
G1 X128.480 Y123.291 E0.34700
G1 X128.162 Y123.512 E0.01224
G1 X120.530 Y115.880 E0.34160
G1 X120.333 Y116.221 E0.01247
G1 X127.843 Y123.731 E0.33615
G1 X127.501 Y123.927 E0.01249
G1 X120.136 Y116.562 E0.32964
G1 X119.939 Y116.903 E0.01247
G1 X127.131 Y124.096 E0.32192
G1 X126.731 Y124.233 E0.01341
G1 X119.760 Y117.263 E0.31198
G1 X119.651 Y117.692 E0.01401
G1 X126.315 Y124.356 E0.29828
G1 X126.170 Y124.399 E0.00480
G1 X125.850 Y124.429 E0.01018
G1 X119.542 Y118.121 E0.28232
G1 X119.496 Y118.613 E0.01564
G1 X125.312 Y124.429 E0.26031
G1 X124.774 Y124.429 E0.01703
G1 X119.484 Y119.139 E0.23676
G1 X119.489 Y119.457 E0.01006
G1 X119.520 Y119.714 E0.00818
G1 X124.235 Y124.429 E0.21105
G1 X124.045 Y124.430 E0.00604
G1 X123.574 Y124.306 E0.01540
G1 X119.667 Y120.399 E0.17485
G1 X119.727 Y120.654 E0.00829
G1 X119.806 Y120.868 E0.00720
G1 X120.092 Y121.363 E0.01809
G1 X122.766 Y124.037 E0.11968
G1 X122.220 Y123.778 E0.01910
G1 X121.811 Y123.512 E0.01546
G1 X121.087 Y122.896 E0.03009
G1 X120.365 Y122.173 E0.03234
;WIPE_START
G1 F8640.000
G1 X121.087 Y122.896 E-0.23595
G1 X121.811 Y123.512 E-0.21953
G1 X122.220 Y123.778 E-0.11277
G1 X122.766 Y124.037 E-0.13939
G1 X122.606 Y123.876 E-0.05237
;WIPE_END
G1 E-0.04000 F2100.000
G1 Z0.600 F10800.000
G1 X124.404 Y96.402
G1 Z0.200
G1 E0.80000 F2100.000
;TYPE:Perimeter
;WIDTH:0.42
G1 F1200.000
G1 X123.805 Y96.302 E0.01907
G1 X123.288 Y96.156 E0.01682
G1 X122.658 Y95.905 E0.02127
G1 X122.120 Y95.610 E0.01925
G1 X121.607 Y95.248 E0.01967
G1 X121.170 Y94.857 E0.01840
G1 X120.754 Y94.396 E0.01945
G1 X120.357 Y93.814 E0.02211
G1 X120.105 Y93.367 E0.01607
G1 X119.873 Y92.838 E0.01812
G1 X119.666 Y92.279 E0.01870
G1 X119.517 Y91.677 E0.01945
G1 X119.437 Y91.058 E0.01954
G1 X119.427 Y90.431 E0.01968
G1 X119.488 Y89.801 E0.01982
G1 X119.577 Y89.386 E0.01332
G1 X119.689 Y89.082 E0.01015
G1 X119.968 Y88.526 E0.01950
G1 X120.314 Y87.990 E0.02001
G1 X120.712 Y87.508 E0.01961
G1 X121.157 Y87.077 E0.01941
G1 X121.637 Y86.709 E0.01897
G1 X122.083 Y86.415 E0.01674
G1 X122.635 Y86.105 E0.01985
G1 X123.170 Y85.882 E0.01819
G1 X123.755 Y85.710 E0.01911
G1 X124.380 Y85.599 E0.01990
G1 X124.967 Y85.565 E0.01844
G1 X125.575 Y85.596 E0.01909
G1 X126.165 Y85.692 E0.01875
G1 X126.754 Y85.856 E0.01916
G1 X127.359 Y86.105 E0.02051
G1 X127.857 Y86.377 E0.01779
G1 X128.483 Y86.833 E0.02429
G1 X128.803 Y87.118 E0.01343
G1 X129.213 Y87.567 E0.01906
G1 X129.581 Y88.075 E0.01966
G1 X129.884 Y88.613 E0.01936
G1 X130.160 Y89.300 E0.02324
G1 X130.292 Y89.760 E0.01499
G1 X130.400 Y90.372 E0.01948
G1 X130.435 Y90.954 E0.01828
G1 X130.406 Y91.565 E0.01919
G1 X130.282 Y92.269 E0.02242
G1 X130.145 Y92.753 E0.01577
G1 X129.916 Y93.317 E0.01908
G1 X129.626 Y93.854 E0.01915
G1 X129.276 Y94.354 E0.01912
G1 X128.874 Y94.812 E0.01911
G1 X128.421 Y95.223 E0.01917
G1 X127.895 Y95.600 E0.02030
G1 X127.438 Y95.855 E0.01641
G1 X126.808 Y96.125 E0.02148
G1 X126.221 Y96.296 E0.01919
G1 X125.602 Y96.402 E0.01970
G1 X125.011 Y96.435 E0.01854
G1 X124.464 Y96.405 E0.01718
G1 X124.485 Y96.029 F10800.000
;TYPE:External perimeter
G1 F1200.000
G1 X123.887 Y95.933 E0.01897
G1 X123.410 Y95.798 E0.01556
G1 X122.819 Y95.563 E0.01993
G1 X122.320 Y95.289 E0.01785
G1 X121.842 Y94.952 E0.01832
G1 X121.436 Y94.589 E0.01708
G1 X121.051 Y94.162 E0.01802
G1 X120.677 Y93.614 E0.02081
G1 X120.443 Y93.199 E0.01497
G1 X120.222 Y92.697 E0.01717
G1 X120.027 Y92.168 E0.01769
G1 X119.888 Y91.607 E0.01811
G1 X119.814 Y91.031 E0.01821
G1 X119.805 Y90.446 E0.01835
G1 X119.862 Y89.859 E0.01848
G1 X119.940 Y89.491 E0.01180
G1 X120.036 Y89.232 E0.00864
G1 X120.295 Y88.714 E0.01820
G1 X120.619 Y88.213 E0.01868
G1 X120.990 Y87.764 E0.01826
G1 X121.404 Y87.363 E0.01808
G1 X121.856 Y87.016 E0.01786
G1 X122.279 Y86.737 E0.01590
G1 X122.800 Y86.444 E0.01873
G1 X123.296 Y86.238 E0.01685
G1 X123.841 Y86.078 E0.01782
G1 X124.424 Y85.974 E0.01854
G1 X124.969 Y85.943 E0.01713
G1 X125.535 Y85.972 E0.01778
G1 X126.084 Y86.061 E0.01744
G1 X126.631 Y86.213 E0.01780
G1 X127.197 Y86.446 E0.01917
G1 X127.655 Y86.696 E0.01637
G1 X128.246 Y87.127 E0.02293
G1 X128.537 Y87.387 E0.01224
G1 X128.920 Y87.806 E0.01779
G1 X129.263 Y88.278 E0.01831
G1 X129.543 Y88.776 E0.01790
G1 X129.803 Y89.423 E0.02186
G1 X129.924 Y89.845 E0.01377
G1 X130.025 Y90.416 E0.01818
G1 X130.058 Y90.956 E0.01696
G1 X130.031 Y91.523 E0.01780
G1 X129.914 Y92.185 E0.02106
G1 X129.787 Y92.630 E0.01452
G1 X129.575 Y93.156 E0.01778
G1 X129.304 Y93.656 E0.01782
G1 X128.979 Y94.121 E0.01780
G1 X128.605 Y94.547 E0.01779
G1 X128.184 Y94.929 E0.01782
G1 X127.693 Y95.281 E0.01895
G1 X127.271 Y95.516 E0.01513
G1 X126.681 Y95.769 E0.02014
G1 X126.136 Y95.928 E0.01780
G1 X125.559 Y96.027 E0.01835
G1 X125.011 Y96.057 E0.01721
G1 X124.545 Y96.032 E0.01465
G1 X124.249 Y96.352 F10800.000
;WIPE_START
G1 F8640.000
G1 X123.887 Y95.933 E-0.15347
G1 X123.410 Y95.798 E-0.11461
G1 X122.819 Y95.563 E-0.14680
G1 X122.320 Y95.289 E-0.13145
G1 X121.842 Y94.952 E-0.13495
G1 X121.588 Y94.725 E-0.07872
;WIPE_END
G1 E-0.04000 F2100.000
G1 Z0.600 F10800.000
G1 X125.974 Y96.713
G1 Z0.200
G1 E0.80000 F2100.000
;TYPE:Perimeter
G1 F1200.000
G1 X124.003 Y96.713 E0.06180
G1 X123.407 Y96.588 E0.01908
G1 X122.535 Y96.260 E0.02921
G1 X121.315 Y95.492 E0.04522
G1 X120.654 Y94.859 E0.02868
G1 X120.572 Y94.759 E0.00404
G1 X119.556 Y92.999 E0.06373
G1 X119.390 Y92.508 E0.01624
G1 X119.260 Y91.908 E0.01926
G1 X119.188 Y91.012 E0.02819
M73 Q2 S35
G1 X119.263 Y90.067 E0.02973
G1 X119.487 Y89.156 E0.02941
G1 X120.552 Y87.277 E0.06773
G1 X120.650 Y87.147 E0.00509
G1 X121.044 Y86.746 E0.01763
G1 X121.698 Y86.218 E0.02635
M73 P2 R35
G1 X122.085 Y85.972 E0.01437
G1 X122.930 Y85.570 E0.02934
G1 X123.591 Y85.373 E0.02162
G1 X124.027 Y85.287 E0.01395
G1 X125.973 Y85.287 E0.06102
G1 X126.469 Y85.383 E0.01584
G1 X127.478 Y85.746 E0.03362
G1 X128.679 Y86.504 E0.04453
G1 X129.144 Y86.947 E0.02013
G1 X129.436 Y87.257 E0.01335
G1 X130.443 Y89.023 E0.06375
G1 X130.794 Y90.562 E0.04951
G1 X130.803 Y91.267 E0.02211
G1 X130.738 Y91.927 E0.02076
G1 X130.583 Y92.562 E0.02051
G1 X130.460 Y92.972 E0.01341
G1 X129.462 Y94.700 E0.06258
G1 X129.125 Y95.088 E0.01610
G1 X128.812 Y95.380 E0.01343
G1 X128.658 Y95.515 E0.00640
G1 X128.138 Y95.886 E0.02004
G1 X127.307 Y96.328 E0.02952
G1 X126.474 Y96.616 E0.02763
G1 X126.033 Y96.702 E0.01410
G1 X126.104 Y97.072 F10800.000
;TYPE:External perimeter
G1 F1200.000
G1 X126.010 Y97.090 E0.00301
G1 X123.972 Y97.090 E0.06390
G1 X123.672 Y97.041 E0.00952
G1 X123.296 Y96.949 E0.01214
G1 X122.367 Y96.600 E0.03114
G1 X121.082 Y95.790 E0.04761
G1 X120.377 Y95.116 E0.03060
G1 X120.261 Y94.974 E0.00572
G1 X119.211 Y93.155 E0.06586
G1 X119.026 Y92.609 E0.01808
G1 X118.886 Y91.963 E0.02071
G1 X118.810 Y91.012 E0.02992
G1 X118.890 Y90.007 E0.03163
G1 X119.126 Y89.044 E0.03108
G1 X119.160 Y88.955 E0.00297
G1 X120.237 Y87.069 E0.06810
G1 X120.364 Y86.900 E0.00662
G1 X120.791 Y86.467 E0.01909
G1 X121.478 Y85.911 E0.02770
G1 X121.902 Y85.641 E0.01577
G1 X122.794 Y85.217 E0.03098
G1 X123.500 Y85.007 E0.02309
G1 X123.990 Y84.910 E0.01566
G1 X126.009 Y84.910 E0.06331
G1 X126.570 Y85.018 E0.01789
G1 X127.644 Y85.405 E0.03582
G1 X128.912 Y86.205 E0.04699
G1 X129.411 Y86.681 E0.02163
G1 X129.741 Y87.031 E0.01508
G1 X130.798 Y88.885 E0.06691
G1 X131.171 Y90.518 E0.05252
G1 X131.180 Y91.284 E0.02402
G1 X131.111 Y91.990 E0.02226
G1 X130.947 Y92.661 E0.02166
G1 X130.808 Y93.122 E0.01510
G1 X129.770 Y94.920 E0.06509
G1 X129.397 Y95.350 E0.01785
G1 X129.065 Y95.661 E0.01425
G1 X128.892 Y95.811 E0.00717
G1 X128.337 Y96.207 E0.02139
G1 X127.458 Y96.674 E0.03121
G1 X126.572 Y96.981 E0.02940
