; generated by PrusaSlicer 2.3.0+win64 on 2021-04-19 at 16:30:23 UTC

; 

; external perimeters extrusion width = 0.45mm
; perimeters extrusion width = 0.45mm
; infill extrusion width = 0.45mm
; solid infill extrusion width = 0.45mm
; top infill extrusion width = 0.40mm
; first layer extrusion width = 0.42mm

M73 P0 R28
M73 Q0 S28
M201 X1000 Y1000 Z200 E5000 ; sets maximum accelerations, mm/sec^2
M203 X200 Y200 Z12 E120 ; sets maximum feedrates, mm/sec
M204 P1250 R1250 T1250 ; sets acceleration (P, T) and retract acceleration (R), mm/sec^2
M205 X8.00 Y8.00 Z0.40 E4.50 ; sets the jerk limits, mm/sec
M205 S0 T0 ; sets the minimum extruding and travel feed rate, mm/sec
M107
;TYPE:Custom
M862.3 P "MK3S" ; printer model check
M862.1 P0.4 ; nozzle diameter check
M115 U3.9.2 ; tell printer latest fw version
G90 ; use absolute coordinates
M83 ; extruder relative mode
M104 S215 ; set extruder temp
M140 S60 ; set bed temp
M190 S60 ; wait for bed temp
M109 S215 ; wait for extruder temp
G28 W ; home all without mesh bed level
G80 ; mesh bed leveling
G1 Y-3.0 F1000.0 ; go outside print area
G92 E0.0
G1 X60.0 E9.0 F1000.0 ; intro line
G1 X100.0 E12.5 F1000.0 ; intro line
G92 E0.0
M221 S95

; Don't change E values below. Excessive value can damage the printer.
M907 E430 ; set extruder motor current
G21 ; set units to millimeters
G90 ; use absolute coordinates
M83 ; use relative distances for extrusion
M900 K0.05 ; Filament gcode LA 1.5
M900 K30 ; Filament gcode LA 1.0
;LAYER_CHANGE
;Z:0.2
;HEIGHT:0.2
;BEFORE_LAYER_CHANGE
G92 E0.0
;0.2


G1 E-0.80000 F2100.000
G1 Z0.400 F10800.000
;AFTER_LAYER_CHANGE
;0.2
G1 X122.003 Y81.776
G1 Z0.200
G1 E0.80000 F2100.000
M204 S1000
;TYPE:Skirt
;WIDTH:0.42
G1 F1200.000
G1 X127.592 Y81.746 E0.17524
G1 X128.345 Y81.852 E0.02383
G1 X129.244 Y82.218 E0.03045
G1 X130.475 Y82.954 E0.04496
G1 X131.374 Y83.658 E0.03581
G1 X131.708 Y84.108 E0.01758
G1 X134.305 Y88.606 E0.16283
G1 X134.609 Y89.451 E0.02816
G1 X134.723 Y90.203 E0.02387
G1 X134.751 Y91.128 E0.02902
G1 X134.751 Y119.140 E0.87828
G1 X134.661 Y120.329 E0.03740
G1 X134.357 Y121.302 E0.03195
G1 X131.644 Y125.991 E0.16986
G1 X131.060 Y126.633 E0.02721
G1 X129.968 Y127.393 E0.04173
G1 X128.651 Y128.041 E0.04602
G1 X127.875 Y128.238 E0.02509
G1 X122.114 Y128.235 E0.18065
G1 X121.432 Y128.064 E0.02205
G1 X120.173 Y127.475 E0.04358
G1 X119.020 Y126.699 E0.04358
G1 X118.579 Y126.290 E0.01886
G1 X115.674 Y121.357 E0.17949
G1 X115.358 Y120.436 E0.03055
G1 X115.249 Y118.869 E0.04924
G1 X115.244 Y90.992 E0.87405
G1 X115.339 Y89.681 E0.04123
G1 X115.641 Y88.712 E0.03183
G1 X118.315 Y84.071 E0.16792
G1 X118.760 Y83.522 E0.02218
G1 X119.479 Y82.962 E0.02857
G1 X120.963 Y82.126 E0.05340
G1 X121.946 Y81.795 E0.03254
;WIPE_START
G1 F8640.000
G1 X125.238 Y81.766 E-0.76000
;WIPE_END
G1 E-0.04000 F2100.000
G1 Z0.600 F10800.000
G1 X131.109 Y83.926
G1 Z0.200
G1 E0.80000 F2100.000
G1 F1200.000
G1 X133.975 Y88.788 E0.17697
G1 X134.241 Y89.539 E0.02496
G1 X134.374 Y91.129 E0.05005
G1 X134.374 Y119.139 E0.87823
G1 X134.286 Y120.290 E0.03617
G1 X134.019 Y121.135 E0.02778
G1 X131.328 Y125.786 E0.16849
G1 X130.807 Y126.353 E0.02414
G1 X129.758 Y127.079 E0.04002
G1 X128.515 Y127.690 E0.04342
G1 X127.824 Y127.865 E0.02235
G1 X122.156 Y127.860 E0.17772
G1 X121.559 Y127.709 E0.01929
G1 X120.347 Y127.141 E0.04197
G1 X119.244 Y126.396 E0.04174
G1 X118.855 Y126.033 E0.01668
G1 X116.004 Y121.176 E0.17659
G1 X115.727 Y120.355 E0.02717
G1 X115.626 Y118.869 E0.04670
G1 X115.621 Y90.993 E0.87403
M73 P1 R28
M73 Q1 S28
G1 X115.715 Y89.709 E0.04037
G1 X115.982 Y88.864 E0.02778
G1 X118.680 Y84.201 E0.16891
G1 X119.150 Y83.680 E0.02201
G1 X120.221 Y82.934 E0.04091
G1 X121.503 Y82.303 E0.04479
G1 X122.150 Y82.137 E0.02095
G1 X127.592 Y82.123 E0.17062
G1 X128.257 Y82.219 E0.02107
G1 X129.085 Y82.560 E0.02807
G1 X130.262 Y83.266 E0.04304
G1 X131.062 Y83.889 E0.03179
;WIPE_START
G1 F8640.000
G1 X132.744 Y86.718 E-0.76000
;WIPE_END
G1 E-0.04000 F2100.000
G1 Z0.600 F10800.000
G1 X126.304 Y79.790
G1 Z0.200
G1 E0.80000 F2100.000
G1 F1200.000
G1 X128.167 Y80.145 E0.05945
G1 X130.191 Y80.951 E0.06831
G1 X132.253 Y82.314 E0.07750
G1 X133.034 Y83.057 E0.03380
G1 X133.755 Y83.839 E0.03335
G1 X135.317 Y86.437 E0.09505
G1 X135.899 Y87.936 E0.05042
G1 X136.031 Y88.687 E0.02389
G1 X136.041 Y88.876 E0.00596
G1 X136.291 Y90.196 E0.04212
G1 X136.302 Y91.428 E0.03862
G1 X136.195 Y92.646 E0.03834
G1 X135.914 Y93.920 E0.04092
G1 X135.568 Y95.028 E0.03639
G1 X134.939 Y96.159 E0.04057
;WIPE_START
G1 F8640.000
G1 X135.568 Y95.028 E-0.29878
G1 X135.914 Y93.920 E-0.26801
G1 X136.094 Y93.103 E-0.19322
;WIPE_END
G1 E-0.04000 F2100.000
G1 Z0.600 F10800.000
G1 X134.185 Y97.517
G1 Z0.200
G1 E0.80000 F2100.000
G1 F1200.000
G1 X134.101 Y97.668 E0.00543
G1 X133.119 Y98.871 E0.04868
G1 X131.966 Y99.913 E0.04873
G1 X130.935 Y100.624 E0.03927
G1 X129.666 Y101.302 E0.04510
G1 X127.721 Y101.977 E0.06455
G1 X126.199 Y102.215 E0.04830
G1 X123.062 Y102.142 E0.09840
G1 X121.598 Y101.787 E0.04723
G1 X119.812 Y101.048 E0.06058
G1 X117.749 Y99.689 E0.07746
G1 X116.734 Y98.722 E0.04396
G1 X116.199 Y98.104 E0.02565
G1 X115.811 Y97.454 E0.02373
;WIPE_START
G1 F8640.000
G1 X116.199 Y98.104 E-0.17478
G1 X116.734 Y98.722 E-0.18887
G1 X117.749 Y99.689 E-0.32371
G1 X118.012 Y99.862 E-0.07263
;WIPE_END
G1 E-0.04000 F2100.000
G1 Z0.600 F10800.000
G1 X115.057 Y96.188
G1 Z0.200
G1 E0.80000 F2100.000
G1 F1200.000
G1 X114.658 Y95.519 E0.02443
G1 X114.044 Y93.814 E0.05680
G1 X113.793 Y92.542 E0.04065
G1 X113.688 Y91.233 E0.04117
G1 X113.810 Y89.331 E0.05977
G1 X114.178 Y87.707 E0.05223
G1 X114.416 Y87.018 E0.02285
G1 X114.817 Y86.207 E0.02835
G1 X115.880 Y84.368 E0.06662
G1 X116.502 Y83.533 E0.03263
G1 X117.237 Y82.773 E0.03316
G1 X118.368 Y81.837 E0.04602
G1 X119.471 Y81.131 E0.04107
G1 X120.645 Y80.563 E0.04089
G1 X121.441 Y80.267 E0.02663
G1 X122.283 Y80.029 E0.02743
G1 X123.756 Y79.786 E0.04679
G1 X126.304 Y79.790 E0.07991
;WIPE_START
G1 F8640.000
G1 X123.756 Y79.786 E-0.58851
G1 X123.023 Y79.907 E-0.17149
;WIPE_END
G1 E-0.04000 F2100.000
G1 Z0.600 F10800.000
G1 X123.771 Y80.163
G1 Z0.200
G1 E0.80000 F2100.000
G1 F1200.000
G1 X126.286 Y80.167 E0.07887
G1 X128.045 Y80.502 E0.05613
G1 X130.000 Y81.277 E0.06594
G1 X132.006 Y82.598 E0.07531
G1 X132.761 Y83.317 E0.03269
G1 X133.465 Y84.080 E0.03255
G1 X134.985 Y86.617 E0.09274
G1 X135.531 Y88.019 E0.04718
G1 X135.657 Y88.739 E0.02290
G1 X135.665 Y88.920 E0.00569
G1 X135.914 Y90.217 E0.04141
G1 X135.926 Y91.404 E0.03722
G1 X135.821 Y92.601 E0.03766
G1 X135.547 Y93.831 E0.03951
G1 X135.214 Y94.897 E0.03504
G1 X134.939 Y95.389 E0.01768
;WIPE_START
G1 F8640.000
G1 X135.214 Y94.897 E-0.13017
G1 X135.547 Y93.831 E-0.25804
G1 X135.821 Y92.601 E-0.29093
G1 X135.851 Y92.252 E-0.08087
;WIPE_END
G1 E-0.04000 F2100.000
G1 Z0.600 F10800.000
G1 X134.185 Y96.743
G1 Z0.200
G1 E0.80000 F2100.000
G1 F1200.000
G1 X133.780 Y97.470 E0.02610
G1 X132.856 Y98.601 E0.04580
G1 X131.741 Y99.610 E0.04713
G1 X130.748 Y100.296 E0.03787
G1 X129.501 Y100.962 E0.04430
G1 X127.645 Y101.607 E0.06161
G1 X126.190 Y101.838 E0.04619
G1 X123.130 Y101.771 E0.09597
G1 X121.728 Y101.432 E0.04524
G1 X120.004 Y100.723 E0.05843
G1 X117.997 Y99.404 E0.07530
G1 X117.001 Y98.455 E0.04313
G1 X116.495 Y97.870 E0.02427
G1 X115.811 Y96.720 E0.04195
;WIPE_START
G1 F8640.000
G1 X116.495 Y97.870 E-0.30892
G1 X117.001 Y98.455 E-0.17871
G1 X117.855 Y99.269 E-0.27236
;WIPE_END
G1 E-0.04000 F2100.000
G1 Z0.600 F10800.000
G1 X115.057 Y95.452
G1 Z0.200
G1 E0.80000 F2100.000
G1 F1200.000
G1 X114.991 Y95.342 E0.00401
G1 X114.411 Y93.727 E0.05379
G1 X114.168 Y92.501 E0.03919
G1 X114.065 Y91.217 E0.04040
G1 X114.181 Y89.400 E0.05708
G1 X114.544 Y87.800 E0.05143
G1 X114.768 Y87.153 E0.02149
G1 X115.146 Y86.391 E0.02667
G1 X116.201 Y84.566 E0.06609
G1 X116.797 Y83.768 E0.03121
G1 X117.501 Y83.043 E0.03170
G1 X118.599 Y82.135 E0.04469
G1 X119.664 Y81.455 E0.03963
G1 X120.801 Y80.907 E0.03956
G1 X121.565 Y80.623 E0.02555
G1 X122.375 Y80.395 E0.02640
G1 X123.771 Y80.163 E0.04435
;WIPE_START
G1 F8640.000
G1 X122.375 Y80.395 E-0.32658
G1 X121.565 Y80.623 E-0.19443
G1 X120.801 Y80.907 E-0.18819
G1 X120.603 Y81.002 E-0.05080
;WIPE_END
G1 E-0.04000 F2100.000
G1 Z0.600 F10800.000
G1 X126.268 Y80.544
G1 Z0.200
G1 E0.80000 F2100.000
G1 F1200.000
G1 X127.923 Y80.860 E0.05283
G1 X129.809 Y81.603 E0.06357
G1 X131.758 Y82.883 E0.07311
G1 X132.488 Y83.577 E0.03158
G1 X133.174 Y84.322 E0.03174
G1 X134.653 Y86.797 E0.09040
G1 X135.173 Y88.137 E0.04508
G1 X135.283 Y88.788 E0.02070
G1 X135.289 Y88.962 E0.00546
G1 X135.537 Y90.238 E0.04075
G1 X135.548 Y91.398 E0.03638
G1 X135.446 Y92.555 E0.03640
G1 X135.181 Y93.740 E0.03809
G1 X134.939 Y94.512 E0.02536
;WIPE_START
G1 F8640.000
G1 X135.181 Y93.740 E-0.18673
G1 X135.446 Y92.555 E-0.28048
G1 X135.548 Y91.398 E-0.26807
G1 X135.547 Y91.291 E-0.02472
;WIPE_END
G1 E-0.04000 F2100.000
G1 Z0.600 F10800.000
G1 X134.185 Y95.972
G1 Z0.200
G1 E0.80000 F2100.000
G1 F1200.000
G1 X133.459 Y97.271 E0.04665
G1 X132.573 Y98.351 E0.04380
G1 X131.517 Y99.307 E0.04467
G1 X130.560 Y99.969 E0.03647
G1 X129.337 Y100.623 E0.04350
G1 X127.569 Y101.237 E0.05868
G1 X126.181 Y101.461 E0.04408
G1 X123.198 Y101.399 E0.09354
G1 X121.857 Y101.078 E0.04324
G1 X120.196 Y100.398 E0.05629
G1 X118.245 Y99.119 E0.07312
G1 X117.268 Y98.189 E0.04230
G1 X116.791 Y97.636 E0.02288
G1 X115.811 Y95.984 E0.06024
;WIPE_START
G1 F8640.000
G1 X116.791 Y97.636 E-0.44363
G1 X117.268 Y98.189 E-0.16848
G1 X117.732 Y98.631 E-0.14789
;WIPE_END
G1 E-0.04000 F2100.000
G1 Z0.600 F10800.000
G1 X115.056 Y94.417
G1 Z0.200
G1 E0.80000 F2100.000
G1 F1200.000
G1 X114.778 Y93.640 E0.02587
G1 X114.543 Y92.460 E0.03773
G1 X114.442 Y91.200 E0.03963
G1 X114.556 Y89.440 E0.05532
G1 X114.909 Y87.895 E0.04968
G1 X115.120 Y87.288 E0.02014
G1 X115.476 Y86.575 E0.02500
G1 X116.522 Y84.764 E0.06556
G1 X117.091 Y84.004 E0.02977
G1 X117.764 Y83.313 E0.03023
G1 X118.830 Y82.433 E0.04336
G1 X119.857 Y81.779 E0.03818
G1 X120.956 Y81.250 E0.03823
G1 X121.689 Y80.980 E0.02448
G1 X122.468 Y80.761 E0.02538
G1 X123.786 Y80.540 E0.04191
G1 X126.268 Y80.544 E0.07782
;WIPE_START
G1 F8640.000
G1 X123.786 Y80.540 E-0.57308
G1 X122.988 Y80.674 E-0.18692
;WIPE_END
G1 E-0.04000 F2100.000
G1 Z0.600 F10800.000
G1 X123.801 Y80.918
G1 Z0.200
G1 E0.80000 F2100.000
G1 F1200.000
G1 X126.250 Y80.921 E0.07677
G1 X127.802 Y81.217 E0.04955
G1 X129.619 Y81.929 E0.06120
G1 X131.511 Y83.168 E0.07089
M73 Q2 S28
G1 X132.223 Y83.846 E0.03085
G1 X132.884 Y84.563 E0.03054
G1 X134.321 Y86.976 E0.08808
M73 P2 R28
G1 X134.804 Y88.219 E0.04182
G1 X134.909 Y88.837 E0.01963
G1 X134.913 Y89.003 E0.00521
G1 X135.160 Y90.259 E0.04016
G1 X135.171 Y91.393 E0.03553
G1 X135.072 Y92.509 E0.03513
G1 X134.939 Y93.098 E0.01894
;WIPE_START
G1 F8640.000
G1 X135.072 Y92.509 E-0.13950
G1 X135.171 Y91.393 E-0.25873
G1 X135.160 Y90.259 E-0.26168
G1 X135.077 Y89.834 E-0.10008
;WIPE_END
G1 E-0.04000 F2100.000
G1 Z0.600 F10800.000
G1 X134.185 Y95.206
G1 Z0.200
G1 E0.80000 F2100.000
G1 F1200.000
G1 X133.138 Y97.071 E0.06707
G1 X132.291 Y98.100 E0.04179
G1 X131.292 Y99.004 E0.04224
G1 X130.373 Y99.641 E0.03507
G1 X129.172 Y100.283 E0.04269
G1 X127.461 Y100.876 E0.05677
G1 X126.171 Y101.083 E0.04097
G1 X123.265 Y101.028 E0.09112
G1 X121.985 Y100.723 E0.04126
G1 X120.386 Y100.072 E0.05413
G1 X118.492 Y98.834 E0.07093
G1 X117.535 Y97.922 E0.04146
G1 X117.088 Y97.403 E0.02148
G1 X115.811 Y95.246 E0.07861
;WIPE_START
G1 F8640.000
G1 X117.088 Y97.403 E-0.57893
G1 X117.535 Y97.922 E-0.15818
G1 X117.607 Y97.991 E-0.02289
;WIPE_END
G1 E-0.04000 F2100.000
G1 Z0.600 F10800.000
G1 X115.056 Y93.109
G1 Z0.200
G1 E0.80000 F2100.000
G1 F1200.000
G1 X114.918 Y92.419 E0.02209
G1 X114.819 Y91.184 E0.03884
G1 X114.931 Y89.480 E0.05355
G1 X115.274 Y87.990 E0.04794
G1 X115.472 Y87.425 E0.01878
G1 X115.805 Y86.759 E0.02334
G1 X116.843 Y84.963 E0.06503
G1 X117.385 Y84.241 E0.02833
G1 X118.026 Y83.584 E0.02876
G1 X119.061 Y82.731 E0.04204
G1 X120.050 Y82.103 E0.03674
G1 X121.111 Y81.594 E0.03690
G1 X121.812 Y81.336 E0.02341
G1 X122.560 Y81.126 E0.02436
G1 X123.801 Y80.918 E0.03948
;WIPE_START
G1 F8640.000
G1 X122.560 Y81.126 E-0.29072
G1 X121.812 Y81.336 E-0.17940
G1 X121.111 Y81.594 E-0.17242
G1 X120.652 Y81.814 E-0.11747
;WIPE_END
G1 E-0.04000 F2100.000
G1 Z0.600 F10800.000
G1 X122.316 Y81.586
G1 Z0.200
G1 E0.80000 F2100.000
G1 F1200.000
G1 X122.652 Y81.492 E0.01093
G1 X123.817 Y81.295 E0.03705
G1 X126.232 Y81.298 E0.07571
G1 X127.589 Y81.557 E0.04332
;WIPE_START
G1 F8640.000
G1 X126.232 Y81.298 E-0.31905
;WIPE_END
G1 E-0.48095 F2100.000
G1 Z0.600 F10800.000
G1 X131.894 Y84.054
G1 Z0.200
G1 E0.80000 F2100.000
M73 P2 R27
G1 F1200.000
G1 X132.593 Y84.803 E0.03214
G1 X133.989 Y87.155 E0.08575
G1 X134.435 Y88.301 E0.03857
G1 X134.472 Y88.519 E0.00691
;WIPE_START
G1 F8640.000
G1 X134.435 Y88.301 E-0.05086
G1 X133.989 Y87.155 E-0.28402
G1 X133.049 Y85.572 E-0.42512
;WIPE_END
G1 E-0.04000 F2100.000
G1 Z0.600 F10800.000
G1 X134.185 Y94.397
G1 Z0.200
G1 E0.80000 F2100.000
G1 F1200.000
G1 X134.152 Y94.502 E0.00344
G1 X132.818 Y96.872 E0.08527
G1 X132.010 Y97.849 E0.03979
G1 X131.067 Y98.701 E0.03984
G1 X130.185 Y99.314 E0.03366
G1 X129.007 Y99.943 E0.04187
G1 X127.384 Y100.506 E0.05387
G1 X126.160 Y100.706 E0.03888
G1 X123.332 Y100.656 E0.08869
G1 X122.113 Y100.368 E0.03927
G1 X120.577 Y99.746 E0.05198
G1 X118.740 Y98.549 E0.06873
G1 X117.802 Y97.656 E0.04061
G1 X117.385 Y97.170 E0.02007
G1 X115.992 Y94.812 E0.08586
G1 X115.811 Y94.302 E0.01697
;WIPE_START
G1 F8640.000
G1 X115.992 Y94.812 E-0.12500
G1 X117.385 Y97.170 E-0.63232
G1 X117.393 Y97.179 E-0.00268
;WIPE_END
G1 E-0.04000 F2100.000
G1 Z0.600 F10800.000
G1 X115.541 Y88.509
G1 Z0.200
G1 E0.80000 F2100.000
G1 F1200.000
G1 X115.639 Y88.085 E0.01363
G1 X115.823 Y87.561 E0.01742
G1 X116.134 Y86.943 E0.02171
G1 X117.163 Y85.162 E0.06449
G1 X117.679 Y84.477 E0.02686
G1 X118.127 Y84.020 E0.02006
;WIPE_START
G1 F8640.000
G1 X117.679 Y84.477 E-0.14771
G1 X117.163 Y85.162 E-0.19782
G1 X116.265 Y86.716 E-0.41447
;WIPE_END
G1 E-0.04000 F2100.000
G1 Z0.600 F10800.000
G1 X134.185 Y93.021
G1 Z0.200
G1 E0.80000 F2100.000
G1 F1200.000
G1 X134.083 Y93.467 E0.01435
G1 X133.798 Y94.369 E0.02967
G1 X132.498 Y96.671 E0.08289
G1 X131.746 Y97.579 E0.03695
G1 X130.841 Y98.399 E0.03830
G1 X129.998 Y98.987 E0.03224
G1 X128.843 Y99.604 E0.04105
G1 X127.276 Y100.144 E0.05197
G1 X126.149 Y100.329 E0.03580
G1 X123.398 Y100.284 E0.08627
G1 X122.240 Y100.013 E0.03729
G1 X120.766 Y99.419 E0.04982
G1 X118.987 Y98.264 E0.06651
G1 X118.069 Y97.390 E0.03976
G1 X117.682 Y96.938 E0.01865
G1 X116.326 Y94.637 E0.08375
G1 X115.879 Y93.377 E0.04192
G1 X115.810 Y93.039 E0.01081
;WIPE_START
G1 F8640.000
G1 X115.879 Y93.377 E-0.07961
G1 X116.326 Y94.637 E-0.30871
G1 X117.144 Y96.023 E-0.37168
;WIPE_END
G1 E-0.04000 F2100.000
G1 Z0.600 F10800.000
G1 X116.251 Y88.775
G1 Z0.200
G1 E0.80000 F2100.000
G1 F1200.000
G1 X116.057 Y89.603 E0.02667
G1 X115.950 Y91.135 E0.04816
G1 X116.043 Y92.294 E0.03644
G1 X116.246 Y93.289 E0.03184
G1 X116.661 Y94.461 E0.03900
G1 X117.980 Y96.706 E0.08163
G1 X118.337 Y97.123 E0.01721
M73 Q2 S27
G1 X119.234 Y97.979 E0.03889
G1 X120.956 Y99.093 E0.06428
G1 X122.367 Y99.657 E0.04765
G1 X123.464 Y99.912 E0.03531
G1 X126.138 Y99.952 E0.08385
G1 X127.198 Y99.775 E0.03372
G1 X128.678 Y99.264 E0.04909
G1 X129.810 Y98.659 E0.04022
G1 X130.615 Y98.096 E0.03081
G1 X131.465 Y97.327 E0.03595
G1 X132.179 Y96.470 E0.03496
G1 X133.445 Y94.237 E0.08051
G1 X133.717 Y93.375 E0.02834
G1 X133.949 Y92.369 E0.03236
G1 X134.040 Y91.357 E0.03185
G1 X134.030 Y90.326 E0.03235
G1 X133.779 Y89.107 E0.03901
G1 X133.784 Y88.964 E0.00448
G1 X133.756 Y88.788 E0.00557
;WIPE_START
G1 F8640.000
G1 X133.784 Y88.964 E-0.04104
G1 X133.779 Y89.107 E-0.03297
G1 X134.030 Y90.326 E-0.28732
G1 X134.040 Y91.357 E-0.23825
G1 X133.978 Y92.049 E-0.16043
;WIPE_END
G1 E-0.04000 F2100.000
G1 Z0.600 F10800.000
G1 X131.176 Y84.411
G1 Z0.200
G1 E0.80000 F2100.000
G1 F1200.000
G1 X130.769 Y84.024 E0.01763
G1 X129.052 Y82.910 E0.06416
G1 X127.496 Y82.312 E0.05227
;WIPE_START
G1 F8640.000
