; generated by PrusaSlicer 2.3.0+win64 on 2021-04-20 at 15:26:02 UTC

; 

; external perimeters extrusion width = 0.45mm
; perimeters extrusion width = 0.45mm
; infill extrusion width = 0.45mm
; solid infill extrusion width = 0.45mm
; top infill extrusion width = 0.40mm
; first layer extrusion width = 0.42mm

M73 P0 R14
M73 Q0 S14
M201 X1000 Y1000 Z200 E5000 ; sets maximum accelerations, mm/sec^2
M203 X200 Y200 Z12 E120 ; sets maximum feedrates, mm/sec
M204 P1250 R1250 T1250 ; sets acceleration (P, T) and retract acceleration (R), mm/sec^2
M205 X8.00 Y8.00 Z0.40 E4.50 ; sets the jerk limits, mm/sec
M205 S0 T0 ; sets the minimum extruding and travel feed rate, mm/sec
M107
;TYPE:Custom
M862.3 P "MK3S" ; printer model check
M862.1 P0.4 ; nozzle diameter check
M115 U3.9.2 ; tell printer latest fw version
G90 ; use absolute coordinates
M83 ; extruder relative mode
M104 S215 ; set extruder temp
M140 S60 ; set bed temp
M190 S60 ; wait for bed temp
M109 S215 ; wait for extruder temp
G28 W ; home all without mesh bed level
G80 ; mesh bed leveling
G1 Y-3.0 F1000.0 ; go outside print area
G92 E0.0
G1 X60.0 E9.0 F1000.0 ; intro line
G1 X100.0 E12.5 F1000.0 ; intro line
G92 E0.0
M221 S95

; Don't change E values below. Excessive value can damage the printer.
M907 E430 ; set extruder motor current
G21 ; set units to millimeters
G90 ; use absolute coordinates
M83 ; use relative distances for extrusion
M900 K0.05 ; Filament gcode LA 1.5
M900 K30 ; Filament gcode LA 1.0
;LAYER_CHANGE
;Z:0.2
;HEIGHT:0.2
;BEFORE_LAYER_CHANGE
G92 E0.0
;0.2


G1 E-0.80000 F2100.000
G1 Z0.400 F10800.000
;AFTER_LAYER_CHANGE
;0.2
G1 X117.616 Y97.556
G1 Z0.200
G1 E0.80000 F2100.000
M204 S1000
;TYPE:Skirt
;WIDTH:0.42
G1 F1200.000
G1 X118.330 Y96.822 E0.03210
G1 X119.641 Y95.906 E0.05015
G1 X121.143 Y95.176 E0.05237
G1 X122.136 Y94.896 E0.03232
G1 X127.465 Y94.869 E0.16708
G1 X128.382 Y95.007 E0.02909
G1 X129.723 Y95.565 E0.04553
G1 X131.570 Y96.740 E0.06866
G1 X132.109 Y97.221 E0.02264
G1 X132.484 Y97.703 E0.01916
G1 X135.004 Y102.063 E0.15788
M73 Q1 S14
G1 X135.275 Y102.706 E0.02189
G1 X135.514 Y104.052 E0.04286
G1 X135.552 Y105.161 E0.03480
G1 X135.438 Y106.575 E0.04447
G1 X135.291 Y107.257 E0.02186
M73 P1 R14
G1 X135.014 Y107.921 E0.02257
G1 X132.396 Y112.425 E0.16335
G1 X131.566 Y113.257 E0.03685
G1 X130.409 Y114.059 E0.04413
G1 X129.229 Y114.666 E0.04161
G1 X128.324 Y114.996 E0.03022
G1 X127.755 Y115.113 E0.01820
G1 X122.488 Y115.131 E0.16512
G1 X121.678 Y115.010 E0.02570
G1 X120.267 Y114.422 E0.04792
G1 X118.513 Y113.320 E0.06496
G1 X117.881 Y112.762 E0.02643
G1 X117.467 Y112.216 E0.02148
G1 X115.017 Y107.973 E0.15364
G1 X114.768 Y107.415 E0.01916
G1 X114.590 Y106.689 E0.02343
G1 X114.452 Y105.285 E0.04424
G1 X114.555 Y103.490 E0.05638
G1 X114.710 Y102.742 E0.02393
G1 X114.987 Y102.078 E0.02257
G1 X117.586 Y97.608 E0.16213
G1 X117.911 Y97.797 F10800.000
G1 F1200.000
G1 X118.578 Y97.106 E0.03009
G1 X119.849 Y96.221 E0.04857
G1 X121.284 Y95.526 E0.05000
G1 X122.200 Y95.268 E0.02984
G1 X127.464 Y95.246 E0.16505
G1 X128.284 Y95.372 E0.02600
G1 X129.545 Y95.897 E0.04282
G1 X131.332 Y97.032 E0.06639
G1 X131.833 Y97.478 E0.02102
G1 X132.172 Y97.915 E0.01733
G1 X134.674 Y102.245 E0.15683
G1 X134.910 Y102.803 E0.01899
G1 X135.140 Y104.095 E0.04114
G1 X135.174 Y105.162 E0.03348
G1 X135.064 Y106.532 E0.04308
G1 X134.924 Y107.168 E0.02041
G1 X134.681 Y107.744 E0.01963
G1 X132.088 Y112.206 E0.16181
G1 X131.319 Y112.972 E0.03402
G1 X130.219 Y113.734 E0.04196
G1 X129.095 Y114.313 E0.03966
G1 X127.710 Y114.738 E0.04542
G1 X122.496 Y114.754 E0.16348
G1 X121.764 Y114.642 E0.02320
G1 X120.455 Y114.095 E0.04449
G1 X118.731 Y113.013 E0.06382
G1 X118.143 Y112.490 E0.02467
G1 X117.787 Y112.016 E0.01860
G1 X115.344 Y107.786 E0.15316
G1 X115.121 Y107.280 E0.01733
G1 X114.955 Y106.593 E0.02216
G1 X114.827 Y105.251 E0.04228
G1 X114.930 Y103.527 E0.05415
G1 X115.077 Y102.832 E0.02227
G1 X115.320 Y102.255 E0.01963
G1 X117.881 Y97.848 E0.15980
G1 X118.205 Y98.037 F10800.000
G1 F1200.000
G1 X118.824 Y97.392 E0.02803
G1 X120.052 Y96.538 E0.04689
G1 X121.421 Y95.877 E0.04768
G1 X122.258 Y95.641 E0.02724
G1 X127.464 Y95.623 E0.16324
G1 X128.180 Y95.735 E0.02272
G1 X129.360 Y96.226 E0.04007
G1 X131.092 Y97.323 E0.06431
G1 X131.555 Y97.734 E0.01939
G1 X131.858 Y98.124 E0.01550
G1 X134.343 Y102.425 E0.15573
G1 X134.547 Y102.904 E0.01633
G1 X134.765 Y104.138 E0.03931
G1 X134.797 Y105.163 E0.03214
G1 X134.689 Y106.488 E0.04168
G1 X134.558 Y107.077 E0.01891
G1 X134.351 Y107.563 E0.01657
G1 X131.785 Y111.983 E0.16024
G1 X131.076 Y112.683 E0.03124
G1 X130.032 Y113.406 E0.03982
G1 X128.966 Y113.959 E0.03766
G1 X127.666 Y114.364 E0.04267
G1 X122.507 Y114.377 E0.16178
G1 X121.857 Y114.277 E0.02060
G1 X120.645 Y113.770 E0.04120
G1 X118.949 Y112.705 E0.06279
G1 X118.409 Y112.222 E0.02271
G1 X118.109 Y111.820 E0.01574
G1 X115.669 Y107.595 E0.15297
G1 X115.474 Y107.145 E0.01538
G1 X115.321 Y106.499 E0.02081
G1 X115.203 Y105.218 E0.04035
G1 X115.306 Y103.560 E0.05207
G1 X115.443 Y102.923 E0.02044
G1 X115.651 Y102.437 E0.01657
G1 X118.175 Y98.089 E0.15765
;WIPE_START
M73 Q2 S14
G1 F8640.000
G1 X118.824 Y97.392 E-0.21991
G1 X120.052 Y96.538 E-0.34530
G1 X120.812 Y96.171 E-0.19479
;WIPE_END
G1 E-0.04000 F2100.000
G1 Z0.600 F10800.000
G1 X116.110 Y97.221
M73 P2 R14
G1 Z0.200
G1 E0.80000 F2100.000
G1 F1200.000
G1 X116.890 Y96.413 E0.03520
G1 X118.085 Y95.424 E0.04862
G1 X119.223 Y94.697 E0.04236
G1 X120.471 Y94.094 E0.04345
G1 X121.288 Y93.792 E0.02732
G1 X122.149 Y93.548 E0.02806
G1 X123.707 Y93.286 E0.04954
G1 X126.344 Y93.290 E0.08268
G1 X128.279 Y93.658 E0.06177
G1 X130.403 Y94.498 E0.07160
G1 X132.573 Y95.929 E0.08151
G1 X133.404 Y96.724 E0.03604
G1 X134.174 Y97.561 E0.03567
G1 X135.771 Y100.224 E0.09735
G1 X136.376 Y101.795 E0.05277
G1 X136.496 Y102.500 E0.02245
G1 X136.506 Y102.685 E0.00580
G1 X136.789 Y104.148 E0.04672
G1 X136.802 Y105.436 E0.04038
G1 X136.688 Y106.735 E0.04088
G1 X136.257 Y108.561 E0.05883
G1 X136.007 Y109.286 E0.02404
G1 X134.513 Y111.955 E0.09589
G1 X133.497 Y113.199 E0.05037
G1 X132.274 Y114.307 E0.05175
G1 X131.115 Y115.101 E0.04406
G1 X129.867 Y115.759 E0.04422
G1 X127.979 Y116.426 E0.06279
G1 X126.258 Y116.715 E0.05472
G1 X123.174 Y116.662 E0.09670
G1 X122.422 Y116.523 E0.02398
G1 X121.669 Y116.334 E0.02433
G1 X119.603 Y115.503 E0.06984
G1 X117.432 Y114.075 E0.08148
G1 X116.358 Y113.051 E0.04651
G1 X115.784 Y112.386 E0.02757
G1 X114.204 Y109.733 E0.09682
G1 X113.558 Y107.933 E0.05993
G1 X113.300 Y106.624 E0.04184
G1 X113.188 Y105.239 E0.04356
G1 X113.301 Y103.353 E0.05925
G1 X113.702 Y101.560 E0.05762
G1 X113.942 Y100.854 E0.02338
G1 X114.398 Y99.934 E0.03220
G1 X115.455 Y98.103 E0.06627
G1 X116.074 Y97.269 E0.03258
G1 X116.377 Y97.494 F10800.000
G1 F1200.000
G1 X117.154 Y96.683 E0.03521
G1 X118.316 Y95.723 E0.04727
G1 X119.416 Y95.021 E0.04092
G1 X120.626 Y94.438 E0.04211
G1 X121.412 Y94.148 E0.02625
G1 X122.242 Y93.914 E0.02705
G1 X123.723 Y93.663 E0.04709
G1 X126.326 Y93.667 E0.08162
G1 X128.158 Y94.016 E0.05847
G1 X130.212 Y94.824 E0.06922
G1 X132.325 Y96.214 E0.07930
G1 X133.131 Y96.983 E0.03493
G1 X133.883 Y97.802 E0.03487
G1 X135.439 Y100.404 E0.09504
G1 X136.007 Y101.876 E0.04950
G1 X136.122 Y102.551 E0.02147
G1 X136.130 Y102.729 E0.00558
G1 X136.412 Y104.169 E0.04600
G1 X136.425 Y105.430 E0.03955
G1 X136.314 Y106.688 E0.03959
G1 X135.892 Y108.464 E0.05725
G1 X135.656 Y109.146 E0.02262
G1 X134.193 Y111.755 E0.09380
G1 X133.215 Y112.949 E0.04838
G1 X132.050 Y114.003 E0.04924
G1 X130.911 Y114.784 E0.04332
G1 X129.704 Y115.419 E0.04276
G1 X127.899 Y116.057 E0.06000
G1 X126.246 Y116.338 E0.05258
G1 X123.227 Y116.289 E0.09467
G1 X122.497 Y116.153 E0.02329
G1 X121.774 Y115.971 E0.02338
G1 X119.794 Y115.177 E0.06688
G1 X117.679 Y113.790 E0.07929
G1 X116.625 Y112.785 E0.04567
G1 X116.080 Y112.152 E0.02618
G1 X114.537 Y109.556 E0.09470
G1 X113.926 Y107.846 E0.05693
G1 X113.675 Y106.583 E0.04039
G1 X113.565 Y105.222 E0.04280
G1 X113.676 Y103.391 E0.05752
G1 X114.067 Y101.653 E0.05587
G1 X114.295 Y100.988 E0.02202
G1 X114.727 Y100.117 E0.03050
G1 X115.776 Y98.301 E0.06574
G1 X116.341 Y97.542 E0.02968
G1 X116.643 Y97.768 F10800.000
G1 F1200.000
G1 X117.417 Y96.953 E0.03521
G1 X118.547 Y96.021 E0.04593
G1 X119.609 Y95.345 E0.03947
G1 X120.781 Y94.782 E0.04077
G1 X121.535 Y94.505 E0.02518
G1 X122.335 Y94.279 E0.02606
G1 X123.738 Y94.040 E0.04464
G1 X126.308 Y94.044 E0.08057
G1 X128.037 Y94.373 E0.05519
M73 Q3 S14
G1 X130.022 Y95.150 E0.06684
G1 X132.077 Y96.499 E0.07707
G1 X132.857 Y97.243 E0.03380
M73 P3 R14
G1 X133.592 Y98.043 E0.03407
G1 X135.107 Y100.583 E0.09273
G1 X135.639 Y101.959 E0.04624
G1 X135.748 Y102.602 E0.02045
G1 X135.755 Y102.772 E0.00536
G1 X136.035 Y104.191 E0.04533
G1 X136.048 Y105.425 E0.03870
G1 X135.940 Y106.641 E0.03828
G1 X135.528 Y108.367 E0.05566
G1 X135.305 Y109.006 E0.02121
G1 X133.872 Y111.556 E0.09171
G1 X132.932 Y112.699 E0.04639
G1 X131.826 Y113.699 E0.04677
G1 X130.725 Y114.455 E0.04189
G1 X129.540 Y115.079 E0.04198
G1 X127.789 Y115.696 E0.05821
G1 X126.234 Y115.961 E0.04945
G1 X123.280 Y115.915 E0.09264
G1 X122.583 Y115.786 E0.02223
G1 X121.878 Y115.609 E0.02279
G1 X119.984 Y114.852 E0.06394
G1 X117.927 Y113.505 E0.07708
G1 X116.892 Y112.519 E0.04484
G1 X116.377 Y111.919 E0.02479
G1 X114.871 Y109.379 E0.09258
G1 X114.293 Y107.759 E0.05394
G1 X114.050 Y106.541 E0.03893
G1 X113.942 Y105.205 E0.04203
G1 X114.052 Y103.430 E0.05578
G1 X114.433 Y101.746 E0.05413
G1 X114.647 Y101.123 E0.02067
G1 X115.057 Y100.301 E0.02880
G1 X116.097 Y98.500 E0.06521
G1 X116.607 Y97.816 E0.02676
;WIPE_START
G1 F8640.000
G1 X117.417 Y96.953 E-0.27307
G1 X118.547 Y96.021 E-0.33827
G1 X119.090 Y95.675 E-0.14865
;WIPE_END
G1 E-0.04000 F2100.000
G1 Z0.600 F10800.000
G1 X127.982 Y94.756
G1 Z0.200
G1 E0.80000 F2100.000
G1 F1200.000
G1 X126.290 Y94.421 E0.05409
G1 X123.754 Y94.418 E0.07950
G1 X122.427 Y94.645 E0.04220
G1 X122.206 Y94.707 E0.00720
;WIPE_START
G1 F8640.000
G1 X122.427 Y94.645 E-0.05300
G1 X123.754 Y94.418 E-0.31077
;WIPE_END
G1 E-0.43623 F2100.000
G1 Z0.600 F10800.000
G1 X117.463 Y97.446
G1 Z0.200
G1 E0.80000 F2100.000
G1 F1200.000
G1 X116.995 Y97.927 E0.02106
G1 X116.418 Y98.698 E0.03019
G1 X115.386 Y100.484 E0.06468
G1 X115.000 Y101.258 E0.02712
G1 X114.798 Y101.840 E0.01931
G1 X114.697 Y102.285 E0.01430
;WIPE_START
G1 F8640.000
G1 X114.798 Y101.840 E-0.10533
G1 X115.000 Y101.258 E-0.14221
G1 X115.386 Y100.484 E-0.19973
G1 X116.063 Y99.312 E-0.31273
;WIPE_END
G1 E-0.04000 F2100.000
G1 Z0.600 F10800.000
G1 X114.646 Y107.605
G1 Z0.200
G1 E0.80000 F2100.000
G1 F1200.000
G1 X115.205 Y109.203 E0.05309
G1 X116.674 Y111.686 E0.09047
G1 X117.160 Y112.252 E0.02338
G1 X117.515 Y112.591 E0.01538
;WIPE_START
G1 F8640.000
G1 X117.160 Y112.252 E-0.11324
G1 X116.674 Y111.686 E-0.17218
G1 X115.628 Y109.917 E-0.47458
;WIPE_END
G1 E-0.04000 F2100.000
G1 Z0.600 F10800.000
G1 X121.989 Y115.247
G1 Z0.200
G1 E0.80000 F2100.000
G1 F1200.000
G1 X122.668 Y115.419 E0.02197
G1 X123.333 Y115.541 E0.02119
G1 X126.223 Y115.583 E0.09061
G1 X127.680 Y115.335 E0.04634
G1 X127.781 Y115.299 E0.00337
;WIPE_START
G1 F8640.000
G1 X127.680 Y115.335 E-0.02485
G1 X126.223 Y115.583 E-0.34127
G1 X124.517 Y115.558 E-0.39389
;WIPE_END
G1 E-0.04000 F2100.000
G1 Z0.600 F10800.000
G1 X132.532 Y112.555
G1 Z0.200
G1 E0.80000 F2100.000
G1 F1200.000
G1 X132.651 Y112.448 E0.00502
G1 X133.552 Y111.356 E0.04439
G1 X134.955 Y108.866 E0.08962
G1 X135.163 Y108.270 E0.01979
G1 X135.286 Y107.760 E0.01644
;WIPE_START
G1 F8640.000
G1 X135.163 Y108.270 E-0.12107
G1 X134.955 Y108.866 E-0.14572
G1 X133.907 Y110.727 E-0.49321
;WIPE_END
G1 E-0.04000 F2100.000
G1 Z0.600 F10800.000
G1 X135.322 Y102.332
G1 Z0.200
G1 E0.80000 F2100.000
G1 F1200.000
G1 X135.280 Y102.075 E0.00816
G1 X134.775 Y100.762 E0.04412
G1 X133.301 Y98.284 E0.09040
G1 X132.520 Y97.442 E0.03601
;WIPE_START
G1 F8640.000
G1 X133.301 Y98.284 E-0.26520
G1 X134.396 Y100.125 E-0.49480
;WIPE_END
G1 E-0.04000 F2100.000
G1 Z0.600 F10800.000
G1 X131.686 Y98.210
G1 Z0.200
G1 E0.80000 F2100.000
G1 F1200.000
G1 X131.087 Y97.638 E0.02597
G1 X129.266 Y96.457 E0.06804
G1 X127.662 Y95.845 E0.05384
;WIPE_START
G1 F8640.000
G1 X129.266 Y96.457 E-0.39652
G1 X130.587 Y97.314 E-0.36348
;WIPE_END
G1 E-0.04000 F2100.000
G1 Z0.600 F10800.000
G1 X122.397 Y95.829
M73 Q4 S14
G1 Z0.200
G1 E0.80000 F2100.000
G1 F1200.000
G1 X121.972 Y95.949 E0.01385
G1 X121.400 Y96.158 E0.01909
G1 X120.320 Y96.675 E0.03754
G1 X119.468 Y97.216 E0.03162
G1 X118.465 Y98.038 E0.04067
M73 P4 R14
G1 X118.360 Y98.145 E0.00470
;WIPE_START
G1 F8640.000
G1 X118.465 Y98.038 E-0.03458
G1 X119.468 Y97.216 E-0.29952
G1 X120.320 Y96.675 E-0.23289
G1 X121.074 Y96.314 E-0.19301
;WIPE_END
G1 E-0.04000 F2100.000
G1 Z0.600 F10800.000
G1 X115.779 Y102.617
G1 Z0.200
G1 E0.80000 F2100.000
G1 F1200.000
G1 X115.553 Y103.589 E0.03130
G1 X115.449 Y105.139 E0.04870
G1 X115.549 Y106.375 E0.03887
G1 X115.731 Y107.265 E0.02849
;WIPE_START
G1 F8640.000
G1 X115.549 Y106.375 E-0.20981
G1 X115.449 Y105.139 E-0.28626
G1 X115.526 Y103.999 E-0.26393
;WIPE_END
G1 E-0.04000 F2100.000
G1 Z0.600 F10800.000
G1 X118.341 Y111.815
G1 Z0.200
G1 E0.80000 F2100.000
G1 F1200.000
G1 X118.917 Y112.365 E0.02498
G1 X120.742 Y113.545 E0.06813
G1 X122.287 Y114.152 E0.05205
;WIPE_START
G1 F8640.000
G1 X120.742 Y113.545 E-0.38334
G1 X119.372 Y112.659 E-0.37666
;WIPE_END
G1 E-0.04000 F2100.000
G1 Z0.600 F10800.000
G1 X127.577 Y114.175
M73 P4 R13
G1 Z0.200
G1 E0.80000 F2100.000
G1 F1200.000
G1 X128.887 Y113.718 E0.04350
G1 X129.982 Y113.142 E0.03879
G1 X130.928 Y112.486 E0.03609
G1 X131.658 Y111.826 E0.03087
;WIPE_START
G1 F8640.000
G1 X130.928 Y112.486 E-0.22730
G1 X129.982 Y113.142 E-0.26574
G1 X128.959 Y113.681 E-0.26696
;WIPE_END
G1 E-0.04000 F2100.000
G1 Z0.600 F10800.000
G1 X134.206 Y107.422
G1 Z0.200
G1 E0.80000 F2100.000
G1 F1200.000
G1 X134.442 Y106.450 E0.03136
G1 X134.540 Y105.366 E0.03413
G1 X134.528 Y104.280 E0.03405
G1 X134.245 Y102.920 E0.04355
G1 X134.249 Y102.777 E0.00450
G1 X134.226 Y102.633 E0.00456
G1 X133.822 Y102.466 F10800.000
G1 F1200.000
G1 X133.873 Y102.810 E0.01089
G1 X133.865 Y102.947 E0.00432
G1 X134.151 Y104.303 E0.04345
G1 X134.163 Y105.361 E0.03315
G1 X134.068 Y106.402 E0.03278
M73 Q4 S13
G1 X133.707 Y107.875 E0.04757
G1 X133.556 Y108.299 E0.01410
G1 X132.274 Y110.553 E0.08131
G1 X131.562 Y111.404 E0.03477
G1 X130.702 Y112.184 E0.03640
G1 X129.796 Y112.814 E0.03461
G1 X128.724 Y113.378 E0.03799
G1 X127.300 Y113.875 E0.04730
G1 X126.171 Y114.074 E0.03595
G1 X123.542 Y114.046 E0.08242
G1 X122.986 Y113.944 E0.01772
G1 X122.440 Y113.809 E0.01764
G1 X120.930 Y113.218 E0.05084
G1 X119.164 Y112.080 E0.06586
G1 X118.229 Y111.188 E0.04052
G1 X117.865 Y110.759 E0.01764
G1 X116.542 Y108.501 E0.08205
G1 X116.127 Y107.319 E0.03928
G1 X115.924 Y106.333 E0.03158
G1 X115.826 Y105.123 E0.03806
G1 X115.928 Y103.630 E0.04690
G1 X116.257 Y102.223 E0.04533
G1 X116.406 Y101.806 E0.01386
G1 X116.702 Y101.221 E0.02058
G1 X117.701 Y99.493 E0.06258
G1 X118.153 Y98.893 E0.02355
G1 X118.727 Y98.310 E0.02566
G1 X119.698 Y97.515 E0.03936
G1 X120.493 Y97.010 E0.02950
G1 X121.555 Y96.502 E0.03690
G1 X122.081 Y96.310 E0.01756
G1 X122.800 Y96.107 E0.02344
G1 X123.818 Y95.926 E0.03242
G1 X126.217 Y95.930 E0.07520
G1 X127.440 Y96.163 E0.03905
G1 X129.078 Y96.785 E0.05494
G1 X130.839 Y97.923 E0.06574
G1 X131.533 Y98.585 E0.03005
G1 X132.135 Y99.244 E0.02800
G1 X133.443 Y101.473 E0.08106
G1 X133.801 Y102.410 E0.03143
G1 X133.462 Y102.578 F10800.000
G1 F1200.000
G1 X133.496 Y102.834 E0.00810
G1 X133.484 Y102.967 E0.00419
G1 X133.774 Y104.327 E0.04360
G1 X133.787 Y105.336 E0.03164
G1 X133.694 Y106.353 E0.03202
G1 X133.343 Y107.775 E0.04593
G1 X133.207 Y108.156 E0.01267
G1 X131.955 Y110.351 E0.07924
G1 X131.282 Y111.151 E0.03278
G1 X130.477 Y111.882 E0.03408
G1 X129.610 Y112.486 E0.03313
G1 X128.561 Y113.038 E0.03717
G1 X127.190 Y113.514 E0.04550
G1 X126.157 Y113.697 E0.03291
G1 X123.594 Y113.672 E0.08036
G1 X123.071 Y113.577 E0.01666
G1 X122.543 Y113.446 E0.01708
G1 X121.118 Y112.890 E0.04795
G1 X119.412 Y111.795 E0.06358
