; generated by PrusaSlicer 2.3.0+win64 on 2021-04-21 at 14:32:13 UTC

; 

; external perimeters extrusion width = 0.45mm
; perimeters extrusion width = 0.45mm
; infill extrusion width = 0.45mm
; solid infill extrusion width = 0.45mm
; top infill extrusion width = 0.40mm
; first layer extrusion width = 0.42mm

M73 P0 R35
M73 Q0 S35
M201 X1000 Y1000 Z200 E5000 ; sets maximum accelerations, mm/sec^2
M203 X200 Y200 Z12 E120 ; sets maximum feedrates, mm/sec
M204 P1250 R1250 T1250 ; sets acceleration (P, T) and retract acceleration (R), mm/sec^2
M205 X8.00 Y8.00 Z0.40 E4.50 ; sets the jerk limits, mm/sec
M205 S0 T0 ; sets the minimum extruding and travel feed rate, mm/sec
M107
;TYPE:Custom
M862.3 P "MK3S" ; printer model check
M862.1 P0.4 ; nozzle diameter check
M115 U3.9.2 ; tell printer latest fw version
G90 ; use absolute coordinates
M83 ; extruder relative mode
M104 S215 ; set extruder temp
M140 S60 ; set bed temp
M190 S60 ; wait for bed temp
M109 S215 ; wait for extruder temp
G28 W ; home all without mesh bed level
G80 ; mesh bed leveling
G1 Y-3.0 F1000.0 ; go outside print area
G92 E0.0
G1 X60.0 E9.0 F1000.0 ; intro line
G1 X100.0 E12.5 F1000.0 ; intro line
G92 E0.0
M221 S95

; Don't change E values below. Excessive value can damage the printer.

G21 ; set units to millimeters
G90 ; use absolute coordinates
M83 ; use relative distances for extrusion
M900 K0.05 ; Filament gcode LA 1.5
M900 K30 ; Filament gcode LA 1.0
;LAYER_CHANGE
;Z:0.2
;HEIGHT:0.2
;BEFORE_LAYER_CHANGE
G92 E0.0
;0.2


G1 E-0.80000 F2100.000
G1 Z0.400 F10800.000
;AFTER_LAYER_CHANGE
;0.2
G1 X122.186 Y85.782
G1 Z0.200
G1 E0.80000 F2100.000
M204 S1000
;TYPE:Skirt
;WIDTH:0.42
G1 F1200.000
G1 X127.384 Y85.746 E0.16296
G1 X128.160 Y85.859 E0.02460
G1 X129.212 Y86.286 E0.03560
G1 X130.505 Y87.066 E0.04733
G1 X131.435 Y87.793 E0.03702
G1 X131.809 Y88.284 E0.01937
G1 X134.188 Y92.401 E0.14908
G1 X134.478 Y93.144 E0.02498
G1 X134.645 Y94.173 E0.03270
G1 X134.675 Y95.149 E0.03061
G1 X134.594 Y115.192 E0.62843
G1 X134.491 Y116.444 E0.03941
G1 X134.137 Y117.655 E0.03955
G1 X131.857 Y121.600 E0.14284
G1 X131.018 Y122.480 E0.03815
G1 X129.924 Y123.248 E0.04190
G1 X128.534 Y123.934 E0.04860
G1 X127.454 Y124.230 E0.03509
G1 X122.536 Y124.233 E0.15422
G1 X121.626 Y124.002 E0.02944
G1 X120.257 Y123.364 E0.04733
G1 X119.164 Y122.636 E0.04120
G1 X118.463 Y122.033 E0.02898
G1 X118.088 Y121.542 E0.01937
G1 X115.918 Y117.783 E0.13610
G1 X115.630 Y117.045 E0.02485
G1 X115.422 Y115.851 E0.03799
G1 X115.391 Y114.854 E0.03126
G1 X115.319 Y94.993 E0.62273
G1 X115.431 Y93.543 E0.04561
G1 X115.747 Y92.519 E0.03361
G1 X118.226 Y88.228 E0.15537
G1 X118.698 Y87.660 E0.02317
G1 X119.522 Y87.023 E0.03264
G1 X121.054 Y86.168 E0.05503
G1 X122.130 Y85.801 E0.03563
G1 X122.251 Y86.155 F10800.000
G1 F1200.000
G1 X127.384 Y86.123 E0.16094
G1 X128.067 Y86.224 E0.02166
G1 X129.053 Y86.628 E0.03339
G1 X130.294 Y87.379 E0.04550
G1 X131.173 Y88.065 E0.03497
G1 X131.489 Y88.484 E0.01645
G1 X133.862 Y92.592 E0.14876
G1 X134.115 Y93.248 E0.02201
G1 X134.270 Y94.214 E0.03068
G1 X134.298 Y95.149 E0.02935
G1 X134.217 Y115.189 E0.62834
G1 X134.116 Y116.402 E0.03814
G1 X133.797 Y117.490 E0.03557
G1 X131.544 Y121.390 E0.14122
G1 X130.766 Y122.199 E0.03518
G1 X129.711 Y122.936 E0.04035
G1 X128.393 Y123.584 E0.04604
G1 X127.396 Y123.858 E0.03244
G1 X122.579 Y123.858 E0.15102
G1 X121.752 Y123.647 E0.02676
G1 X120.431 Y123.029 E0.04574
G1 X119.388 Y122.333 E0.03931
G1 X118.727 Y121.764 E0.02736
G1 X118.408 Y121.343 E0.01657
G1 X116.244 Y117.592 E0.13576
G1 X115.992 Y116.939 E0.02193
G1 X115.797 Y115.807 E0.03603
G1 X115.768 Y114.853 E0.02994
G1 X115.696 Y94.997 E0.62256
G1 X115.805 Y93.589 E0.04429
G1 X116.086 Y92.686 E0.02966
G1 X118.544 Y88.429 E0.15412
G1 X118.966 Y87.926 E0.02059
G1 X119.736 Y87.334 E0.03044
G1 X121.208 Y86.512 E0.05285
G1 X122.194 Y86.174 E0.03269
;WIPE_START
G1 F8640.000
G1 X125.485 Y86.142 E-0.76000
;WIPE_END
G1 E-0.04000 F2100.000
G1 Z0.600 F10800.000
G1 X126.304 Y83.790
G1 Z0.200
G1 E0.80000 F2100.000
G1 F1200.000
G1 X123.756 Y83.786 E0.07991
G1 X122.283 Y84.029 E0.04679
G1 X121.441 Y84.267 E0.02743
G1 X120.645 Y84.563 E0.02663
G1 X119.471 Y85.131 E0.04089
G1 X118.368 Y85.837 E0.04107
G1 X117.237 Y86.773 E0.04602
G1 X116.502 Y87.533 E0.03316
G1 X115.880 Y88.368 E0.03263
G1 X114.817 Y90.207 E0.06662
G1 X114.416 Y91.017 E0.02835
G1 X114.178 Y91.706 E0.02285
G1 X113.805 Y93.360 E0.05314
G1 X113.687 Y95.150 E0.05626
G1 X113.793 Y96.541 E0.04374
G1 X114.066 Y97.896 E0.04332
G1 X114.657 Y99.518 E0.05412
G1 X115.150 Y100.352 E0.03039
;WIPE_START
G1 F8640.000
G1 X114.657 Y99.518 E-0.22378
G1 X114.066 Y97.896 E-0.39857
G1 X113.948 Y97.311 E-0.13766
;WIPE_END
G1 E-0.04000 F2100.000
G1 Z0.600 F10800.000
G1 X115.909 Y101.637
G1 Z0.200
G1 E0.80000 F2100.000
G1 F1200.000
G1 X116.120 Y101.994 E0.01302
G1 X116.720 Y102.707 E0.02923
G1 X117.831 Y103.753 E0.04782
G1 X119.747 Y105.005 E0.07177
G1 X119.344 Y105.216 E0.01427
G1 X118.000 Y106.130 E0.05095
G1 X116.787 Y107.242 E0.05159
G1 X115.985 Y108.227 E0.03982
G1 X115.933 Y108.315 E0.00323
;WIPE_START
G1 F8640.000
G1 X115.985 Y108.227 E-0.02378
G1 X116.787 Y107.242 E-0.29324
G1 X118.000 Y106.130 E-0.37992
G1 X118.225 Y105.976 E-0.06306
;WIPE_END
G1 E-0.04000 F2100.000
G1 Z0.600 F10800.000
G1 X115.183 Y109.590
G1 Z0.200
G1 E0.80000 F2100.000
G1 F1200.000
G1 X114.751 Y110.325 E0.02675
G1 X114.264 Y111.488 E0.03953
G1 X113.837 Y113.237 E0.05646
G1 X113.713 Y114.573 E0.04207
G1 X113.737 Y115.923 E0.04234
G1 X113.881 Y116.997 E0.03395
G1 X114.169 Y118.214 E0.03923
G1 X114.717 Y119.624 E0.04743
G1 X116.071 Y121.903 E0.08310
M73 Q1 S35
G1 X117.135 Y123.106 E0.05038
G1 X118.228 Y124.039 E0.04504
G1 X119.343 Y124.782 E0.04201
G1 X121.256 Y125.661 E0.06603
M73 P1 R35
G1 X122.597 Y126.022 E0.04353
G1 X123.371 Y126.169 E0.02470
G1 X126.119 Y126.207 E0.08618
G1 X126.907 Y126.130 E0.02483
G1 X127.668 Y125.970 E0.02438
G1 X128.857 Y125.614 E0.03893
G1 X129.980 Y125.134 E0.03828
G1 X130.856 Y124.654 E0.03131
G1 X132.029 Y123.835 E0.04486
G1 X133.226 Y122.729 E0.05109
G1 X134.108 Y121.618 E0.04448
G1 X135.327 Y119.491 E0.07687
G1 X135.734 Y118.470 E0.03445
G1 X136.148 Y116.759 E0.05520
G1 X136.273 Y115.407 E0.04257
G1 X136.243 Y114.014 E0.04369
G1 X136.087 Y112.907 E0.03505
G1 X135.758 Y111.588 E0.04264
G1 X135.214 Y110.282 E0.04433
G1 X134.805 Y109.596 E0.02504
;WIPE_START
G1 F8640.000
G1 X135.214 Y110.282 E-0.18443
G1 X135.758 Y111.588 E-0.32649
G1 X136.019 Y112.634 E-0.24908
;WIPE_END
G1 E-0.04000 F2100.000
G1 Z0.600 F10800.000
G1 X134.056 Y108.339
G1 Z0.200
G1 E0.80000 F2100.000
G1 F1200.000
G1 X133.917 Y108.106 E0.00851
G1 X133.275 Y107.323 E0.03176
G1 X132.054 Y106.182 E0.05239
G1 X131.177 Y105.551 E0.03389
G1 X130.225 Y105.001 E0.03448
G1 X131.011 Y104.577 E0.02802
M73 P1 R34
G1 X132.006 Y103.881 E0.03804
G1 X133.100 Y102.892 E0.04626
G1 X134.083 Y101.690 E0.04868
;WIPE_START
G1 F8640.000
G1 X133.100 Y102.892 E-0.35852
G1 X132.006 Y103.881 E-0.34065
G1 X131.790 Y104.032 E-0.06083
;WIPE_END
G1 E-0.04000 F2100.000
G1 Z0.600 F10800.000
G1 X134.843 Y100.342
G1 Z0.200
G1 E0.80000 F2100.000
G1 F1200.000
G1 X135.536 Y99.102 E0.04454
G1 X135.905 Y97.953 E0.03784
G1 X136.180 Y96.747 E0.03877
G1 X136.300 Y95.467 E0.04033
G1 X136.280 Y94.092 E0.04312
G1 X136.040 Y92.871 E0.03901
G1 X136.029 Y92.673 E0.00623
G1 X135.866 Y91.817 E0.02730
G1 X135.317 Y90.438 E0.04656
G1 X133.850 Y87.966 E0.09011
G1 X133.055 Y87.079 E0.03736
G1 X132.253 Y86.314 E0.03474
G1 X130.050 Y84.879 E0.08245
G1 X128.164 Y84.144 E0.06344
G1 X126.304 Y83.790 E0.05937
;WIPE_START
G1 F8640.000
G1 X128.164 Y84.144 E-0.43719
G1 X129.467 Y84.652 E-0.32281
;WIPE_END
G1 E-0.04000 F2100.000
G1 Z0.600 F10800.000
G1 X123.771 Y84.163
G1 Z0.200
G1 E0.80000 F2100.000
G1 F1200.000
G1 X122.375 Y84.395 E0.04435
G1 X121.565 Y84.623 E0.02640
G1 X120.801 Y84.907 E0.02556
G1 X119.664 Y85.455 E0.03956
G1 X118.599 Y86.135 E0.03963
G1 X117.501 Y87.043 E0.04469
G1 X116.797 Y87.768 E0.03170
M73 Q1 S34
G1 X116.201 Y88.566 E0.03121
G1 X115.146 Y90.391 E0.06609
G1 X114.768 Y91.153 E0.02666
G1 X114.544 Y91.800 E0.02149
G1 X114.181 Y93.400 E0.05142
G1 X114.064 Y95.162 E0.05537
G1 X114.168 Y96.501 E0.04211
G1 X114.426 Y97.781 E0.04094
G1 X114.991 Y99.341 E0.05203
G1 X115.147 Y99.606 E0.00965
;WIPE_START
G1 F8640.000
G1 X114.991 Y99.341 E-0.07106
G1 X114.426 Y97.781 E-0.38319
G1 X114.168 Y96.501 E-0.30146
G1 X114.167 Y96.482 E-0.00428
;WIPE_END
G1 E-0.04000 F2100.000
G1 Z0.600 F10800.000
G1 X115.906 Y100.891
G1 Z0.200
G1 E0.80000 F2100.000
G1 F1200.000
G1 X116.436 Y101.788 E0.03269
G1 X117.001 Y102.455 E0.02741
G1 X118.051 Y103.447 E0.04527
G1 X120.005 Y104.724 E0.07319
G1 X120.621 Y104.985 E0.02099
G1 X119.545 Y105.535 E0.03790
G1 X118.223 Y106.434 E0.05012
G1 X117.070 Y107.491 E0.04904
G1 X116.303 Y108.431 E0.03804
G1 X115.935 Y109.055 E0.02270
;WIPE_START
G1 F8640.000
G1 X116.303 Y108.431 E-0.16720
G1 X117.070 Y107.491 E-0.28011
G1 X118.068 Y106.576 E-0.31269
;WIPE_END
G1 E-0.04000 F2100.000
G1 Z0.600 F10800.000
G1 X115.186 Y110.329
G1 Z0.200
G1 E0.80000 F2100.000
G1 F1200.000
G1 X115.082 Y110.505 E0.00641
G1 X114.617 Y111.619 E0.03785
G1 X114.207 Y113.313 E0.05463
G1 X114.090 Y114.577 E0.03981
G1 X114.112 Y115.885 E0.04100
G1 X114.250 Y116.919 E0.03271
G1 X114.533 Y118.114 E0.03853
G1 X115.049 Y119.445 E0.04475
G1 X116.386 Y121.695 E0.08205
G1 X117.390 Y122.828 E0.04747
G1 X118.464 Y123.745 E0.04429
G1 X119.514 Y124.446 E0.03958
G1 X121.370 Y125.301 E0.06407
G1 X122.689 Y125.656 E0.04282
G1 X123.393 Y125.793 E0.02250
G1 X126.094 Y125.831 E0.08468
G1 X126.841 Y125.759 E0.02353
G1 X127.568 Y125.607 E0.02330
G1 X128.720 Y125.263 E0.03768
G1 X129.807 Y124.799 E0.03708
G1 X130.649 Y124.338 E0.03008
G1 X131.783 Y123.549 E0.04332
G1 X132.959 Y122.462 E0.05021
G1 X133.803 Y121.395 E0.04266
G1 X134.993 Y119.315 E0.07514
G1 X135.371 Y118.368 E0.03196
G1 X135.778 Y116.684 E0.05434
G1 X135.897 Y115.384 E0.04094
G1 X135.866 Y114.034 E0.04234
G1 X135.719 Y112.988 E0.03310
G1 X135.405 Y111.719 E0.04101
G1 X134.883 Y110.464 E0.04261
G1 X134.802 Y110.328 E0.00495
;WIPE_START
G1 F8640.000
G1 X134.883 Y110.464 E-0.03648
G1 X135.405 Y111.719 E-0.31379
G1 X135.719 Y112.988 E-0.30198
G1 X135.784 Y113.450 E-0.10775
;WIPE_END
G1 E-0.04000 F2100.000
G1 Z0.600 F10800.000
G1 X134.053 Y109.071
G1 Z0.200
G1 E0.80000 F2100.000
G1 F1200.000
G1 X133.601 Y108.311 E0.02772
G1 X132.992 Y107.572 E0.03003
G1 X131.824 Y106.481 E0.05010
G1 X130.964 Y105.863 E0.03321
G1 X129.869 Y105.232 E0.03962
G1 X129.374 Y105.028 E0.01679
G1 X130.804 Y104.261 E0.05088
G1 X131.780 Y103.579 E0.03732
G1 X132.817 Y102.642 E0.04384
G1 X133.780 Y101.470 E0.04754
G1 X134.086 Y100.924 E0.01964
;WIPE_START
G1 F8640.000
G1 X133.780 Y101.470 E-0.14463
G1 X132.817 Y102.642 E-0.35008
G1 X131.965 Y103.412 E-0.26529
;WIPE_END
G1 E-0.04000 F2100.000
G1 Z0.600 F10800.000
G1 X134.846 Y99.569
G1 Z0.200
G1 E0.80000 F2100.000
G1 F1200.000
G1 X135.183 Y98.968 E0.02161
G1 X135.539 Y97.861 E0.03647
G1 X135.809 Y96.676 E0.03812
G1 X135.924 Y95.442 E0.03885
G1 X135.907 Y94.148 E0.04058
G1 X135.664 Y92.916 E0.03937
G1 X135.655 Y92.728 E0.00591
G1 X135.509 Y91.939 E0.02516
G1 X134.985 Y90.617 E0.04458
G1 X133.535 Y88.175 E0.08904
G1 X132.780 Y87.337 E0.03539
G1 X132.006 Y86.598 E0.03354
G1 X129.895 Y85.223 E0.07900
G1 X128.044 Y84.502 E0.06229
G1 X126.286 Y84.167 E0.05609
G1 X123.771 Y84.163 E0.07887
;WIPE_START
G1 F8640.000
G1 X126.286 Y84.167 E-0.58081
G1 X127.049 Y84.313 E-0.17919
;WIPE_END
G1 E-0.04000 F2100.000
G1 Z0.600 F10800.000
G1 X126.268 Y84.544
G1 Z0.200
G1 E0.80000 F2100.000
G1 F1200.000
G1 X127.923 Y84.860 E0.05282
G1 X129.740 Y85.567 E0.06114
G1 X131.758 Y86.883 E0.07555
G1 X132.505 Y87.595 E0.03236
G1 X133.221 Y88.384 E0.03339
G1 X134.653 Y90.797 E0.08796
G1 X135.151 Y92.059 E0.04256
G1 X135.282 Y92.780 E0.02298
G1 X135.288 Y92.959 E0.00559
G1 X135.534 Y94.204 E0.03980
G1 X135.548 Y95.417 E0.03805
G1 X135.439 Y96.605 E0.03739
G1 X135.177 Y97.755 E0.03698
G1 X134.849 Y98.787 E0.03397
;WIPE_START
G1 F8640.000
G1 X135.177 Y97.755 E-0.25015
G1 X135.439 Y96.605 E-0.27236
G1 X135.533 Y95.580 E-0.23750
;WIPE_END
G1 E-0.04000 F2100.000
G1 Z0.600 F10800.000
G1 X134.089 Y100.147
G1 Z0.200
G1 E0.80000 F2100.000
G1 F1200.000
G1 X133.459 Y101.271 E0.04038
G1 X132.535 Y102.391 E0.04552
G1 X131.554 Y103.277 E0.04145
G1 X130.598 Y103.946 E0.03660
G1 X129.309 Y104.635 E0.04582
G1 X128.267 Y105.000 E0.03462
G1 X129.694 Y105.566 E0.04814
G1 X130.768 Y106.184 E0.03885
G1 X131.594 Y106.780 E0.03192
G1 X132.726 Y107.839 E0.04860
G1 X133.284 Y108.517 E0.02754
G1 X134.050 Y109.803 E0.04693
;WIPE_START
G1 F8640.000
G1 X133.284 Y108.517 E-0.34562
G1 X132.726 Y107.839 E-0.20283
G1 X132.056 Y107.213 E-0.21155
;WIPE_END
G1 E-0.04000 F2100.000
G1 Z0.600 F10800.000
G1 X134.799 Y111.238
G1 Z0.200
G1 E0.80000 F2100.000
G1 F1200.000
G1 X135.042 Y111.823 E0.01987
G1 X135.350 Y113.069 E0.04025
G1 X135.491 Y114.075 E0.03184
G1 X135.520 Y115.361 E0.04032
G1 X135.409 Y116.609 E0.03929
G1 X135.007 Y118.267 E0.05348
G1 X134.659 Y119.140 E0.02947
G1 X133.498 Y121.173 E0.07341
G1 X132.692 Y122.195 E0.04082
G1 X131.537 Y123.263 E0.04932
G1 X130.442 Y124.022 E0.04176
G1 X129.635 Y124.463 E0.02884
G1 X128.582 Y124.911 E0.03588
G1 X127.468 Y125.243 E0.03643
G1 X126.774 Y125.387 E0.02222
G1 X126.068 Y125.454 E0.02223
G1 X123.416 Y125.416 E0.08317
G1 X122.781 Y125.290 E0.02030
G1 X121.483 Y124.941 E0.04213
G1 X119.686 Y124.110 E0.06209
G1 X118.701 Y123.451 E0.03716
G1 X117.645 Y122.550 E0.04354
G1 X116.701 Y121.487 E0.04457
G1 X115.382 Y119.266 E0.08099
G1 X114.897 Y118.015 E0.04207
G1 X114.619 Y116.841 E0.03782
G1 X114.488 Y115.846 E0.03148
G1 X114.466 Y114.601 E0.03904
G1 X114.577 Y113.388 E0.03819
G1 X114.980 Y111.723 E0.05372
G1 X115.189 Y111.225 E0.01692
;WIPE_START
G1 F8640.000
G1 X114.980 Y111.723 E-0.12459
G1 X114.577 Y113.388 E-0.39560
G1 X114.483 Y114.422 E-0.23981
;WIPE_END
G1 E-0.04000 F2100.000
G1 Z0.600 F10800.000
G1 X115.938 Y109.792
G1 Z0.200
G1 E0.80000 F2100.000
G1 F1200.000
G1 X116.620 Y108.634 E0.04212
G1 X117.336 Y107.760 E0.03543
G1 X118.446 Y106.738 E0.04732
G1 X119.747 Y105.854 E0.04931
G1 X120.582 Y105.429 E0.02937
G1 X121.689 Y105.011 E0.03712
G1 X120.196 Y104.398 E0.05064
G1 X118.272 Y103.141 E0.07206
G1 X117.268 Y102.189 E0.04336
G1 X116.753 Y101.583 E0.02495
G1 X115.903 Y100.145 E0.05236
;WIPE_START
G1 F8640.000
G1 X116.753 Y101.583 E-0.38560
G1 X117.268 Y102.189 E-0.18375
G1 X117.867 Y102.757 E-0.19065
;WIPE_END
G1 E-0.04000 F2100.000
G1 Z0.600 F10800.000
G1 X115.144 Y98.663
G1 Z0.200
G1 E0.80000 F2100.000
G1 F1200.000
G1 X114.785 Y97.666 E0.03321
G1 X114.543 Y96.460 E0.03858
G1 X114.441 Y95.173 E0.04048
G1 X114.556 Y93.440 E0.05446
G1 X114.909 Y91.895 E0.04969
G1 X115.120 Y91.288 E0.02014
G1 X115.476 Y90.575 E0.02500
G1 X116.522 Y88.764 E0.06556
G1 X117.091 Y88.004 E0.02977
G1 X117.764 Y87.313 E0.03023
G1 X118.830 Y86.433 E0.04336
G1 X119.857 Y85.779 E0.03818
G1 X120.956 Y85.250 E0.03823
G1 X121.689 Y84.979 E0.02448
G1 X122.468 Y84.761 E0.02538
G1 X123.786 Y84.540 E0.04191
G1 X126.268 Y84.544 E0.07782
;WIPE_START
G1 F8640.000
G1 X123.786 Y84.540 E-0.57308
G1 X122.988 Y84.674 E-0.18692
;WIPE_END
G1 E-0.04000 F2100.000
G1 Z0.600 F10800.000
G1 X123.801 Y84.918
G1 Z0.200
G1 E0.80000 F2100.000
G1 F1200.000
G1 X122.560 Y85.126 E0.03948
G1 X121.812 Y85.336 E0.02436
G1 X121.111 Y85.594 E0.02341
G1 X120.050 Y86.103 E0.03690
G1 X119.061 Y86.731 E0.03674
G1 X118.026 Y87.584 E0.04204
G1 X117.385 Y88.241 E0.02877
G1 X116.843 Y88.963 E0.02833
G1 X115.805 Y90.759 E0.06503
G1 X115.472 Y91.424 E0.02334
G1 X115.274 Y91.990 E0.01878
G1 X114.931 Y93.480 E0.04794
G1 X114.819 Y95.184 E0.05355
M73 Q2 S34
G1 X114.918 Y96.419 E0.03884
G1 X115.140 Y97.528 E0.03546
;WIPE_START
G1 F8640.000
G1 X114.918 Y96.419 E-0.26116
G1 X114.819 Y95.184 E-0.28603
G1 X114.879 Y94.264 E-0.21281
;WIPE_END
G1 E-0.04000 F2100.000
G1 Z0.600 F10800.000
G1 X115.901 Y99.399
M73 P2 R34
G1 Z0.200
G1 E0.80000 F2100.000
G1 F1200.000
G1 X117.069 Y101.377 E0.07202
G1 X117.535 Y101.923 E0.02251
G1 X118.492 Y102.834 E0.04145
