; generated by PrusaSlicer 2.3.0+win64 on 2021-04-21 at 07:14:55 UTC

; 

; external perimeters extrusion width = 0.45mm
; perimeters extrusion width = 0.45mm
; infill extrusion width = 0.45mm
; solid infill extrusion width = 0.45mm
; top infill extrusion width = 0.40mm
; first layer extrusion width = 0.42mm

M73 P0 R27
M73 Q0 S27
M201 X1000 Y1000 Z200 E5000 ; sets maximum accelerations, mm/sec^2
M203 X200 Y200 Z12 E120 ; sets maximum feedrates, mm/sec
M204 P1250 R1250 T1250 ; sets acceleration (P, T) and retract acceleration (R), mm/sec^2
M205 X8.00 Y8.00 Z0.40 E4.50 ; sets the jerk limits, mm/sec
M205 S0 T0 ; sets the minimum extruding and travel feed rate, mm/sec
M107
;TYPE:Custom
M862.3 P "MK3S" ; printer model check
M862.1 P0.4 ; nozzle diameter check
M115 U3.9.2 ; tell printer latest fw version
G90 ; use absolute coordinates
M83 ; extruder relative mode
M104 S215 ; set extruder temp
M140 S60 ; set bed temp
M190 S60 ; wait for bed temp
M109 S215 ; wait for extruder temp
G28 W ; home all without mesh bed level
G80 ; mesh bed leveling
G1 Y-3.0 F1000.0 ; go outside print area
G92 E0.0
G1 X60.0 E9.0 F1000.0 ; intro line
G1 X100.0 E12.5 F1000.0 ; intro line
G92 E0.0
M221 S95

; Don't change E values below. Excessive value can damage the printer.

G21 ; set units to millimeters
G90 ; use absolute coordinates
M83 ; use relative distances for extrusion
M900 K0.05 ; Filament gcode LA 1.5
M900 K30 ; Filament gcode LA 1.0
;LAYER_CHANGE
;Z:0.2
;HEIGHT:0.2
;BEFORE_LAYER_CHANGE
G92 E0.0
;0.2


G1 E-0.80000 F2100.000
G1 Z0.400 F10800.000
;AFTER_LAYER_CHANGE
;0.2
G1 X118.016 Y97.869
G1 Z0.200
G1 E0.80000 F2100.000
M204 S1000
;TYPE:Skirt
;WIDTH:0.42
G1 F1200.000
G1 X118.604 Y97.246 E0.02686
G1 X119.891 Y96.341 E0.04930
G1 X121.571 Y95.584 E0.05778
G1 X122.310 Y95.395 E0.02393
G1 X127.370 Y95.369 E0.15867
G1 X128.349 Y95.524 E0.03108
G1 X129.732 Y96.136 E0.04740
G1 X131.291 Y97.159 E0.05846
G1 X132.098 Y98.042 E0.03751
G1 X134.546 Y102.281 E0.15350
G1 X134.811 Y102.908 E0.02134
G1 X135.012 Y104.118 E0.03846
G1 X135.045 Y105.152 E0.03243
G1 X134.939 Y106.484 E0.04188
G1 X134.812 Y107.085 E0.01928
G1 X134.539 Y107.732 E0.02202
G1 X132.006 Y112.088 E0.15798
G1 X131.243 Y112.873 E0.03432
G1 X130.001 Y113.723 E0.04718
G1 X128.660 Y114.362 E0.04658
G1 X127.612 Y114.618 E0.03383
G1 X122.563 Y114.631 E0.15832
G1 X121.711 Y114.495 E0.02705
G1 X119.932 Y113.684 E0.06131
G1 X118.843 Y112.943 E0.04128
G1 X118.262 Y112.430 E0.02432
G1 X117.869 Y111.906 E0.02052
G1 X115.487 Y107.776 E0.14949
G1 X115.178 Y107.003 E0.02610
G1 X114.977 Y105.749 E0.03983
G1 X114.973 Y104.385 E0.04275
G1 X115.188 Y102.915 E0.04659
G1 X115.459 Y102.272 E0.02189
G1 X117.986 Y97.921 E0.15777
G1 X118.311 Y98.109 F10800.000
G1 F1200.000
G1 X118.853 Y97.530 E0.02487
G1 X120.098 Y96.657 E0.04769
G1 X121.710 Y95.935 E0.05537
G1 X122.372 Y95.767 E0.02141
G1 X127.370 Y95.746 E0.15673
G1 X128.247 Y95.887 E0.02784
G1 X129.550 Y96.467 E0.04473
G1 X131.046 Y97.446 E0.05606
G1 X131.786 Y98.254 E0.03432
G1 X134.214 Y102.460 E0.15229
G1 X134.447 Y103.006 E0.01860
G1 X134.637 Y104.160 E0.03668
G1 X134.668 Y105.152 E0.03111
G1 X134.565 Y106.441 E0.04054
G1 X134.444 Y106.998 E0.01787
G1 X134.208 Y107.551 E0.01886
G1 X131.702 Y111.866 E0.15644
G1 X130.998 Y112.586 E0.03159
G1 X129.813 Y113.396 E0.04500
G1 X128.535 Y114.006 E0.04439
G1 X127.575 Y114.243 E0.03102
G1 X122.575 Y114.254 E0.15676
G1 X121.801 Y114.128 E0.02460
G1 X120.120 Y113.357 E0.05798
G1 X119.068 Y112.641 E0.03989
G1 X118.528 Y112.163 E0.02262
G1 X118.189 Y111.706 E0.01784
G1 X115.812 Y107.586 E0.14913
G1 X115.540 Y106.894 E0.02333
G1 X115.353 Y105.710 E0.03758
G1 X115.349 Y104.411 E0.04071
G1 X115.556 Y103.002 E0.04467
G1 X115.792 Y102.449 E0.01886
G1 X118.281 Y98.161 E0.15545
G1 X118.606 Y98.349 F10800.000
G1 F1200.000
G1 X119.100 Y97.815 E0.02284
G1 X120.305 Y96.972 E0.04609
G1 X121.845 Y96.287 E0.05286
G1 X122.427 Y96.140 E0.01882
G1 X127.370 Y96.123 E0.15498
G1 X128.168 Y96.259 E0.02539
G1 X129.369 Y96.798 E0.04128
G1 X130.803 Y97.735 E0.05371
G1 X131.472 Y98.463 E0.03100
G1 X133.884 Y102.643 E0.15132
G1 X134.082 Y103.104 E0.01574
G1 X134.262 Y104.202 E0.03488
G1 X134.291 Y105.153 E0.02981
G1 X134.079 Y106.902 E0.05524
G1 X133.878 Y107.369 E0.01597
G1 X131.397 Y111.644 E0.15498
G1 X130.753 Y112.299 E0.02879
G1 X129.627 Y113.068 E0.04273
G1 X128.409 Y113.651 E0.04235
G1 X127.535 Y113.868 E0.02822
G1 X122.583 Y113.877 E0.15528
G1 X121.893 Y113.762 E0.02194
G1 X120.314 Y113.034 E0.05449
G1 X119.296 Y112.341 E0.03862
G1 X118.795 Y111.896 E0.02101
G1 X116.140 Y107.400 E0.16372
G1 X115.903 Y106.791 E0.02048
G1 X115.729 Y105.680 E0.03526
G1 X115.725 Y104.441 E0.03884
G1 X115.920 Y103.098 E0.04255
G1 X116.122 Y102.631 E0.01597
G1 X118.575 Y98.401 E0.15330
;WIPE_START
M73 Q1 S27
G1 F8640.000
G1 X119.100 Y97.815 E-0.18171
G1 X120.305 Y96.972 E-0.33939
G1 X121.250 Y96.552 E-0.23890
;WIPE_END
G1 E-0.04000 F2100.000
G1 Z0.600 F10800.000
G1 X116.095 Y98.066
M73 P1 R27
G1 Z0.200
G1 E0.80000 F2100.000
G1 F1200.000
G1 X116.819 Y97.195 E0.03550
G1 X118.020 Y96.100 E0.05095
G1 X119.429 Y95.153 E0.05322
G1 X120.326 Y94.705 E0.03144
G1 X121.911 Y94.116 E0.05302
G1 X122.652 Y93.943 E0.02389
G1 X123.255 Y93.850 E0.01911
G1 X123.851 Y93.796 E0.01878
G1 X126.169 Y93.797 E0.07266
G1 X127.315 Y93.948 E0.03624
G1 X128.195 Y94.150 E0.02830
G1 X130.096 Y94.902 E0.06411
G1 X131.153 Y95.512 E0.03825
G1 X132.047 Y96.150 E0.03443
G1 X133.272 Y97.289 E0.05244
G1 X133.824 Y97.945 E0.02690
G1 X135.291 Y100.402 E0.08972
G1 X135.790 Y101.611 E0.04101
G1 X136.109 Y102.901 E0.04167
G1 X136.269 Y104.058 E0.03663
G1 X136.298 Y105.362 E0.04088
G1 X136.190 Y106.646 E0.04040
G1 X135.771 Y108.431 E0.05747
G1 X135.450 Y109.270 E0.02819
G1 X134.125 Y111.616 E0.08446
G1 X133.234 Y112.751 E0.04526
G1 X131.957 Y113.918 E0.05424
G1 X130.867 Y114.670 E0.04152
G1 X129.906 Y115.190 E0.03426
G1 X128.830 Y115.642 E0.03660
G1 X127.594 Y116.009 E0.04041
G1 X126.155 Y116.214 E0.04559
G1 X123.158 Y116.152 E0.09398
G1 X121.144 Y115.634 E0.06521
G1 X119.232 Y114.733 E0.06625
G1 X118.215 Y114.043 E0.03855
G1 X117.140 Y113.126 E0.04430
G1 X116.101 Y111.948 E0.04924
G1 X114.676 Y109.539 E0.08775
G1 X114.155 Y108.194 E0.04525
G1 X113.871 Y106.987 E0.03887
G1 X113.723 Y105.835 E0.03642
G1 X113.704 Y104.596 E0.03886
G1 X113.811 Y103.350 E0.03921
G1 X114.233 Y101.552 E0.05791
G1 X114.718 Y100.389 E0.03949
G1 X116.064 Y98.117 E0.08281
G1 X116.387 Y98.308 F10800.000
G1 F1200.000
G1 X117.083 Y97.464 E0.03430
G1 X118.242 Y96.405 E0.04924
G1 X119.608 Y95.485 E0.05164
G1 X120.467 Y95.055 E0.03011
G1 X122.008 Y94.480 E0.05158
G1 X122.718 Y94.314 E0.02284
G1 X123.295 Y94.225 E0.01832
G1 X123.877 Y94.172 E0.01832
G1 X126.132 Y94.172 E0.07071
G1 X127.256 Y94.321 E0.03556
G1 X128.096 Y94.514 E0.02701
G1 X129.920 Y95.236 E0.06149
G1 X130.956 Y95.834 E0.03753
G1 X131.817 Y96.450 E0.03319
G1 X133.006 Y97.557 E0.05093
G1 X133.526 Y98.175 E0.02534
G1 X134.959 Y100.583 E0.08787
G1 X135.427 Y101.715 E0.03840
G1 X135.741 Y102.982 E0.04092
G1 X135.894 Y104.099 E0.03534
G1 X135.920 Y105.360 E0.03955
G1 X135.815 Y106.600 E0.03903
G1 X135.407 Y108.331 E0.05577
G1 X135.103 Y109.122 E0.02655
G1 X133.804 Y111.418 E0.08271
G1 X132.967 Y112.483 E0.04248
G1 X131.732 Y113.615 E0.05254
G1 X130.661 Y114.353 E0.04078
G1 X129.735 Y114.854 E0.03301
G1 X128.712 Y115.284 E0.03477
G1 X127.500 Y115.644 E0.03965
G1 X126.147 Y115.836 E0.04285
G1 X123.188 Y115.776 E0.09280
G1 X121.256 Y115.273 E0.06259
G1 X119.432 Y114.413 E0.06324
G1 X118.451 Y113.749 E0.03711
G1 X117.395 Y112.848 E0.04354
G1 X116.396 Y111.713 E0.04741
G1 X115.009 Y109.361 E0.08560
G1 X114.519 Y108.095 E0.04258
G1 X114.240 Y106.910 E0.03816
G1 X114.100 Y105.819 E0.03450
G1 X114.081 Y104.600 E0.03822
G1 X114.185 Y103.396 E0.03787
G1 X114.597 Y101.654 E0.05614
G1 X115.049 Y100.570 E0.03682
G1 X116.356 Y98.360 E0.08052
G1 X116.679 Y98.550 F10800.000
G1 F1200.000
G1 X117.348 Y97.733 E0.03310
G1 X118.465 Y96.710 E0.04751
G1 X119.788 Y95.816 E0.05007
G1 X120.609 Y95.405 E0.02878
G1 X122.106 Y94.845 E0.05013
G1 X122.783 Y94.686 E0.02179
G1 X123.335 Y94.600 E0.01751
G1 X123.902 Y94.549 E0.01786
G1 X126.119 Y94.549 E0.06951
G1 X127.197 Y94.693 E0.03411
G1 X127.997 Y94.879 E0.02574
G1 X129.743 Y95.569 E0.05887
G1 X130.760 Y96.156 E0.03681
G1 X131.588 Y96.749 E0.03193
G1 X132.740 Y97.824 E0.04942
G1 X133.227 Y98.406 E0.02377
G1 X134.628 Y100.764 E0.08602
G1 X135.065 Y101.820 E0.03581
G1 X135.372 Y103.063 E0.04016
G1 X135.518 Y104.118 E0.03339
G1 X135.544 Y105.338 E0.03826
G1 X135.440 Y106.554 E0.03827
G1 X135.043 Y108.232 E0.05405
G1 X134.756 Y108.973 E0.02492
G1 X133.483 Y111.219 E0.08097
G1 X132.701 Y112.216 E0.03972
G1 X131.507 Y113.312 E0.05082
G1 X130.455 Y114.037 E0.04005
G1 X129.580 Y114.510 E0.03120
G1 X128.595 Y114.925 E0.03351
G1 X127.406 Y115.278 E0.03889
G1 X126.140 Y115.459 E0.04012
G1 X123.218 Y115.399 E0.09161
G1 X121.369 Y114.913 E0.05996
G1 X119.631 Y114.092 E0.06027
G1 X118.688 Y113.456 E0.03567
G1 X117.650 Y112.570 E0.04277
G1 X116.692 Y111.477 E0.04557
G1 X115.342 Y109.183 E0.08346
G1 X114.883 Y107.996 E0.03992
G1 X114.609 Y106.833 E0.03744
G1 X114.475 Y105.782 E0.03325
G1 X114.458 Y104.604 E0.03693
G1 X114.560 Y103.443 E0.03654
G1 X114.960 Y101.756 E0.05437
G1 X115.380 Y100.751 E0.03416
G1 X116.649 Y98.602 E0.07823
;WIPE_START
G1 F8640.000
G1 X117.348 Y97.733 E-0.25743
G1 X118.465 Y96.710 E-0.34991
G1 X119.013 Y96.340 E-0.15266
;WIPE_END
G1 E-0.04000 F2100.000
G1 Z0.600 F10800.000
G1 X126.082 Y94.925
G1 Z0.200
G1 E0.80000 F2100.000
G1 F1200.000
G1 X127.138 Y95.066 E0.03343
G1 X127.978 Y95.274 E0.02712
;WIPE_START
G1 F8640.000
G1 X127.138 Y95.066 E-0.19974
G1 X126.082 Y94.925 E-0.24616
;WIPE_END
G1 E-0.35410 F2100.000
G1 Z0.600 F10800.000
G1 X126.082 Y94.925
G1 Z0.200
G1 E0.80000 F2100.000
G1 F1200.000
G1 X123.927 Y94.925 E0.06755
G1 X123.387 Y94.973 E0.01702
G1 X122.848 Y95.057 E0.01709
G1 X122.205 Y95.209 E0.02073
G1 X122.051 Y95.267 E0.00516
;WIPE_START
G1 F8640.000
G1 X122.205 Y95.209 E-0.03801
G1 X122.848 Y95.057 E-0.15268
G1 X123.387 Y94.973 E-0.12584
G1 X123.927 Y94.925 E-0.12533
G1 X125.305 Y94.925 E-0.31815
;WIPE_END
G1 E-0.04000 F2100.000
G1 Z0.600 F10800.000
G1 X117.845 Y97.788
G1 Z0.200
G1 E0.80000 F2100.000
G1 F1200.000
G1 X117.613 Y98.002 E0.00990
G1 X116.996 Y98.751 E0.03043
G1 X115.712 Y100.931 E0.07932
G1 X115.323 Y101.858 E0.03153
G1 X115.186 Y102.435 E0.01857
;WIPE_START
G1 F8640.000
G1 X115.323 Y101.858 E-0.13678
G1 X115.712 Y100.931 E-0.23217
G1 X116.571 Y99.472 E-0.39105
;WIPE_END
G1 E-0.04000 F2100.000
G1 Z0.600 F10800.000
G1 X115.125 Y107.380
G1 Z0.200
G1 E0.80000 F2100.000
G1 F1200.000
G1 X115.247 Y107.897 E0.01666
G1 X115.675 Y109.006 E0.03727
G1 X116.987 Y111.243 E0.08132
G1 X117.955 Y112.335 E0.04575
;WIPE_START
G1 F8640.000
G1 X116.987 Y111.243 E-0.33689
G1 X116.060 Y109.662 E-0.42311
;WIPE_END
G1 E-0.04000 F2100.000
G1 Z0.600 F10800.000
G1 X122.386 Y114.793
G1 Z0.200
G1 E0.80000 F2100.000
G1 F1200.000
G1 X123.249 Y115.023 E0.02798
G1 X126.132 Y115.082 E0.09041
G1 X127.312 Y114.913 E0.03738
G1 X127.838 Y114.757 E0.01720
;WIPE_START
G1 F8640.000
G1 X127.312 Y114.913 E-0.12666
G1 X126.132 Y115.082 E-0.27527
G1 X124.581 Y115.050 E-0.35807
;WIPE_END
G1 E-0.04000 F2100.000
G1 Z0.600 F10800.000
G1 X132.149 Y112.212
G1 Z0.200
G1 E0.80000 F2100.000
G1 F1200.000
G1 X132.434 Y111.949 E0.01217
G1 X133.162 Y111.021 E0.03698
G1 X134.410 Y108.823 E0.07925
G1 X134.679 Y108.131 E0.02327
G1 X134.814 Y107.564 E0.01829
;WIPE_START
G1 F8640.000
G1 X134.679 Y108.131 E-0.13471
G1 X134.410 Y108.823 E-0.17138
G1 X133.439 Y110.533 E-0.45392
;WIPE_END
G1 E-0.04000 F2100.000
G1 Z0.600 F10800.000
G1 X134.847 Y102.508
G1 Z0.200
G1 E0.80000 F2100.000
G1 F1200.000
G1 X134.702 Y101.924 E0.01887
G1 X134.297 Y100.945 E0.03322
G1 X132.927 Y98.635 E0.08419
G1 X132.474 Y98.092 E0.02220
G1 X131.956 Y97.608 E0.02222
;WIPE_START
G1 F8640.000
G1 X132.474 Y98.092 E-0.16364
G1 X132.927 Y98.635 E-0.16352
G1 X133.884 Y100.248 E-0.43284
;WIPE_END
G1 E-0.04000 F2100.000
G1 Z0.600 F10800.000
G1 X131.203 Y98.449
G1 Z0.200
G1 E0.80000 F2100.000
G1 F1200.000
G1 X130.666 Y97.944 E0.02308
G1 X129.973 Y97.443 E0.02684
G1 X129.037 Y96.903 E0.03387
G1 X127.682 Y96.367 E0.04570
;WIPE_START
M73 Q2 S27
G1 F8640.000
G1 X129.037 Y96.903 E-0.33655
G1 X129.973 Y97.443 E-0.24944
G1 X130.583 Y97.885 E-0.17400
;WIPE_END
G1 E-0.04000 F2100.000
G1 Z0.600 F10800.000
G1 X122.385 Y96.345
G1 Z0.200
M73 P2 R27
G1 E0.80000 F2100.000
G1 F1200.000
G1 X121.180 Y96.801 E0.04040
G1 X120.513 Y97.140 E0.02345
G1 X119.359 Y97.926 E0.04376
G1 X118.732 Y98.507 E0.02680
;WIPE_START
G1 F8640.000
G1 X119.359 Y97.926 E-0.19740
G1 X120.513 Y97.140 E-0.32228
G1 X121.180 Y96.801 E-0.17266
G1 X121.454 Y96.698 E-0.06767
;WIPE_END
G1 E-0.04000 F2100.000
G1 Z0.600 F10800.000
G1 X116.265 Y102.777
G1 Z0.200
G1 E0.80000 F2100.000
G1 F1200.000
G1 X116.057 Y103.632 E0.02758
G1 X115.966 Y104.659 E0.03232
G1 X115.981 Y105.695 E0.03250
G1 X116.087 Y106.526 E0.02626
G1 X116.216 Y107.075 E0.01768
;WIPE_START
G1 F8640.000
G1 X116.087 Y106.526 E-0.13023
G1 X115.981 Y105.695 E-0.19338
G1 X115.966 Y104.659 E-0.23931
G1 X116.042 Y103.809 E-0.19708
;WIPE_END
G1 E-0.04000 F2100.000
G1 Z0.600 F10800.000
G1 X118.842 Y111.605
G1 Z0.200
G1 E0.80000 F2100.000
G1 F1200.000
G1 X119.634 Y112.280 E0.03260
G1 X120.424 Y112.809 E0.02983
G1 X121.856 Y113.485 E0.04966
G1 X122.615 Y113.688 E0.02464
;WIPE_START
G1 F8640.000
G1 X121.856 Y113.485 E-0.18144
G1 X120.424 Y112.809 E-0.36569
G1 X119.658 Y112.296 E-0.21286
;WIPE_END
G1 E-0.04000 F2100.000
G1 Z0.600 F10800.000
G1 X127.493 Y113.679
G1 Z0.200
G1 E0.80000 F2100.000
G1 F1200.000
G1 X128.125 Y113.492 E0.02067
G1 X128.928 Y113.150 E0.02735
G1 X129.634 Y112.772 E0.02512
G1 X130.606 Y112.101 E0.03704
G1 X131.271 Y111.485 E0.02843
;WIPE_START
G1 F8640.000
G1 X130.606 Y112.101 E-0.20940
G1 X129.634 Y112.772 E-0.27277
G1 X128.928 Y113.150 E-0.18496
G1 X128.558 Y113.308 E-0.09286
;WIPE_END
G1 E-0.04000 F2100.000
G1 Z0.600 F10800.000
G1 X133.735 Y107.223
G1 Z0.200
G1 E0.80000 F2100.000
G1 F1200.000
G1 X133.943 Y106.367 E0.02760
G1 X134.036 Y105.289 E0.03394
G1 X134.012 Y104.216 E0.03366
G1 X133.899 Y103.386 E0.02625
G1 X133.763 Y102.839 E0.01769
G1 X133.252 Y102.341 F10800.000
G1 F1200.000
G1 X133.530 Y103.467 E0.03636
G1 X133.637 Y104.256 E0.02496
G1 X133.659 Y105.287 E0.03234
G1 X133.568 Y106.320 E0.03252
G1 X133.226 Y107.724 E0.04532
G1 X133.028 Y108.216 E0.01664
G1 X131.879 Y110.226 E0.07258
G1 X131.365 Y110.884 E0.02618
G1 X130.381 Y111.799 E0.04213
G1 X129.428 Y112.455 E0.03627
G1 X128.772 Y112.807 E0.02335
G1 X128.007 Y113.133 E0.02607
G1 X126.935 Y113.451 E0.03506
G1 X126.097 Y113.573 E0.02655
G1 X123.503 Y113.535 E0.08133
G1 X122.001 Y113.137 E0.04873
G1 X120.622 Y112.487 E0.04781
G1 X119.870 Y111.985 E0.02834
G1 X118.927 Y111.181 E0.03887
G1 X118.213 Y110.363 E0.03404
G1 X117.008 Y108.298 E0.07495
G1 X116.704 Y107.502 E0.02674
G1 X116.456 Y106.449 E0.03391
G1 X116.358 Y105.679 E0.02436
G1 X116.342 Y104.683 E0.03124
G1 X116.432 Y103.680 E0.03156
G1 X116.775 Y102.273 E0.04541
G1 X117.038 Y101.651 E0.02117
G1 X118.202 Y99.658 E0.07236
G1 X118.677 Y99.072 E0.02364
G1 X119.584 Y98.229 E0.03883
G1 X120.695 Y97.470 E0.04219
G1 X121.323 Y97.150 E0.02211
G1 X122.601 Y96.665 E0.04287
G1 X123.112 Y96.543 E0.01646
G1 X123.571 Y96.470 E0.01456
G1 X124.027 Y96.430 E0.01436
G1 X126.005 Y96.431 E0.06201
G1 X126.898 Y96.555 E0.02827
G1 X127.498 Y96.698 E0.01934
G1 X128.860 Y97.237 E0.04595
G1 X129.775 Y97.765 E0.03313
G1 X130.435 Y98.243 E0.02554
G1 X131.405 Y99.157 E0.04179
G1 X131.726 Y99.549 E0.01587
G1 X132.971 Y101.666 E0.07701
G1 X133.229 Y102.286 E0.02105
G1 X132.882 Y102.430 F10800.000
G1 F1200.000
G1 X133.161 Y103.547 E0.03612
G1 X133.262 Y104.295 E0.02366
G1 X133.282 Y105.284 E0.03101
G1 X133.194 Y106.272 E0.03110
G1 X132.863 Y107.621 E0.04353
G1 X132.684 Y108.063 E0.01496
G1 X131.559 Y110.027 E0.07097
G1 X131.097 Y110.618 E0.02353
G1 X130.155 Y111.496 E0.04037
G1 X129.223 Y112.139 E0.03549
G1 X128.602 Y112.470 E0.02209
G1 X127.889 Y112.775 E0.02429
