; generated by PrusaSlicer 2.3.0+win64 on 2021-04-18 at 05:39:33 UTC

; 

; external perimeters extrusion width = 0.45mm
; perimeters extrusion width = 0.45mm
; infill extrusion width = 0.45mm
; solid infill extrusion width = 0.45mm
; top infill extrusion width = 0.40mm
; first layer extrusion width = 0.42mm

M73 P0 R28
M73 Q0 S29
M201 X1000 Y1000 Z200 E5000 ; sets maximum accelerations, mm/sec^2
M203 X200 Y200 Z12 E120 ; sets maximum feedrates, mm/sec
M204 P1250 R1250 T1250 ; sets acceleration (P, T) and retract acceleration (R), mm/sec^2
M205 X8.00 Y8.00 Z0.40 E4.50 ; sets the jerk limits, mm/sec
M205 S0 T0 ; sets the minimum extruding and travel feed rate, mm/sec
M107
;TYPE:Custom
M862.3 P "MK3S" ; printer model check
M862.1 P0.4 ; nozzle diameter check
M115 U3.9.2 ; tell printer latest fw version
G90 ; use absolute coordinates
M83 ; extruder relative mode
M104 S215 ; set extruder temp
M140 S60 ; set bed temp
M190 S60 ; wait for bed temp
M109 S215 ; wait for extruder temp
G28 W ; home all without mesh bed level
G80 ; mesh bed leveling
G1 Y-3.0 F1000.0 ; go outside print area
G92 E0.0
G1 X60.0 E9.0 F1000.0 ; intro line
G1 X100.0 E12.5 F1000.0 ; intro line
G92 E0.0
M221 S100

; Don't change E values below. Excessive value can damage the printer.
M907 E430 ; set extruder motor current
G21 ; set units to millimeters
G90 ; use absolute coordinates
M83 ; use relative distances for extrusion
M900 K0.05 ; Filament gcode LA 1.5
M900 K30 ; Filament gcode LA 1.0
;LAYER_CHANGE
;Z:0.2
;HEIGHT:0.2
;BEFORE_LAYER_CHANGE
G92 E0.0
;0.2


G1 E-0.80000 F2100.000
G1 Z0.400 F10800.000
;AFTER_LAYER_CHANGE
;0.2
G1 X129.593 Y128.276
G1 Z0.200
G1 E0.80000 F2100.000
M204 S500
;TYPE:Skirt
;WIDTH:0.42
G1 F1200.000
G1 X128.876 Y128.971 E0.03132
G1 X125.777 Y130.755 E0.11211
G1 X125.177 Y130.958 E0.01988
G1 X124.545 Y131.019 E0.01988
G1 X123.885 Y130.925 E0.02090
G1 X123.267 Y130.675 E0.02090
G1 X120.347 Y128.985 E0.10579
G1 X119.619 Y128.290 E0.03157
G1 X119.281 Y127.664 E0.02231
G1 X119.115 Y126.976 E0.02218
G1 X119.096 Y123.448 E0.11062
G1 X119.944 Y83.757 E1.24477
G1 X120.166 Y82.780 E0.03141
G1 X120.644 Y81.717 E0.03654
G1 X121.131 Y81.006 E0.02705
G1 X121.759 Y80.352 E0.02841
G1 X122.562 Y79.764 E0.03120
G1 X123.360 Y79.371 E0.02790
G1 X124.274 Y79.095 E0.02992
G1 X125.567 Y78.981 E0.04071
G1 X126.316 Y79.052 E0.02359
G1 X127.262 Y79.300 E0.03065
G1 X128.028 Y79.646 E0.02636
G1 X128.941 Y80.268 E0.03461
G1 X129.639 Y80.971 E0.03107
G1 X130.135 Y81.681 E0.02717
G1 X130.756 Y83.233 E0.05241
G1 X130.904 Y84.461 E0.03875
G1 X130.903 Y106.630 E0.69512
G1 X130.102 Y126.796 E0.63276
G1 X130.015 Y127.374 E0.01835
G1 X129.619 Y128.221 E0.02931
M204 S1000
G1 X129.657 Y127.250 F10800.000
M204 S500
G1 F1200.000
G1 X129.292 Y128.049 E0.02755
G1 X128.664 Y128.659 E0.02743
G1 X125.634 Y130.405 E0.10966
G1 X125.109 Y130.587 E0.01740
G1 X124.554 Y130.642 E0.01752
G1 X123.982 Y130.560 E0.01811
G1 X123.443 Y130.342 E0.01823
G1 X120.561 Y128.675 E0.10440
G1 X119.913 Y128.053 E0.02813
G1 X119.625 Y127.506 E0.01941
G1 X119.487 Y126.906 E0.01929
G1 X119.473 Y123.455 E0.10819
G1 X120.314 Y83.830 E1.24271
M73 Q0 S28
G1 X120.495 Y82.986 E0.02705
G1 X120.803 Y82.222 E0.02582
G1 X121.372 Y81.310 E0.03371
G1 X122.002 Y80.641 E0.02881
G1 X122.753 Y80.089 E0.02924
G1 X123.485 Y79.727 E0.02560
G1 X124.340 Y79.466 E0.02803
G1 X125.567 Y79.358 E0.03861
G1 X126.254 Y79.425 E0.02166
G1 X127.156 Y79.664 E0.02925
G1 X128.148 Y80.155 E0.03472
G1 X128.784 Y80.630 E0.02489
G1 X129.385 Y81.256 E0.02721
G1 X129.878 Y81.991 E0.02775
G1 X130.306 Y83.002 E0.03442
G1 X130.471 Y83.769 E0.02460
G1 X130.527 Y84.473 E0.02214
M73 Q1 S28
G1 X130.526 Y106.623 E0.69448
M73 P1 R28
G1 X129.660 Y127.191 E0.64546
M204 S1000
;WIPE_START
G1 F8640.000
G1 X129.292 Y128.049 E-0.21577
G1 X128.664 Y128.659 E-0.20201
G1 X127.380 Y129.399 E-0.34222
;WIPE_END
G1 E-0.04000 F2100.000
G1 Z0.600 F10800.000
G1 X118.982 Y119.980
G1 Z0.200
G1 E0.80000 F2100.000
M204 S500
G1 F1200.000
G1 X118.612 Y120.359 E0.01662
G1 X117.945 Y121.348 E0.03738
G1 X117.417 Y122.522 E0.04038
G1 X117.134 Y123.864 E0.04298
G1 X117.244 Y127.074 E0.10071
G1 X117.702 Y128.360 E0.04282
G1 X118.373 Y129.510 E0.04175
G1 X118.932 Y130.199 E0.02780
G1 X119.594 Y130.788 E0.02778
G1 X121.906 Y132.154 E0.08422
G1 X123.012 Y132.550 E0.03684
G1 X124.228 Y132.714 E0.03846
G1 X125.446 Y132.680 E0.03820
G1 X126.675 Y132.413 E0.03943
G1 X129.776 Y130.655 E0.11176
G1 X130.628 Y129.769 E0.03855
G1 X131.295 Y128.761 E0.03791
G1 X131.825 Y127.548 E0.04149
G1 X132.064 Y126.307 E0.03962
G1 X132.055 Y123.825 E0.07783
G1 X131.960 Y123.089 E0.02326
G1 X131.320 Y121.464 E0.05475
G1 X130.922 Y120.828 E0.02352
G1 X130.548 Y120.300 E0.02030
M204 S1000
;WIPE_START
G1 F8640.000
G1 X130.922 Y120.828 E-0.14950
G1 X131.320 Y121.464 E-0.17324
G1 X131.960 Y123.089 E-0.40318
G1 X131.979 Y123.236 E-0.03408
;WIPE_END
G1 E-0.04000 F2100.000
G1 Z0.600 F10800.000
G1 X129.791 Y119.594
G1 Z0.200
G1 E0.80000 F2100.000
M204 S500
G1 F1200.000
G1 X129.410 Y119.249 E0.01613
G1 X127.230 Y117.991 E0.07890
G1 X126.027 Y117.598 E0.03967
M204 S1000
M204 S500
G1 X125.013 Y117.466 E0.03207
G1 X123.776 Y117.497 E0.03881
G1 X122.543 Y117.765 E0.03954
G1 X119.749 Y119.337 E0.10051
M204 S1000
G1 X119.740 Y119.766 F10800.000
M204 S500
G1 F1200.000
G1 X122.652 Y118.127 E0.10476
G1 X123.804 Y117.874 E0.03699
G1 X124.980 Y117.842 E0.03689
M204 S1000
M204 S500
G1 X125.929 Y117.963 E0.02997
G1 X127.059 Y118.328 E0.03725
G1 X129.204 Y119.565 E0.07763
G1 X129.770 Y120.079 E0.02398
M204 S1000
;WIPE_START
G1 F8640.000
G1 X129.204 Y119.565 E-0.17657
G1 X127.059 Y118.328 E-0.57171
G1 X127.011 Y118.312 E-0.01173
;WIPE_END
G1 E-0.04000 F2100.000
G1 Z0.600 F10800.000
G1 X130.524 Y120.918
G1 Z0.200
G1 E0.80000 F2100.000
M204 S500
G1 F1200.000
G1 X130.992 Y121.650 E0.02725
G1 X131.589 Y123.161 E0.05096
G1 X131.677 Y123.838 E0.02141
G1 X131.687 Y126.290 E0.07686
G1 X131.459 Y127.455 E0.03721
G1 X130.957 Y128.593 E0.03903
G1 X130.324 Y129.546 E0.03586
G1 X129.523 Y130.374 E0.03611
G1 X126.566 Y132.051 E0.10660
G1 X125.417 Y132.303 E0.03690
G1 X124.262 Y132.338 E0.03623
G1 X123.119 Y132.188 E0.03612
G1 X122.082 Y131.819 E0.03452
G1 X119.830 Y130.493 E0.08195
G1 X119.215 Y129.949 E0.02574
G1 X118.675 Y129.284 E0.02684
G1 X118.037 Y128.186 E0.03982
G1 X117.609 Y126.976 E0.04025
G1 X117.512 Y123.875 E0.09727
G1 X117.781 Y122.622 E0.04020
G1 X118.281 Y121.518 E0.03800
G1 X118.893 Y120.611 E0.03431
G1 X118.970 Y120.532 E0.00344
M204 S1000
G1 X118.956 Y121.190 F10800.000
M204 S500
G1 F1200.000
G1 X118.618 Y121.689 E0.01892
G1 X118.145 Y122.723 E0.03563
G1 X117.889 Y123.888 E0.03741
G1 X117.975 Y126.879 E0.09382
G1 X118.373 Y128.013 E0.03768
G1 X118.978 Y129.059 E0.03790
G1 X119.477 Y129.677 E0.02489
G1 X120.066 Y130.198 E0.02466
G1 X122.257 Y131.485 E0.07967
G1 X123.225 Y131.826 E0.03220
G1 X124.266 Y131.961 E0.03290
G1 X125.353 Y131.931 E0.03410
G1 X126.457 Y131.689 E0.03544
G1 X129.272 Y130.092 E0.10146
G1 X130.020 Y129.321 E0.03367
G1 X130.619 Y128.425 E0.03381
G1 X131.094 Y127.360 E0.03656
G1 X131.310 Y126.272 E0.03477
G1 X131.300 Y123.852 E0.07588
G1 X131.218 Y123.234 E0.01954
G1 X130.663 Y121.836 E0.04719
G1 X130.498 Y121.572 E0.00976
M204 S1000
;WIPE_START
G1 F8640.000
G1 X130.663 Y121.836 E-0.07188
G1 X131.218 Y123.234 E-0.34752
G1 X131.300 Y123.852 E-0.14392
G1 X131.304 Y124.704 E-0.19669
;WIPE_END
G1 E-0.04000 F2100.000
G1 Z0.600 F10800.000
G1 X129.750 Y120.563
G1 Z0.200
G1 E0.80000 F2100.000
M204 S500
G1 F1200.000
G1 X128.998 Y119.882 E0.03182
G1 X126.889 Y118.665 E0.07636
G1 X125.831 Y118.327 E0.03480
M204 S1000
M204 S500
G1 X124.949 Y118.218 E0.02788
G1 X123.833 Y118.250 E0.03499
G1 X122.761 Y118.489 E0.03444
G1 X119.941 Y120.077 E0.10147
G1 X119.729 Y120.293 E0.00950
M204 S1000
G1 X119.717 Y120.840 F10800.000
M204 S500
G1 F1200.000
G1 X120.191 Y120.360 E0.02114
G1 X122.870 Y118.851 E0.09642
G1 X123.897 Y118.622 E0.03300
G1 X124.918 Y118.594 E0.03200
M204 S1000
M204 S500
G1 X125.736 Y118.692 E0.02582
G1 X126.718 Y119.002 E0.03231
G1 X128.792 Y120.198 E0.07507
G1 X129.625 Y120.953 E0.03523
G1 X129.727 Y121.098 E0.00556
M204 S1000
;WIPE_START
G1 F8640.000
G1 X129.625 Y120.953 E-0.04094
G1 X128.792 Y120.198 E-0.25946
G1 X127.068 Y119.204 E-0.45959
;WIPE_END
G1 E-0.04000 F2100.000
G1 Z0.600 F10800.000
G1 X130.467 Y122.353
G1 Z0.200
G1 E0.80000 F2100.000
M204 S500
G1 F1200.000
G1 X130.848 Y123.308 E0.03224
G1 X130.923 Y123.866 E0.01766
G1 X130.933 Y126.254 E0.07487
G1 X130.728 Y127.264 E0.03230
G1 X130.282 Y128.256 E0.03411
G1 X129.737 Y129.071 E0.03075
G1 X129.020 Y129.810 E0.03229
G1 X126.348 Y131.327 E0.09634
G1 X125.324 Y131.555 E0.03289
G1 X124.298 Y131.585 E0.03218
G1 X123.330 Y131.463 E0.03060
G1 X122.431 Y131.150 E0.02985
G1 X120.302 Y129.904 E0.07736
G1 X119.739 Y129.406 E0.02357
G1 X119.281 Y128.835 E0.02294
G1 X118.723 Y127.871 E0.03492
G1 X118.340 Y126.782 E0.03619
G1 X118.267 Y123.902 E0.09032
G1 X118.508 Y122.826 E0.03460
G1 X118.941 Y121.888 E0.03238
M204 S1000
G1 X119.705 Y121.427 F10800.000
M204 S500
G1 F1200.000
G1 X119.798 Y121.291 E0.00519
G1 X120.440 Y120.644 E0.02855
G1 X122.981 Y119.212 E0.09144
G1 X123.927 Y118.998 E0.03043
G1 X124.888 Y118.970 E0.03015
G1 X125.641 Y119.058 E0.02376
M204 S1000
M204 S500
G1 X126.548 Y119.339 E0.02978
G1 X128.586 Y120.515 E0.07377
G1 X129.329 Y121.188 E0.03143
G1 X129.701 Y121.720 E0.02036
M204 S1000
;WIPE_START
G1 F8640.000
G1 X129.329 Y121.188 E-0.14992
G1 X128.586 Y120.515 E-0.23148
G1 X127.166 Y119.696 E-0.37859
;WIPE_END
G1 E-0.04000 F2100.000
G1 Z0.600 F10800.000
G1 X130.431 Y123.266
G1 Z0.200
G1 E0.80000 F2100.000
M204 S500
G1 F1200.000
G1 X130.478 Y123.383 E0.00397
G1 X130.546 Y123.881 E0.01575
G1 X130.556 Y126.236 E0.07384
G1 X130.364 Y127.166 E0.02979
G1 X129.946 Y128.085 E0.03165
G1 X129.765 Y128.354 E0.01016
M204 S1000
G1 X129.731 Y128.405 F10800.000
M204 S500
G1 F1200.000
G1 X129.434 Y128.846 E0.01667
G1 X128.769 Y129.527 E0.02986
G1 X126.237 Y130.966 E0.09129
G1 X125.294 Y131.179 E0.03033
G1 X124.640 Y131.199 E0.02049
M204 S1000
G1 X124.504 Y131.203 F10800.000
M204 S500
G1 F1200.000
G1 X124.329 Y131.209 E0.00549
G1 X123.433 Y131.100 E0.02829
G1 X122.605 Y130.815 E0.02747
G1 X120.536 Y129.608 E0.07508
G1 X120.022 Y129.157 E0.02145
G1 X119.585 Y128.610 E0.02195
G1 X119.058 Y127.699 E0.03301
G1 X118.706 Y126.687 E0.03359
G1 X118.644 Y123.918 E0.08683
G1 X118.871 Y122.930 E0.03178
G1 X118.921 Y122.822 E0.00373
M204 S1000
;WIPE_START
G1 F8640.000
G1 X118.871 Y122.930 E-0.02748
G1 X118.644 Y123.918 E-0.23406
G1 X118.693 Y126.076 E-0.49845
;WIPE_END
G1 E-0.04000 F2100.000
G1 Z0.600 F10800.000
G1 X119.690 Y122.112
G1 Z0.200
G1 E0.80000 F2100.000
M204 S500
G1 F1200.000
G1 X120.099 Y121.519 E0.02257
G1 X120.688 Y120.929 E0.02615
G1 X123.092 Y119.574 E0.08652
G1 X123.958 Y119.375 E0.02785
G1 X124.860 Y119.347 E0.02832
M204 S1000
M204 S500
G1 X125.549 Y119.424 E0.02172
G1 X126.379 Y119.677 E0.02722
G1 X128.381 Y120.832 E0.07245
G1 X129.034 Y121.423 E0.02764
G1 X129.339 Y121.852 E0.01649
G1 X129.673 Y122.386 E0.01977
M204 S1000
G1 X129.635 Y123.284 F10800.000
M204 S500
G1 F1200.000
G1 X129.349 Y122.580 E0.02383
G1 X129.022 Y122.057 E0.01935
G1 X128.739 Y121.659 E0.01532
G1 X128.175 Y121.148 E0.02385
G1 X126.210 Y120.015 E0.07112
G1 X125.458 Y119.790 E0.02460
M204 S1000
M204 S500
G1 X124.833 Y119.723 E0.01972
G1 X124.024 Y119.746 E0.02538
G1 X123.203 Y119.935 E0.02641
G1 X120.937 Y121.214 E0.08158
G1 X120.378 Y121.774 E0.02480
G1 X119.956 Y122.387 E0.02335
G1 X119.672 Y122.983 E0.02069
M204 S1000
;WIPE_START
G1 F8640.000
G1 X119.956 Y122.387 E-0.15235
G1 X120.378 Y121.774 E-0.17199
G1 X120.937 Y121.214 E-0.18266
G1 X121.891 Y120.675 E-0.25300
;WIPE_END
G1 E-0.04000 F2100.000
G1 Z0.600 F10800.000
G1 X124.552 Y130.451
M73 P2 R28
M73 Q2 S28
G1 Z0.200
G1 E0.80000 F2100.000
M204 S500
G1 F1200.000
G1 X124.571 Y130.450 E0.00060
M204 S1000
;WIPE_START
G1 F8640.000
G1 X124.552 Y130.451 E-0.00443
;WIPE_END
G1 E-0.79557 F2100.000
G1 Z0.600 F10800.000
G1 X125.902 Y129.882
G1 Z0.200
G1 E0.80000 F2100.000
M204 S500
G1 F1200.000
G1 X125.164 Y130.055 E0.02375
G1 X124.415 Y130.080 E0.02352
G1 X123.697 Y129.999 E0.02266
G1 X123.122 Y129.807 E0.01901
G1 X121.238 Y128.719 E0.06818
G1 X120.830 Y128.364 E0.01699
G1 X120.498 Y127.942 E0.01681
G1 X120.082 Y127.216 E0.02623
G1 X119.806 Y126.406 E0.02683
G1 X119.776 Y123.975 E0.07625
G1 X119.955 Y123.256 E0.02322
G1 X120.289 Y122.564 E0.02409
G1 X120.657 Y122.028 E0.02040
G1 X121.186 Y121.499 E0.02345
G1 X123.315 Y120.296 E0.07669
G1 X124.055 Y120.123 E0.02381
G1 X124.808 Y120.099 E0.02361
G1 X125.370 Y120.157 E0.01773
G1 X126.042 Y120.353 E0.02194
G1 X127.969 Y121.465 E0.06976
G1 X128.444 Y121.894 E0.02007
G1 X128.705 Y122.262 E0.01414
G1 X129.021 Y122.766 E0.01867
G1 X129.369 Y123.615 E0.02876
G1 X129.415 Y123.926 E0.00985
G1 X129.424 Y126.177 E0.07059
G1 X129.272 Y126.862 E0.02200
G1 X128.939 Y127.567 E0.02442
G1 X128.588 Y128.093 E0.01984
G1 X128.015 Y128.680 E0.02573
G1 X125.954 Y129.852 E0.07434
M204 S1000
G1 X125.788 Y129.522 F10800.000
M204 S500
G1 F1200.000
G1 X125.131 Y129.678 E0.02117
G1 X124.443 Y129.704 E0.02161
G1 X123.759 Y129.627 E0.02158
G1 X123.294 Y129.471 E0.01537
G1 X121.444 Y128.402 E0.06699
G1 X121.093 Y128.093 E0.01465
G1 X120.805 Y127.722 E0.01474
G1 X120.419 Y127.046 E0.02442
G1 X120.173 Y126.315 E0.02417
G1 X120.153 Y123.998 E0.07267
G1 X120.315 Y123.370 E0.02031
G1 X120.622 Y122.742 E0.02191
G1 X120.936 Y122.282 E0.01749
G1 X121.434 Y121.783 E0.02209
G1 X123.429 Y120.656 E0.07184
G1 X124.087 Y120.499 E0.02120
G1 X124.784 Y120.476 E0.02186
G1 X125.285 Y120.525 E0.01578
G1 X125.874 Y120.692 E0.01921
G1 X127.763 Y121.781 E0.06838
G1 X128.149 Y122.130 E0.01629
G1 X128.389 Y122.467 E0.01297
G1 X128.693 Y122.953 E0.01800
G1 X129.000 Y123.697 E0.02521
G1 X129.038 Y123.942 E0.00780
G1 X129.047 Y126.158 E0.06947
G1 X128.922 Y126.721 E0.01809
G1 X128.617 Y127.371 E0.02251
G1 X128.306 Y127.843 E0.01772
G1 X127.764 Y128.398 E0.02432
G1 X125.840 Y129.492 E0.06938
M204 S1000
G1 X125.672 Y129.162 F10800.000
M204 S500
G1 F1200.000
G1 X125.098 Y129.302 E0.01854
G1 X124.443 Y129.326 E0.02054
G1 X123.822 Y129.255 E0.01962
G1 X123.466 Y129.135 E0.01176
G1 X121.650 Y128.086 E0.06577
G1 X121.359 Y127.825 E0.01226
G1 X121.112 Y127.503 E0.01273
G1 X120.770 Y126.908 E0.02152
G1 X120.540 Y126.224 E0.02262
G1 X120.530 Y124.022 E0.06904
G1 X120.674 Y123.487 E0.01737
G1 X120.954 Y122.921 E0.01980
G1 X121.218 Y122.533 E0.01473
G1 X121.645 Y122.097 E0.01911
G1 X123.545 Y121.016 E0.06856
G1 X124.120 Y120.875 E0.01856
G1 X124.762 Y120.852 E0.02013
G1 X125.203 Y120.893 E0.01388
G1 X125.708 Y121.031 E0.01641
G1 X127.558 Y122.098 E0.06696
G1 X127.854 Y122.366 E0.01252
G1 X128.072 Y122.672 E0.01178
G1 X128.366 Y123.140 E0.01733
G1 X128.632 Y123.781 E0.02174
G1 X128.661 Y123.960 E0.00570
G1 X128.670 Y126.138 E0.06831
G1 X128.572 Y126.581 E0.01421
G1 X128.293 Y127.177 E0.02064
G1 X128.021 Y127.596 E0.01567
G1 X127.552 Y128.085 E0.02124
G1 X125.724 Y129.132 E0.06604
M204 S1000
G1 X125.554 Y128.803 F10800.000
M204 S500
G1 F1200.000
G1 X125.064 Y128.926 E0.01585
G1 X124.444 Y128.949 E0.01943
G1 X123.886 Y128.883 E0.01763
G1 X123.639 Y128.799 E0.00818
G1 X121.857 Y127.770 E0.06451
G1 X121.627 Y127.560 E0.00977
G1 X121.420 Y127.285 E0.01078
G1 X121.121 Y126.769 E0.01870
G1 X120.907 Y126.133 E0.02104
G1 X120.907 Y124.049 E0.06537
G1 X121.020 Y123.638 E0.01336
G1 X121.274 Y123.120 E0.01808
G1 X121.503 Y122.780 E0.01284
G1 X121.857 Y122.410 E0.01606
G1 X123.663 Y121.375 E0.06528
G1 X124.155 Y121.251 E0.01589
G1 X124.742 Y121.229 E0.01841
G1 X125.125 Y121.262 E0.01206
G1 X125.542 Y121.371 E0.01352
G1 X127.352 Y122.415 E0.06550
G1 X127.559 Y122.602 E0.00876
G1 X127.756 Y122.877 E0.01059
G1 X128.038 Y123.327 E0.01667
G1 X128.265 Y123.869 E0.01840
G1 X128.284 Y123.979 E0.00351
G1 X128.293 Y126.119 E0.06709
G1 X128.221 Y126.441 E0.01034
G1 X127.969 Y126.985 E0.01880
G1 X127.733 Y127.352 E0.01368
G1 X127.338 Y127.773 E0.01810
G1 X125.606 Y128.773 E0.06271
M204 S1000
;WIPE_START
G1 F8640.000
G1 X125.064 Y128.926 E-0.13013
