; generated by PrusaSlicer 2.3.0+win64 on 2021-04-18 at 05:40:40 UTC

; 

; external perimeters extrusion width = 0.45mm
; perimeters extrusion width = 0.45mm
; infill extrusion width = 0.45mm
; solid infill extrusion width = 0.45mm
; top infill extrusion width = 0.40mm
; first layer extrusion width = 0.42mm

M73 P0 R38
M73 Q0 S39
M201 X1000 Y1000 Z200 E5000 ; sets maximum accelerations, mm/sec^2
M203 X200 Y200 Z12 E120 ; sets maximum feedrates, mm/sec
M204 P1250 R1250 T1250 ; sets acceleration (P, T) and retract acceleration (R), mm/sec^2
M205 X8.00 Y8.00 Z0.40 E4.50 ; sets the jerk limits, mm/sec
M205 S0 T0 ; sets the minimum extruding and travel feed rate, mm/sec
M107
;TYPE:Custom
M862.3 P "MK3S" ; printer model check
M862.1 P0.4 ; nozzle diameter check
M115 U3.9.2 ; tell printer latest fw version
G90 ; use absolute coordinates
M83 ; extruder relative mode
M104 S215 ; set extruder temp
M140 S60 ; set bed temp
M190 S60 ; wait for bed temp
M109 S215 ; wait for extruder temp
G28 W ; home all without mesh bed level
G80 ; mesh bed leveling
G1 Y-3.0 F1000.0 ; go outside print area
G92 E0.0
G1 X60.0 E9.0 F1000.0 ; intro line
G1 X100.0 E12.5 F1000.0 ; intro line
G92 E0.0
M221 S100

; Don't change E values below. Excessive value can damage the printer.
M907 E430 ; set extruder motor current
G21 ; set units to millimeters
G90 ; use absolute coordinates
M83 ; use relative distances for extrusion
M900 K0.05 ; Filament gcode LA 1.5
M900 K30 ; Filament gcode LA 1.0
;LAYER_CHANGE
;Z:0.2
;HEIGHT:0.2
;BEFORE_LAYER_CHANGE
G92 E0.0
;0.2


G1 E-0.80000 F2100.000
G1 Z0.400 F10800.000
;AFTER_LAYER_CHANGE
;0.2
G1 X130.226 Y128.716
G1 Z0.200
G1 E0.80000 F2100.000
M204 S500
;TYPE:Skirt
;WIDTH:0.42
G1 F1200.000
G1 X129.507 Y129.416 E0.03145
G1 X125.919 Y131.484 E0.12986
G1 X125.299 Y131.694 E0.02052
G1 X124.596 Y131.762 E0.02217
G1 X123.827 Y131.675 E0.02424
G1 X123.159 Y131.421 E0.02243
G1 X119.733 Y129.441 E0.12405
G1 X118.993 Y128.741 E0.03195
G1 X118.555 Y127.951 E0.02831
G1 X118.365 Y127.215 E0.02383
G1 X118.347 Y123.128 E0.12816
G1 X119.158 Y84.089 E1.22429
G1 X119.222 Y83.457 E0.01994
G1 X119.479 Y82.416 E0.03360
G1 X120.008 Y81.259 E0.03989
G1 X120.453 Y80.605 E0.02481
G1 X121.316 Y79.689 E0.03946
G1 X122.078 Y79.135 E0.02955
G1 X123.333 Y78.525 E0.04374
G1 X124.360 Y78.259 E0.03329
G1 X125.266 Y78.176 E0.02851
G1 X126.199 Y78.225 E0.02929
G1 X127.321 Y78.473 E0.03603
G1 X128.370 Y78.925 E0.03581
G1 X129.146 Y79.417 E0.02881
G1 X130.084 Y80.282 E0.04001
G1 X130.689 Y81.087 E0.03156
G1 X131.060 Y81.775 E0.02452
G1 X131.492 Y83.008 E0.04095
G1 X131.649 Y84.266 E0.03977
G1 X131.653 Y106.827 E0.70739
G1 X130.853 Y127.024 E0.63376
G1 X130.751 Y127.658 E0.02014
G1 X130.253 Y128.662 E0.03513
M204 S1000
G1 X129.926 Y128.487 F10800.000
M204 S500
G1 F1200.000
G1 X129.295 Y129.104 E0.02767
G1 X125.772 Y131.137 E0.12754
G1 X125.225 Y131.324 E0.01811
G1 X124.601 Y131.385 E0.01968
G1 X123.919 Y131.310 E0.02150
G1 X123.330 Y131.085 E0.01977
G1 X119.943 Y129.128 E0.12266
G1 X119.287 Y128.504 E0.02837
G1 X118.900 Y127.799 E0.02523
G1 X118.737 Y127.151 E0.02095
G1 X118.724 Y123.134 E0.12594
G1 X119.592 Y83.531 E1.24203
M73 Q0 S38
G1 X119.815 Y82.596 E0.03013
G1 X120.198 Y81.694 E0.03074
G1 X120.707 Y80.890 E0.02981
G1 X121.559 Y79.977 E0.03920
G1 X122.268 Y79.460 E0.02749
G1 X123.466 Y78.878 E0.04177
G1 X124.430 Y78.629 E0.03121
G1 X125.267 Y78.553 E0.02636
G1 X126.141 Y78.598 E0.02743
G1 X127.205 Y78.832 E0.03414
G1 X128.197 Y79.260 E0.03387
G1 X128.917 Y79.717 E0.02674
G1 X129.806 Y80.536 E0.03790
G1 X130.374 Y81.294 E0.02972
G1 X130.715 Y81.927 E0.02254
G1 X131.130 Y83.115 E0.03946
G1 X131.272 Y84.269 E0.03645
G1 X131.276 Y106.821 E0.70710
G1 X130.476 Y127.009 E0.63347
G1 X130.395 Y127.531 E0.01657
G1 X129.953 Y128.433 E0.03151
M204 S1000
;WIPE_START
G1 F8640.000
G1 X129.295 Y129.104 E-0.21684
G1 X127.258 Y130.279 E-0.54316
;WIPE_END
G1 E-0.04000 F2100.000
G1 Z0.600 F10800.000
G1 X125.817 Y76.339
G1 Z0.200
G1 E0.80000 F2100.000
M204 S500
G1 F1200.000
G1 X127.284 Y76.548 E0.04647
G1 X128.666 Y77.008 E0.04567
G1 X129.395 Y77.376 E0.02559
G1 X130.087 Y77.815 E0.02569
G1 X130.885 Y78.468 E0.03234
G1 X131.369 Y78.945 E0.02130
G1 X132.317 Y80.206 E0.04946
G1 X132.708 Y80.942 E0.02614
G1 X133.031 Y81.705 E0.02598
G1 X133.382 Y83.035 E0.04312
G1 X133.494 Y84.065 E0.03249
G1 X133.476 Y85.076 E0.03171
G1 X133.377 Y85.839 E0.02411
G1 X133.201 Y86.591 E0.02423
G1 X132.958 Y87.346 E0.02487
G1 X132.634 Y88.071 E0.02487
G1 X131.838 Y89.226 E0.04399
M204 S1000
;WIPE_START
G1 F8640.000
G1 X132.634 Y88.071 E-0.32399
G1 X132.958 Y87.346 E-0.18317
G1 X133.201 Y86.591 E-0.18318
G1 X133.270 Y86.298 E-0.06967
;WIPE_END
G1 E-0.04000 F2100.000
G1 Z0.600 F10800.000
G1 X131.084 Y90.187
G1 Z0.200
G1 E0.80000 F2100.000
M204 S500
G1 F1200.000
G1 X130.870 Y90.402 E0.00953
G1 X130.307 Y90.876 E0.02307
G1 X128.943 Y91.708 E0.05010
G1 X127.475 Y92.259 E0.04916
G1 X126.658 Y92.428 E0.02616
G1 X125.833 Y92.515 E0.02600
G1 X124.443 Y92.469 E0.04361
G1 X122.775 Y92.092 E0.05364
G1 X121.944 Y91.746 E0.02822
G1 X121.398 Y91.471 E0.01916
G1 X120.394 Y90.794 E0.03797
G1 X119.803 Y90.279 E0.02458
G1 X119.637 Y90.104 E0.00756
M204 S1000
;WIPE_START
G1 F8640.000
G1 X119.803 Y90.279 E-0.05564
G1 X120.394 Y90.794 E-0.18099
G1 X121.398 Y91.471 E-0.27960
G1 X121.944 Y91.746 E-0.14111
G1 X122.354 Y91.917 E-0.10266
;WIPE_END
G1 E-0.04000 F2100.000
G1 Z0.600 F10800.000
G1 X118.863 Y89.199
G1 Z0.200
G1 E0.80000 F2100.000
M204 S500
G1 F1200.000
G1 X118.349 Y88.417 E0.02934
M73 Q1 S38
G1 X117.769 Y87.147 E0.04379
G1 X117.527 Y86.341 E0.02638
G1 X117.373 Y85.515 E0.02635
G1 X117.304 Y84.669 E0.02662
G1 X117.325 Y83.821 E0.02659
G1 X117.518 Y82.547 E0.04041
G1 X117.757 Y81.742 E0.02631
G1 X118.072 Y80.984 E0.02575
G1 X118.441 Y80.286 E0.02475
M73 P1 R38
G1 X118.823 Y79.695 E0.02206
G1 X119.414 Y78.970 E0.02934
G1 X119.876 Y78.502 E0.02061
G1 X121.208 Y77.491 E0.05242
G1 X121.919 Y77.115 E0.02521
G1 X122.771 Y76.760 E0.02896
G1 X124.294 Y76.398 E0.04907
G1 X125.054 Y76.332 E0.02391
G1 X125.817 Y76.339 E0.02393
M204 S1000
G1 X125.077 Y76.709 F10800.000
M204 S500
G1 F1200.000
G1 X125.801 Y76.716 E0.02269
G1 X127.182 Y76.912 E0.04374
G1 X128.509 Y77.351 E0.04383
G1 X129.216 Y77.708 E0.02485
G1 X129.875 Y78.127 E0.02446
G1 X130.639 Y78.754 E0.03099
G1 X131.094 Y79.203 E0.02006
G1 X131.991 Y80.396 E0.04679
G1 X132.365 Y81.098 E0.02492
G1 X132.670 Y81.815 E0.02446
G1 X133.009 Y83.090 E0.04136
G1 X133.117 Y84.071 E0.03093
G1 X133.101 Y85.038 E0.03033
G1 X133.004 Y85.781 E0.02348
G1 X132.840 Y86.483 E0.02261
G1 X132.602 Y87.221 E0.02430
G1 X132.297 Y87.901 E0.02337
G1 X131.838 Y88.567 E0.02537
M204 S1000
;WIPE_START
G1 F8640.000
G1 X132.297 Y87.901 E-0.18681
G1 X132.602 Y87.221 E-0.17207
G1 X132.840 Y86.483 E-0.17897
G1 X133.004 Y85.781 E-0.16653
G1 X133.035 Y85.542 E-0.05562
;WIPE_END
G1 E-0.04000 F2100.000
G1 Z0.600 F10800.000
G1 X131.084 Y89.653
G1 Z0.200
G1 E0.80000 F2100.000
M204 S500
G1 F1200.000
G1 X130.609 Y90.130 E0.02113
G1 X130.075 Y90.578 E0.02184
G1 X128.793 Y91.362 E0.04712
G1 X127.383 Y91.893 E0.04723
G1 X126.609 Y92.054 E0.02480
G1 X125.807 Y92.139 E0.02528
G1 X124.474 Y92.093 E0.04182
G1 X122.905 Y91.737 E0.05045
G1 X122.095 Y91.400 E0.02750
G1 X121.578 Y91.140 E0.01815
G1 X120.633 Y90.502 E0.03575
G1 X120.057 Y90.001 E0.02393
G1 X119.649 Y89.570 E0.01861
M204 S1000
;WIPE_START
G1 F8640.000
G1 X120.057 Y90.001 E-0.13708
G1 X120.633 Y90.502 E-0.17624
G1 X121.578 Y91.140 E-0.26326
G1 X122.095 Y91.400 E-0.13368
G1 X122.294 Y91.483 E-0.04974
;WIPE_END
G1 E-0.04000 F2100.000
G1 Z0.600 F10800.000
G1 X118.876 Y88.545
G1 Z0.200
G1 E0.80000 F2100.000
M204 S500
G1 F1200.000
G1 X118.674 Y88.226 E0.01183
G1 X118.126 Y87.025 E0.04139
G1 X117.895 Y86.261 E0.02503
G1 X117.748 Y85.474 E0.02512
G1 X117.681 Y84.668 E0.02535
G1 X117.702 Y83.842 E0.02590
G1 X117.883 Y82.641 E0.03809
G1 X118.109 Y81.877 E0.02497
G1 X118.410 Y81.152 E0.02461
G1 X118.771 Y80.469 E0.02422
G1 X119.122 Y79.925 E0.02031
G1 X119.700 Y79.215 E0.02872
G1 X120.134 Y78.776 E0.01934
G1 X121.398 Y77.817 E0.04975
G1 X122.072 Y77.460 E0.02391
G1 X122.902 Y77.114 E0.02820
G1 X124.340 Y76.772 E0.04634
G1 X125.077 Y76.709 E0.02319
M204 S1000
G1 X125.784 Y77.093 F10800.000
M204 S500
G1 F1200.000
G1 X127.080 Y77.275 E0.04103
G1 X128.352 Y77.694 E0.04199
G1 X129.022 Y78.031 E0.02353
G1 X129.663 Y78.439 E0.02379
G1 X130.392 Y79.039 E0.02964
G1 X130.819 Y79.462 E0.01882
G1 X131.665 Y80.586 E0.04413
G1 X132.028 Y81.267 E0.02420
G1 X132.318 Y81.950 E0.02327
G1 X132.636 Y83.146 E0.03879
G1 X132.739 Y84.077 E0.02938
G1 X132.726 Y85.001 E0.02895
G1 X132.635 Y85.705 E0.02225
G1 X132.479 Y86.375 E0.02159
G1 X132.254 Y87.076 E0.02307
G1 X131.960 Y87.731 E0.02250
G1 X131.838 Y87.907 E0.00673
M204 S1000
;WIPE_START
G1 F8640.000
G1 X131.960 Y87.731 E-0.04960
G1 X132.254 Y87.076 E-0.16568
G1 X132.479 Y86.375 E-0.16992
G1 X132.635 Y85.705 E-0.15899
G1 X132.726 Y85.001 E-0.16388
G1 X132.729 Y84.776 E-0.05194
;WIPE_END
G1 E-0.04000 F2100.000
G1 Z0.600 F10800.000
G1 X131.084 Y89.003
G1 Z0.200
G1 E0.80000 F2100.000
M204 S500
G1 F1200.000
G1 X130.826 Y89.378 E0.01428
G1 X130.360 Y89.847 E0.02073
G1 X129.844 Y90.280 E0.02112
G1 X128.612 Y91.030 E0.04522
G1 X127.292 Y91.527 E0.04421
G1 X126.542 Y91.683 E0.02404
G1 X125.781 Y91.762 E0.02397
G1 X124.505 Y91.717 E0.04004
G1 X123.035 Y91.383 E0.04728
G1 X122.246 Y91.055 E0.02678
G1 X121.758 Y90.809 E0.01714
G1 X120.872 Y90.210 E0.03354
G1 X120.312 Y89.722 E0.02329
G1 X119.845 Y89.230 E0.02128
G1 X119.661 Y88.996 E0.00932
M204 S1000
;WIPE_START
G1 F8640.000
G1 X119.845 Y89.230 E-0.06862
G1 X120.312 Y89.722 E-0.15671
G1 X120.872 Y90.210 E-0.17149
G1 X121.758 Y90.809 E-0.24697
G1 X122.208 Y91.035 E-0.11621
;WIPE_END
G1 E-0.04000 F2100.000
G1 Z0.600 F10800.000
G1 X118.892 Y87.799
G1 Z0.200
G1 E0.80000 F2100.000
M204 S500
G1 F1200.000
G1 X118.484 Y86.904 E0.03084
G1 X118.259 Y86.162 E0.02431
G1 X118.123 Y85.433 E0.02326
G1 X118.057 Y84.647 E0.02472
G1 X118.078 Y83.864 E0.02456
G1 X118.249 Y82.735 E0.03580
G1 X118.462 Y82.012 E0.02364
G1 X118.747 Y81.320 E0.02345
G1 X119.100 Y80.653 E0.02368
G1 X119.421 Y80.155 E0.01856
G1 X119.987 Y79.460 E0.02809
G1 X120.393 Y79.052 E0.01807
G1 X121.589 Y78.143 E0.04710
G1 X122.225 Y77.804 E0.02260
G1 X123.033 Y77.468 E0.02744
G1 X124.386 Y77.147 E0.04360
G1 X125.100 Y77.085 E0.02247
G1 X125.784 Y77.093 E0.02146
M204 S1000
G1 X125.123 Y77.462 F10800.000
M204 S500
G1 F1200.000
G1 X125.768 Y77.470 E0.02021
G1 X126.979 Y77.639 E0.03835
G1 X128.195 Y78.037 E0.04013
G1 X128.844 Y78.364 E0.02278
G1 X129.450 Y78.750 E0.02253
G1 X130.145 Y79.324 E0.02828
G1 X130.544 Y79.720 E0.01759
G1 X131.339 Y80.776 E0.04148
G1 X131.691 Y81.437 E0.02347
G1 X131.966 Y82.085 E0.02207
G1 X132.263 Y83.202 E0.03624
G1 X132.362 Y84.084 E0.02783
G1 X132.350 Y84.964 E0.02758
G1 X132.265 Y85.629 E0.02103
G1 X132.117 Y86.268 E0.02055
G1 X131.898 Y86.950 E0.02249
G1 X131.838 Y87.083 E0.00457
M204 S1000
;WIPE_START
G1 F8640.000
G1 X131.898 Y86.950 E-0.03367
G1 X132.117 Y86.268 E-0.16560
G1 X132.265 Y85.629 E-0.15135
G1 X132.350 Y84.964 E-0.15485
G1 X132.362 Y84.084 E-0.20308
G1 X132.337 Y83.863 E-0.05145
;WIPE_END
G1 E-0.04000 F2100.000
G1 Z0.600 F10800.000
G1 X131.084 Y88.343
G1 Z0.200
G1 E0.80000 F2100.000
M204 S500
G1 F1200.000
G1 X130.547 Y89.124 E0.02972
G1 X130.098 Y89.575 E0.01993
G1 X129.612 Y89.982 E0.01988
G1 X128.462 Y90.684 E0.04226
G1 X127.201 Y91.161 E0.04228
G1 X126.493 Y91.309 E0.02267
G1 X125.756 Y91.386 E0.02324
G1 X124.537 Y91.341 E0.03824
G1 X123.165 Y91.029 E0.04412
G1 X122.398 Y90.709 E0.02605
G1 X121.939 Y90.477 E0.01612
G1 X121.111 Y89.919 E0.03133
G1 X120.566 Y89.444 E0.02264
G1 X120.135 Y88.990 E0.01962
G1 X119.674 Y88.396 E0.02358
M204 S1000
;WIPE_START
G1 F8640.000
G1 X120.135 Y88.990 E-0.17363
G1 X120.566 Y89.444 E-0.14451
G1 X121.111 Y89.919 E-0.16674
G1 X121.939 Y90.477 E-0.23075
G1 X122.111 Y90.564 E-0.04438
;WIPE_END
G1 E-0.04000 F2100.000
G1 Z0.600 F10800.000
G1 X118.910 Y86.934
G1 Z0.200
G1 E0.80000 F2100.000
M204 S500
G1 F1200.000
G1 X118.841 Y86.782 E0.00522
G1 X118.628 Y86.082 E0.02296
G1 X118.498 Y85.391 E0.02204
G1 X118.435 Y84.646 E0.02345
G1 X118.453 Y83.908 E0.02315
G1 X118.614 Y82.828 E0.03422
G1 X118.814 Y82.146 E0.02230
G1 X119.085 Y81.489 E0.02229
G1 X119.430 Y80.836 E0.02315
G1 X119.720 Y80.385 E0.01681
G1 X120.273 Y79.706 E0.02746
G1 X120.651 Y79.327 E0.01678
G1 X121.780 Y78.468 E0.04447
G1 X122.378 Y78.149 E0.02128
G1 X123.164 Y77.822 E0.02668
G1 X124.432 Y77.521 E0.04087
G1 X125.123 Y77.462 E0.02174
M204 S1000
G1 X125.751 Y77.847 F10800.000
M204 S500
G1 F1200.000
G1 X126.878 Y78.002 E0.03569
G1 X128.039 Y78.381 E0.03827
G1 X128.650 Y78.687 E0.02142
G1 X129.237 Y79.062 E0.02185
G1 X129.898 Y79.609 E0.02690
G1 X130.268 Y79.977 E0.01637
G1 X131.013 Y80.967 E0.03884
G1 X131.354 Y81.607 E0.02274
G1 X131.613 Y82.220 E0.02086
G1 X131.890 Y83.259 E0.03372
G1 X131.985 Y84.092 E0.02628
G1 X131.975 Y84.927 E0.02620
G1 X131.895 Y85.554 E0.01980
G1 X131.838 Y85.804 E0.00805
M204 S1000
;WIPE_START
G1 F8640.000
G1 X131.895 Y85.554 E-0.05925
G1 X131.975 Y84.927 E-0.14580
G1 X131.985 Y84.092 E-0.19293
G1 X131.890 Y83.259 E-0.19355
G1 X131.702 Y82.554 E-0.16847
;WIPE_END
G1 E-0.04000 F2100.000
G1 Z0.600 F10800.000
G1 X131.084 Y87.684
G1 Z0.200
G1 E0.80000 F2100.000
M204 S500
G1 F1200.000
G1 X130.267 Y88.870 E0.04517
G1 X129.849 Y89.291 E0.01859
G1 X129.381 Y89.684 E0.01915
G1 X128.281 Y90.353 E0.04037
G1 X127.109 Y90.795 E0.03928
G1 X126.425 Y90.938 E0.02190
G1 X125.731 Y91.009 E0.02189
G1 X124.569 Y90.965 E0.03645
G1 X123.295 Y90.675 E0.04097
G1 X122.549 Y90.364 E0.02533
G1 X122.120 Y90.146 E0.01509
G1 X121.350 Y89.627 E0.02914
G1 X120.821 Y89.166 E0.02200
G1 X120.426 Y88.750 E0.01798
G1 X120.012 Y88.225 E0.02094
G1 X119.689 Y87.715 E0.01895
M204 S1000
;WIPE_START
G1 F8640.000
G1 X120.012 Y88.225 E-0.13957
G1 X120.426 Y88.750 E-0.15419
G1 X120.821 Y89.166 E-0.13240
G1 X121.350 Y89.627 E-0.16198
G1 X121.967 Y90.043 E-0.17185
;WIPE_END
G1 E-0.04000 F2100.000
G1 Z0.600 F10800.000
G1 X118.936 Y85.682
G1 Z0.200
G1 E0.80000 F2100.000
M204 S500
G1 F1200.000
G1 X118.873 Y85.349 E0.01063
G1 X118.812 Y84.644 E0.02219
G1 X118.828 Y83.951 E0.02173
G1 X118.980 Y82.921 E0.03264
G1 X119.167 Y82.280 E0.02096
G1 X119.423 Y81.657 E0.02111
G1 X119.760 Y81.019 E0.02262
G1 X120.019 Y80.615 E0.01506
G1 X120.559 Y79.952 E0.02681
G1 X120.908 Y79.602 E0.01549
G1 X121.971 Y78.794 E0.04187
G1 X122.532 Y78.493 E0.01995
G1 X123.295 Y78.176 E0.02590
G1 X124.478 Y77.896 E0.03814
G1 X125.146 Y77.838 E0.02101
G1 X125.751 Y77.847 E0.01897
M204 S1000
;WIPE_START
G1 F8640.000
G1 X125.146 Y77.838 E-0.13968
G1 X124.478 Y77.896 E-0.15471
G1 X123.295 Y78.176 E-0.28085
G1 X122.556 Y78.483 E-0.18476
;WIPE_END
G1 E-0.04000 F2100.000
G1 Z0.600 F10800.000
G1 X119.708 Y86.874
G1 Z0.200
G1 E0.80000 F2100.000
M204 S500
G1 F1200.000
G1 X119.977 Y87.464 E0.02033
G1 X120.315 Y88.000 E0.01987
G1 X120.717 Y88.509 E0.02035
G1 X121.075 Y88.887 E0.01633
G1 X121.589 Y89.335 E0.02135
G1 X122.301 Y89.816 E0.02696
G1 X122.701 Y90.019 E0.01406
G1 X123.425 Y90.320 E0.02460
G1 X124.602 Y90.588 E0.03784
G1 X125.706 Y90.633 E0.03464
G1 X126.377 Y90.564 E0.02115
G1 X127.017 Y90.429 E0.02052
G1 X128.101 Y90.021 E0.03631
G1 X129.150 Y89.385 E0.03847
G1 X129.600 Y89.008 E0.01842
G1 X129.987 Y88.617 E0.01724
G1 X130.950 Y87.218 E0.05327
G1 X131.084 Y86.925 E0.01010
M204 S1000
;WIPE_START
G1 F8640.000
G1 X130.950 Y87.218 E-0.07437
G1 X129.987 Y88.617 E-0.39226
G1 X129.600 Y89.008 E-0.12697
G1 X129.150 Y89.385 E-0.13564
G1 X129.036 Y89.454 E-0.03076
;WIPE_END
G1 E-0.04000 F2100.000
G1 Z0.600 F10800.000
G1 X119.731 Y85.826
G1 Z0.200
G1 E0.80000 F2100.000
M204 S500
G1 F1200.000
G1 X119.911 Y86.415 E0.01932
G1 X120.302 Y87.273 E0.02958
G1 X120.628 Y87.790 E0.01915
G1 X121.007 Y88.269 E0.01914
G1 X121.330 Y88.609 E0.01470
G1 X121.827 Y89.043 E0.02070
G1 X122.483 Y89.485 E0.02478
G1 X122.853 Y89.673 E0.01302
G1 X123.555 Y89.966 E0.02387
G1 X124.635 Y90.212 E0.03472
G1 X125.682 Y90.256 E0.03284
G1 X126.309 Y90.193 E0.01978
