; generated by PrusaSlicer 2.3.0+win64 on 2021-04-18 at 05:42:21 UTC

; 

; external perimeters extrusion width = 0.45mm
; perimeters extrusion width = 0.45mm
; infill extrusion width = 0.45mm
; solid infill extrusion width = 0.45mm
; top infill extrusion width = 0.40mm
; first layer extrusion width = 0.42mm

M73 P0 R66
M73 Q0 S67
M201 X1000 Y1000 Z200 E5000 ; sets maximum accelerations, mm/sec^2
M203 X200 Y200 Z12 E120 ; sets maximum feedrates, mm/sec
M204 P1250 R1250 T1250 ; sets acceleration (P, T) and retract acceleration (R), mm/sec^2
M205 X8.00 Y8.00 Z0.40 E4.50 ; sets the jerk limits, mm/sec
M205 S0 T0 ; sets the minimum extruding and travel feed rate, mm/sec
M107
;TYPE:Custom
M862.3 P "MK3S" ; printer model check
M862.1 P0.4 ; nozzle diameter check
M115 U3.9.2 ; tell printer latest fw version
G90 ; use absolute coordinates
M83 ; extruder relative mode
M104 S215 ; set extruder temp
M140 S60 ; set bed temp
M190 S60 ; wait for bed temp
M109 S215 ; wait for extruder temp
G28 W ; home all without mesh bed level
G80 ; mesh bed leveling
G1 Y-3.0 F1000.0 ; go outside print area
G92 E0.0
G1 X60.0 E9.0 F1000.0 ; intro line
G1 X100.0 E12.5 F1000.0 ; intro line
G92 E0.0
M221 S100

; Don't change E values below. Excessive value can damage the printer.
M907 E430 ; set extruder motor current
G21 ; set units to millimeters
G90 ; use absolute coordinates
M83 ; use relative distances for extrusion
M900 K0.05 ; Filament gcode LA 1.5
M900 K30 ; Filament gcode LA 1.0
;LAYER_CHANGE
;Z:0.2
;HEIGHT:0.2
;BEFORE_LAYER_CHANGE
G92 E0.0
;0.2


G1 E-0.80000 F2100.000
G1 Z0.400 F10800.000
;AFTER_LAYER_CHANGE
;0.2
G1 X119.384 Y80.719
G1 Z0.200
G1 E0.80000 F2100.000
M204 S500
;TYPE:Skirt
;WIDTH:0.42
G1 F1200.000
G1 X120.372 Y79.504 E0.04909
G1 X121.549 Y78.576 E0.04699
G1 X122.635 Y78.018 E0.03829
G1 X124.076 Y77.604 E0.04700
G1 X125.523 Y77.508 E0.04547
G1 X127.077 Y77.739 E0.04928
G1 X128.095 Y78.095 E0.03380
G1 X128.843 Y78.481 E0.02637
G1 X129.941 Y79.281 E0.04260
G1 X130.811 Y80.221 E0.04018
G1 X131.348 Y81.014 E0.03002
G1 X131.922 Y82.299 E0.04413
G1 X132.167 Y83.269 E0.03136
G1 X132.275 Y84.679 E0.04435
G1 X132.031 Y107.085 E0.70256
G1 X131.228 Y127.235 E0.63231
G1 X131.112 Y127.913 E0.02154
G1 X130.453 Y129.175 E0.04465
G1 X129.714 Y129.889 E0.03221
G1 X125.900 Y132.083 E0.13798
G1 X125.216 Y132.295 E0.02243
G1 X124.362 Y132.347 E0.02682
G1 X123.633 Y132.276 E0.02297
G1 X123.003 Y132.060 E0.02090
G1 X119.115 Y129.803 E0.14093
G1 X118.641 Y129.358 E0.02039
G1 X118.212 Y128.729 E0.02387
G1 X117.894 Y128.078 E0.02272
G1 X117.745 Y127.470 E0.01963
G1 X117.723 Y123.092 E0.13728
G1 X118.276 Y84.606 E1.20684
G1 X118.389 Y83.232 E0.04322
G1 X118.722 Y82.040 E0.03883
G1 X119.357 Y80.773 E0.04443
M204 S1000
G1 X119.692 Y80.940 F10800.000
M204 S500
G1 F1200.000
G1 X120.635 Y79.774 E0.04703
G1 X121.754 Y78.893 E0.04465
G1 X122.776 Y78.368 E0.03601
G1 X124.145 Y77.975 E0.04466
G1 X125.522 Y77.885 E0.04328
G1 X127.000 Y78.109 E0.04687
G1 X127.955 Y78.445 E0.03174
G1 X128.641 Y78.799 E0.02420
G1 X129.699 Y79.570 E0.04105
G1 X130.520 Y80.460 E0.03796
G1 X131.022 Y81.204 E0.02816
G1 X131.569 Y82.433 E0.04215
G1 X131.804 Y83.374 E0.03043
G1 X131.898 Y84.680 E0.04106
G1 X131.654 Y107.079 E0.70233
G1 X130.851 Y127.216 E0.63189
G1 X130.758 Y127.782 E0.01799
G1 X130.153 Y128.946 E0.04115
G1 X129.506 Y129.574 E0.02825
G1 X125.755 Y131.735 E0.13575
G1 X125.149 Y131.924 E0.01989
G1 X124.368 Y131.970 E0.02452
G1 X123.714 Y131.908 E0.02061
G1 X123.157 Y131.715 E0.01846
G1 X119.348 Y129.506 E0.13809
G1 X118.926 Y129.111 E0.01811
G1 X118.535 Y128.535 E0.02182
G1 X118.248 Y127.949 E0.02045
G1 X118.117 Y127.406 E0.01752
G1 X118.100 Y123.095 E0.13520
G1 X118.653 Y84.617 E1.20657
G1 X118.760 Y83.304 E0.04130
G1 X119.070 Y82.186 E0.03638
G1 X119.665 Y80.994 E0.04178
M204 S1000
;WIPE_START
G1 F8640.000
G1 X120.635 Y79.774 E-0.35986
G1 X121.754 Y78.893 E-0.32882
G1 X122.029 Y78.752 E-0.07132
;WIPE_END
G1 E-0.04000 F2100.000
G1 Z0.600 F10800.000
G1 X126.593 Y75.798
G1 Z0.200
G1 E0.80000 F2100.000
M204 S500
G1 F1200.000
G1 X127.578 Y76.004 E0.03155
G1 X128.849 Y76.455 E0.04228
G1 X130.008 Y77.108 E0.04172
G1 X130.937 Y77.798 E0.03628
G1 X131.724 Y78.507 E0.03321
G1 X132.269 Y79.173 E0.02698
G1 X132.914 Y80.148 E0.03668
G1 X133.326 Y80.934 E0.02780
G1 X133.538 Y81.484 E0.01849
G1 X133.762 Y82.180 E0.02292
G1 X133.916 Y82.804 E0.02017
G1 X134.053 Y83.805 E0.03169
G1 X134.078 Y84.585 E0.02444
G1 X134.003 Y85.681 E0.03447
G1 X133.790 Y86.758 E0.03440
G1 X133.363 Y87.980 E0.04059
M73 Q0 S66
G1 X132.906 Y88.877 E0.03156
G1 X132.409 Y89.658 E0.02902
M204 S1000
;WIPE_START
G1 F8640.000
G1 X132.906 Y88.877 E-0.21372
G1 X133.363 Y87.980 E-0.23243
G1 X133.790 Y86.758 E-0.29895
G1 X133.803 Y86.694 E-0.01491
;WIPE_END
G1 E-0.04000 F2100.000
G1 Z0.600 F10800.000
G1 X131.645 Y90.561
G1 Z0.200
G1 E0.80000 F2100.000
M204 S500
G1 F1200.000
G1 X131.449 Y90.787 E0.00939
G1 X130.073 Y91.893 E0.05534
G1 X129.348 Y92.311 E0.02625
G1 X128.724 Y92.607 E0.02166
G1 X126.749 Y93.188 E0.06453
G1 X126.099 Y93.269 E0.02054
G1 X125.251 Y93.313 E0.02664
G1 X124.094 Y93.208 E0.03642
G1 X122.926 Y92.983 E0.03729
G1 X122.030 Y92.689 E0.02957
G1 X121.288 Y92.352 E0.02554
G1 X120.393 Y91.836 E0.03240
G1 X119.866 Y91.447 E0.02053
G1 X118.989 Y90.668 E0.03678
G1 X118.758 Y90.408 E0.01090
M204 S1000
;WIPE_START
G1 F8640.000
G1 X118.989 Y90.668 E-0.08025
G1 X119.866 Y91.447 E-0.27089
G1 X120.393 Y91.836 E-0.15119
G1 X121.288 Y92.352 E-0.23864
G1 X121.363 Y92.386 E-0.01903
;WIPE_END
G1 E-0.04000 F2100.000
G1 Z0.600 F10800.000
G1 X118.017 Y89.491
G1 Z0.200
G1 E0.80000 F2100.000
M204 S500
G1 F1200.000
G1 X116.992 Y87.469 E0.07111
G1 X116.738 Y86.670 E0.02627
G1 X116.574 Y85.856 E0.02604
G1 X116.473 Y84.355 E0.04717
G1 X116.620 Y82.888 E0.04623
G1 X116.893 Y81.812 E0.03481
G1 X117.291 Y80.795 E0.03424
G1 X117.758 Y79.938 E0.03060
G1 X118.440 Y78.976 E0.03697
G1 X119.157 Y78.171 E0.03381
G1 X119.782 Y77.626 E0.02599
G1 X120.326 Y77.223 E0.02123
G1 X122.158 Y76.269 E0.06476
G1 X122.830 Y76.050 E0.02217
G1 X123.925 Y75.802 E0.03521
G1 X124.761 Y75.717 E0.02633
G1 X125.584 Y75.708 E0.02582
G1 X126.593 Y75.798 E0.03177
M204 S1000
;WIPE_START
G1 F8640.000
G1 X125.584 Y75.708 E-0.23396
G1 X124.761 Y75.717 E-0.19014
G1 X123.925 Y75.802 E-0.19390
G1 X123.325 Y75.938 E-0.14200
;WIPE_END
G1 E-0.04000 F2100.000
G1 Z0.600 F10800.000
G1 X125.561 Y76.084
G1 Z0.200
G1 E0.80000 F2100.000
M204 S500
G1 F1200.000
G1 X126.527 Y76.169 E0.03042
G1 X127.488 Y76.370 E0.03079
G1 X128.707 Y76.804 E0.04056
G1 X129.793 Y77.417 E0.03909
G1 X130.705 Y78.096 E0.03564
G1 X131.442 Y78.757 E0.03105
G1 X131.960 Y79.389 E0.02561
G1 X132.595 Y80.348 E0.03607
G1 X132.978 Y81.079 E0.02589
G1 X133.181 Y81.604 E0.01764
G1 X133.401 Y82.289 E0.02254
G1 X133.548 Y82.885 E0.01924
G1 X133.678 Y83.846 E0.03043
G1 X133.701 Y84.569 E0.02267
G1 X133.631 Y85.620 E0.03304
G1 X133.423 Y86.671 E0.03359
G1 X133.011 Y87.843 E0.03893
G1 X132.574 Y88.697 E0.03009
G1 X132.417 Y88.944 E0.00919
M204 S1000
;WIPE_START
G1 F8640.000
G1 X132.574 Y88.697 E-0.06767
G1 X133.011 Y87.843 E-0.22159
G1 X133.423 Y86.671 E-0.28669
G1 X133.578 Y85.889 E-0.18404
;WIPE_END
G1 E-0.04000 F2100.000
G1 Z0.600 F10800.000
G1 X131.651 Y89.979
G1 Z0.200
G1 E0.80000 F2100.000
M204 S500
G1 F1200.000
G1 X131.175 Y90.527 E0.02274
G1 X129.872 Y91.573 E0.05241
G1 X129.166 Y91.980 E0.02555
G1 X128.576 Y92.260 E0.02048
G1 X126.687 Y92.816 E0.06174
G1 X126.073 Y92.893 E0.01940
G1 X125.245 Y92.936 E0.02600
G1 X124.156 Y92.836 E0.03428
G1 X123.009 Y92.615 E0.03662
G1 X122.176 Y92.341 E0.02750
G1 X121.468 Y92.021 E0.02437
G1 X120.607 Y91.525 E0.03113
G1 X120.109 Y91.159 E0.01938
G1 X119.263 Y90.409 E0.03545
G1 X118.766 Y89.849 E0.02349
M204 S1000
;WIPE_START
G1 F8640.000
G1 X119.263 Y90.409 E-0.17300
G1 X120.109 Y91.159 E-0.26105
G1 X120.607 Y91.525 E-0.14276
G1 X121.295 Y91.921 E-0.18320
;WIPE_END
G1 E-0.04000 F2100.000
G1 Z0.600 F10800.000
G1 X118.029 Y88.697
G1 Z0.200
G1 E0.80000 F2100.000
M204 S500
G1 F1200.000
G1 X117.346 Y87.340 E0.04763
G1 X117.106 Y86.585 E0.02484
G1 X116.946 Y85.793 E0.02532
G1 X116.850 Y84.376 E0.04454
G1 X116.989 Y82.967 E0.04441
G1 X117.255 Y81.916 E0.03398
G1 X117.638 Y80.944 E0.03275
G1 X118.072 Y80.147 E0.02846
G1 X118.741 Y79.202 E0.03630
G1 X119.414 Y78.447 E0.03171
G1 X120.024 Y77.915 E0.02538
G1 X120.538 Y77.535 E0.02005
G1 X122.290 Y76.622 E0.06193
G1 X122.922 Y76.415 E0.02086
G1 X123.975 Y76.176 E0.03386
G1 X124.774 Y76.094 E0.02517
G1 X125.561 Y76.084 E0.02467
M204 S1000
;WIPE_START
G1 F8640.000
G1 X124.774 Y76.094 E-0.18168
G1 X123.975 Y76.176 E-0.18537
G1 X122.922 Y76.415 E-0.24938
G1 X122.331 Y76.609 E-0.14357
;WIPE_END
G1 E-0.04000 F2100.000
G1 Z0.600 F10800.000
G1 X126.483 Y76.544
G1 Z0.200
G1 E0.80000 F2100.000
M204 S500
G1 F1200.000
G1 X127.398 Y76.737 E0.02932
G1 X128.565 Y77.154 E0.03886
G1 X129.577 Y77.727 E0.03647
G1 X130.473 Y78.393 E0.03502
G1 X131.160 Y79.008 E0.02891
G1 X131.651 Y79.605 E0.02423
G1 X132.275 Y80.548 E0.03546
G1 X132.630 Y81.225 E0.02398
G1 X132.823 Y81.725 E0.01679
G1 X133.040 Y82.398 E0.02217
G1 X133.179 Y82.965 E0.01830
G1 X133.303 Y83.887 E0.02917
G1 X133.324 Y84.553 E0.02090
G1 X133.256 Y85.583 E0.03236
G1 X133.056 Y86.584 E0.03201
G1 X132.660 Y87.705 E0.03727
G1 X132.425 Y88.163 E0.01613
M204 S1000
;WIPE_START
G1 F8640.000
G1 X132.660 Y87.705 E-0.11881
G1 X133.056 Y86.584 E-0.27450
G1 X133.256 Y85.583 E-0.23571
G1 X133.293 Y85.017 E-0.13098
;WIPE_END
G1 E-0.04000 F2100.000
G1 Z0.600 F10800.000
G1 X131.658 Y89.401
G1 Z0.200
G1 E0.80000 F2100.000
M204 S500
G1 F1200.000
G1 X130.902 Y90.266 E0.03601
G1 X129.671 Y91.254 E0.04949
G1 X128.985 Y91.650 E0.02486
G1 X128.428 Y91.912 E0.01930
G1 X126.624 Y92.443 E0.05896
G1 X126.046 Y92.517 E0.01827
G1 X125.239 Y92.558 E0.02535
G1 X124.219 Y92.464 E0.03213
G1 X123.093 Y92.247 E0.03596
G1 X122.322 Y91.993 E0.02543
G1 X121.648 Y91.689 E0.02320
G1 X120.822 Y91.215 E0.02986
G1 X120.352 Y90.871 E0.01824
G1 X119.538 Y90.150 E0.03410
G1 X119.033 Y89.581 E0.02386
G1 X118.775 Y89.242 E0.01335
M204 S1000
;WIPE_START
G1 F8640.000
G1 X119.033 Y89.581 E-0.09834
G1 X119.538 Y90.150 E-0.17574
G1 X120.352 Y90.871 E-0.25112
G1 X120.822 Y91.215 E-0.13433
G1 X121.199 Y91.431 E-0.10047
;WIPE_END
G1 E-0.04000 F2100.000
G1 Z0.600 F10800.000
G1 X118.040 Y87.887
G1 Z0.200
G1 E0.80000 F2100.000
M204 S500
G1 F1200.000
G1 X117.701 Y87.211 E0.02369
G1 X117.468 Y86.481 E0.02405
G1 X117.318 Y85.731 E0.02396
G1 X117.227 Y84.397 E0.04193
G1 X117.358 Y83.045 E0.04257
G1 X117.618 Y82.021 E0.03315
G1 X117.984 Y81.093 E0.03126
G1 X118.386 Y80.356 E0.02633
G1 X119.043 Y79.429 E0.03563
G1 X119.671 Y78.724 E0.02961
G1 X120.266 Y78.204 E0.02476
G1 X120.750 Y77.847 E0.01886
G1 X122.422 Y76.976 E0.05912
G1 X123.015 Y76.781 E0.01957
G1 X124.026 Y76.550 E0.03251
G1 X124.788 Y76.471 E0.02402
G1 X125.537 Y76.461 E0.02351
G1 X126.483 Y76.544 E0.02976
M204 S1000
;WIPE_START
G1 F8640.000
G1 X125.537 Y76.461 E-0.21914
G1 X124.788 Y76.471 E-0.17312
G1 X124.026 Y76.550 E-0.17686
G1 X123.220 Y76.734 E-0.19089
;WIPE_END
G1 E-0.04000 F2100.000
G1 Z0.600 F10800.000
G1 X125.515 Y76.837
G1 Z0.200
G1 E0.80000 F2100.000
M204 S500
G1 F1200.000
G1 X126.416 Y76.915 E0.02838
G1 X127.307 Y77.103 E0.02855
G1 X128.422 Y77.503 E0.03713
G1 X129.361 Y78.036 E0.03387
G1 X130.241 Y78.691 E0.03440
G1 X130.879 Y79.259 E0.02677
G1 X131.342 Y79.821 E0.02284
G1 X131.955 Y80.749 E0.03485
G1 X132.283 Y81.372 E0.02207
G1 X132.466 Y81.846 E0.01593
G1 X132.678 Y82.507 E0.02178
G1 X132.811 Y83.045 E0.01736
G1 X132.928 Y83.927 E0.02790
G1 X132.947 Y84.555 E0.01970
G1 X132.880 Y85.545 E0.03112
G1 X132.689 Y86.496 E0.03042
G1 X132.436 Y87.209 E0.02373
M204 S1000
;WIPE_START
G1 F8640.000
G1 X132.689 Y86.496 E-0.17478
G1 X132.880 Y85.545 E-0.22401
G1 X132.947 Y84.555 E-0.22915
G1 X132.930 Y83.983 E-0.13206
;WIPE_END
G1 E-0.04000 F2100.000
G1 Z0.600 F10800.000
G1 X131.665 Y88.721
G1 Z0.200
G1 E0.80000 F2100.000
M204 S500
G1 F1200.000
G1 X131.426 Y89.096 E0.01395
G1 X130.630 Y90.005 E0.03789
G1 X129.471 Y90.934 E0.04658
G1 X128.803 Y91.319 E0.02416
G1 X128.281 Y91.565 E0.01811
G1 X126.561 Y92.071 E0.05619
G1 X126.020 Y92.141 E0.01712
G1 X125.233 Y92.181 E0.02469
G1 X124.281 Y92.092 E0.02999
G1 X123.176 Y91.879 E0.03529
G1 X122.468 Y91.645 E0.02338
G1 X121.827 Y91.357 E0.02204
G1 X121.035 Y90.904 E0.02859
G1 X120.595 Y90.582 E0.01710
G1 X119.812 Y89.892 E0.03274
G1 X119.320 Y89.336 E0.02327
G1 X118.926 Y88.818 E0.02040
G1 X118.785 Y88.537 E0.00988
M204 S1000
;WIPE_START
G1 F8640.000
G1 X118.926 Y88.818 E-0.07272
G1 X119.320 Y89.336 E-0.15021
G1 X119.812 Y89.892 E-0.17139
G1 X120.595 Y90.582 E-0.24111
G1 X121.031 Y90.901 E-0.12457
;WIPE_END
G1 E-0.04000 F2100.000
G1 Z0.600 F10800.000
G1 X118.052 Y87.070
G1 Z0.200
G1 E0.80000 F2100.000
M204 S500
G1 F1200.000
G1 X117.836 Y86.396 E0.02220
G1 X117.690 Y85.669 E0.02325
G1 X117.604 Y84.417 E0.03934
G1 X117.727 Y83.124 E0.04072
G1 X117.980 Y82.126 E0.03230
G1 X118.330 Y81.243 E0.02976
G1 X118.700 Y80.565 E0.02422
G1 X119.345 Y79.655 E0.03495
G1 X119.928 Y79.000 E0.02751
G1 X120.508 Y78.494 E0.02413
G1 X120.962 Y78.160 E0.01767
G1 X122.555 Y77.329 E0.05633
G1 X123.108 Y77.146 E0.01827
G1 X124.077 Y76.924 E0.03116
G1 X124.802 Y76.848 E0.02286
G1 X125.515 Y76.837 E0.02235
M204 S1000
G1 X126.372 Y77.290 F10800.000
M204 S500
G1 F1200.000
G1 X127.216 Y77.469 E0.02704
G1 X128.278 Y77.852 E0.03542
G1 X129.145 Y78.345 E0.03127
G1 X130.010 Y78.989 E0.03379
G1 X130.597 Y79.511 E0.02465
G1 X131.033 Y80.038 E0.02144
G1 X131.635 Y80.949 E0.03424
G1 X131.935 Y81.518 E0.02017
G1 X132.109 Y81.966 E0.01507
G1 X132.317 Y82.616 E0.02140
G1 X132.442 Y83.124 E0.01641
G1 X132.553 Y83.966 E0.02664
G1 X132.570 Y84.539 E0.01796
G1 X132.508 Y85.483 E0.02966
G1 X132.451 Y85.765 E0.00901
M204 S1000
;WIPE_START
G1 F8640.000
G1 X132.508 Y85.483 E-0.06636
G1 X132.570 Y84.539 E-0.21840
G1 X132.553 Y83.966 E-0.13229
G1 X132.442 Y83.124 E-0.19615
G1 X132.317 Y82.616 E-0.12085
G1 X132.283 Y82.509 E-0.02593
;WIPE_END
G1 E-0.04000 F2100.000
G1 Z0.600 F10800.000
G1 X131.673 Y87.981
G1 Z0.200
G1 E0.80000 F2100.000
M204 S500
G1 F1200.000
G1 X131.116 Y88.881 E0.03318
G1 X130.358 Y89.743 E0.03601
G1 X129.270 Y90.615 E0.04370
G1 X128.622 Y90.988 E0.02346
G1 X128.133 Y91.217 E0.01691
G1 X126.498 Y91.699 E0.05345
G1 X125.993 Y91.765 E0.01597
G1 X125.228 Y91.804 E0.02402
G1 X124.344 Y91.720 E0.02784
G1 X123.259 Y91.511 E0.03462
G1 X122.613 Y91.297 E0.02134
G1 X122.005 Y91.025 E0.02088
G1 X121.249 Y90.593 E0.02731
G1 X120.838 Y90.293 E0.01595
G1 X120.087 Y89.633 E0.03137
G1 X119.607 Y89.091 E0.02267
G1 X119.237 Y88.604 E0.01917
G1 X118.797 Y87.725 E0.03085
M204 S1000
;WIPE_START
G1 F8640.000
G1 X119.237 Y88.604 E-0.22718
G1 X119.607 Y89.091 E-0.14117
G1 X120.087 Y89.633 E-0.16698
G1 X120.817 Y90.275 E-0.22467
;WIPE_END
G1 E-0.04000 F2100.000
G1 Z0.600 F10800.000
G1 X118.072 Y85.658
G1 Z0.200
G1 E0.80000 F2100.000
M204 S500
G1 F1200.000
G1 X117.980 Y84.437 E0.03840
G1 X118.096 Y83.203 E0.03886
G1 X118.343 Y82.230 E0.03145
G1 X118.676 Y81.394 E0.02825
G1 X119.014 Y80.774 E0.02213
G1 X119.646 Y79.882 E0.03428
G1 X120.185 Y79.276 E0.02541
G1 X120.750 Y78.783 E0.02350
G1 X121.173 Y78.472 E0.01648
G1 X122.688 Y77.682 E0.05356
G1 X123.202 Y77.512 E0.01698
G1 X124.128 Y77.297 E0.02980
G1 X124.816 Y77.225 E0.02171
G1 X125.492 Y77.214 E0.02118
G1 X126.372 Y77.290 E0.02770
M204 S1000
;WIPE_START
G1 F8640.000
G1 X125.492 Y77.214 E-0.20400
G1 X124.816 Y77.225 E-0.15599
G1 X124.128 Y77.297 E-0.15986
G1 X123.202 Y77.512 E-0.21947
G1 X123.117 Y77.540 E-0.02068
;WIPE_END
G1 E-0.04000 F2100.000
G1 Z0.600 F10800.000
G1 X118.809 Y86.911
G1 Z0.200
G1 E0.80000 F2100.000
M204 S500
G1 F1200.000
G1 X119.549 Y88.391 E0.05188
G1 X119.894 Y88.847 E0.01794
G1 X120.361 Y89.373 E0.02207
G1 X121.080 Y90.004 E0.02998
G1 X121.462 Y90.282 E0.01481
G1 X122.184 Y90.692 E0.02605
G1 X122.758 Y90.949 E0.01973
G1 X123.343 Y91.143 E0.01932
G1 X124.407 Y91.348 E0.03396
G1 X125.222 Y91.427 E0.02570
G1 X125.966 Y91.388 E0.02335
G1 X126.435 Y91.327 E0.01481
G1 X127.987 Y90.870 E0.05073
