; generated by PrusaSlicer 2.3.0+win64 on 2021-04-18 at 05:46:55 UTC

; 

; external perimeters extrusion width = 0.45mm
; perimeters extrusion width = 0.45mm
; infill extrusion width = 0.45mm
; solid infill extrusion width = 0.45mm
; top infill extrusion width = 0.40mm
; first layer extrusion width = 0.42mm

M73 P0 R104
M73 Q0 S104
M201 X1000 Y1000 Z200 E5000 ; sets maximum accelerations, mm/sec^2
M203 X200 Y200 Z12 E120 ; sets maximum feedrates, mm/sec
M204 P1250 R1250 T1250 ; sets acceleration (P, T) and retract acceleration (R), mm/sec^2
M205 X8.00 Y8.00 Z0.40 E4.50 ; sets the jerk limits, mm/sec
M205 S0 T0 ; sets the minimum extruding and travel feed rate, mm/sec
M107
;TYPE:Custom
M862.3 P "MK3S" ; printer model check
M862.1 P0.4 ; nozzle diameter check
M115 U3.9.2 ; tell printer latest fw version
G90 ; use absolute coordinates
M83 ; extruder relative mode
M104 S215 ; set extruder temp
M140 S60 ; set bed temp
M190 S60 ; wait for bed temp
M109 S215 ; wait for extruder temp
G28 W ; home all without mesh bed level
G80 ; mesh bed leveling
G1 Y-3.0 F1000.0 ; go outside print area
G92 E0.0
G1 X60.0 E9.0 F1000.0 ; intro line
G1 X100.0 E12.5 F1000.0 ; intro line
G92 E0.0
M221 S100

; Don't change E values below. Excessive value can damage the printer.
M907 E430 ; set extruder motor current
G21 ; set units to millimeters
G90 ; use absolute coordinates
M83 ; use relative distances for extrusion
M900 K0.05 ; Filament gcode LA 1.5
M900 K30 ; Filament gcode LA 1.0
;LAYER_CHANGE
;Z:0.2
;HEIGHT:0.2
;BEFORE_LAYER_CHANGE
G92 E0.0
;0.2


G1 E-0.80000 F2100.000
G1 Z0.400 F10800.000
;AFTER_LAYER_CHANGE
;0.2
G1 X88.095 Y99.462
G1 Z0.200
G1 E0.80000 F2100.000
M204 S500
;TYPE:Skirt
;WIDTH:0.42
G1 F1200.000
G1 X88.760 Y98.398 E0.03934
G1 X89.206 Y97.979 E0.01918
G1 X89.703 Y97.658 E0.01856
G1 X90.362 Y97.403 E0.02215
G1 X90.956 Y97.306 E0.01887
G1 X102.154 Y97.298 E0.35110
G1 X158.875 Y97.798 E1.77852
M73 P0 R103
G1 X159.440 Y97.857 E0.01781
G1 X160.284 Y98.153 E0.02806
G1 X161.037 Y98.688 E0.02894
G1 X161.698 Y99.542 E0.03387
G1 X162.063 Y100.436 E0.03028
G1 X162.227 Y101.570 E0.03591
G1 X162.227 Y108.934 E0.23089
G1 X162.144 Y109.750 E0.02572
G1 X161.792 Y110.760 E0.03355
G1 X161.404 Y111.407 E0.02364
G1 X160.931 Y111.906 E0.02155
G1 X160.069 Y112.444 E0.03187
G1 X159.505 Y112.631 E0.01862
G1 X158.903 Y112.701 E0.01900
G1 X128.831 Y112.702 E0.94290
G1 X91.103 Y112.202 E1.18303
G1 X90.530 Y112.137 E0.01807
G1 X89.923 Y111.942 E0.02000
G1 X89.004 Y111.352 E0.03424
G1 X88.482 Y110.747 E0.02505
G1 X88.077 Y109.995 E0.02678
G1 X87.923 Y109.497 E0.01636
G1 X87.773 Y108.457 E0.03294
G1 X87.813 Y100.528 E0.24862
G1 X88.080 Y99.520 E0.03268
M204 S1000
;WIPE_START
G1 F8640.000
G1 X88.760 Y98.398 E-0.30300
G1 X89.206 Y97.979 E-0.14127
G1 X89.703 Y97.658 E-0.13671
G1 X90.362 Y97.403 E-0.16310
G1 X90.430 Y97.392 E-0.01592
;WIPE_END
G1 E-0.04000 F2100.000
G1 Z0.600 F10800.000
G1 X102.482 Y95.149
G1 Z0.200
G1 E0.80000 F2100.000
M204 S500
G1 F1200.000
G1 X90.860 Y95.146 E0.36438
G1 X89.840 Y95.299 E0.03235
G1 X88.767 Y95.687 E0.03578
G1 X87.433 Y96.597 E0.05063
G1 X86.602 Y97.538 E0.03937
G1 X85.956 Y98.695 E0.04155
G1 X85.585 Y99.867 E0.03853
G1 X85.439 Y101.110 E0.03925
G1 X85.468 Y108.776 E0.24035
G1 X85.778 Y110.338 E0.04993
G1 X86.146 Y111.211 E0.02970
G1 X86.683 Y112.069 E0.03173
G1 X87.445 Y112.916 E0.03574
G1 X88.878 Y113.866 E0.05391
G1 X89.874 Y114.209 E0.03302
G1 X90.903 Y114.356 E0.03259
G1 X102.324 Y114.363 E0.35809
G1 X103.872 Y114.082 E0.04933
G1 X105.032 Y113.539 E0.04016
G1 X106.004 Y112.773 E0.03880
G1 X106.151 Y112.590 E0.00737
M204 S1000
G1 X106.450 Y112.217 F10800.000
M204 S500
G1 F1200.000
G1 X106.915 Y111.638 E0.02328
G1 X107.451 Y110.540 E0.03830
G1 X107.766 Y109.377 E0.03778
G1 X107.860 Y108.418 E0.03021
G1 X107.820 Y100.603 E0.24503
G1 X107.442 Y98.921 E0.05406
G1 X107.004 Y98.016 E0.03152
G1 X106.675 Y97.526 E0.01850
M204 S1000
G1 X106.378 Y97.147 F10800.000
M204 S500
G1 F1200.000
G1 X106.026 Y96.745 E0.01674
G1 X105.112 Y96.024 E0.03652
G1 X104.019 Y95.476 E0.03833
G1 X102.482 Y95.149 E0.04928
M204 S1000
G1 X102.424 Y95.522 F10800.000
M204 S500
G1 F1200.000
G1 X90.875 Y95.523 E0.36212
G1 X89.915 Y95.669 E0.03045
G1 X88.959 Y96.012 E0.03183
G1 X87.665 Y96.895 E0.04911
G1 X86.899 Y97.771 E0.03651
G1 X86.310 Y98.827 E0.03792
G1 X85.950 Y99.963 E0.03736
G1 X85.815 Y101.142 E0.03720
G1 X85.845 Y108.756 E0.23873
G1 X86.144 Y110.244 E0.04759
G1 X86.487 Y111.049 E0.02743
G1 X86.975 Y111.831 E0.02890
G1 X87.675 Y112.617 E0.03299
G1 X89.025 Y113.518 E0.05090
G1 X89.946 Y113.838 E0.03056
G1 X90.943 Y113.981 E0.03160
G1 X102.307 Y113.986 E0.35632
G1 X103.736 Y113.730 E0.04550
G1 X104.817 Y113.228 E0.03738
G1 X105.642 Y112.583 E0.03284
M204 S1000
G1 X105.974 Y112.210 F10800.000
M204 S500
G1 F1200.000
G1 X106.586 Y111.452 E0.03057
G1 X107.092 Y110.423 E0.03595
G1 X107.392 Y109.324 E0.03573
G1 X107.483 Y108.410 E0.02879
G1 X107.447 Y100.665 E0.24284
G1 X107.093 Y99.065 E0.05139
G1 X106.683 Y98.215 E0.02957
G1 X106.208 Y97.522 E0.02635
M204 S1000
G1 X105.874 Y97.142 F10800.000
M204 S500
G1 F1200.000
G1 X105.755 Y97.008 E0.00562
G1 X104.895 Y96.333 E0.03429
G1 X103.873 Y95.824 E0.03577
G1 X102.424 Y95.522 E0.04642
M204 S1000
G1 X102.405 Y95.899 F10800.000
M204 S500
G1 F1200.000
G1 X90.916 Y95.898 E0.36022
G1 X90.022 Y96.031 E0.02833
G1 X89.151 Y96.338 E0.02896
G1 X87.899 Y97.192 E0.04754
G1 X87.197 Y98.003 E0.03362
G1 X86.663 Y98.960 E0.03437
G1 X86.323 Y100.025 E0.03504
G1 X86.191 Y101.174 E0.03627
G1 X86.222 Y108.736 E0.23709
G1 X86.509 Y110.149 E0.04523
G1 X86.828 Y110.886 E0.02516
G1 X87.269 Y111.594 E0.02616
G1 X87.906 Y112.318 E0.03025
G1 X89.172 Y113.170 E0.04785
G1 X90.052 Y113.476 E0.02920
G1 X90.982 Y113.606 E0.02945
G1 X102.291 Y113.609 E0.35459
G1 X103.601 Y113.377 E0.04170
G1 X104.604 Y112.916 E0.03461
G1 X105.044 Y112.575 E0.01747
M204 S1000
G1 X105.495 Y112.204 F10800.000
M204 S500
G1 F1200.000
G1 X106.258 Y111.265 E0.03793
G1 X106.734 Y110.305 E0.03360
G1 X107.019 Y109.270 E0.03367
G1 X107.106 Y108.401 E0.02736
G1 X107.074 Y100.726 E0.24068
G1 X106.743 Y99.208 E0.04872
G1 X106.362 Y98.413 E0.02762
G1 X105.960 Y97.811 E0.02271
G1 X105.702 Y97.518 E0.01225
M204 S1000
G1 X105.313 Y97.137 F10800.000
M204 S500
G1 F1200.000
G1 X104.679 Y96.642 E0.02524
G1 X103.728 Y96.173 E0.03322
G1 X102.405 Y95.899 E0.04238
M204 S1000
G1 X102.349 Y96.272 F10800.000
M204 S500
G1 F1200.000
G1 X90.958 Y96.273 E0.35716
G1 X90.096 Y96.401 E0.02731
G1 X89.301 Y96.685 E0.02648
G1 X88.168 Y97.457 E0.04300
G1 X87.495 Y98.235 E0.03222
G1 X87.003 Y99.126 E0.03193
G1 X86.688 Y100.121 E0.03272
G1 X86.568 Y101.183 E0.03353
G1 X86.595 Y108.679 E0.23501
G1 X86.874 Y110.054 E0.04400
G1 X87.167 Y110.722 E0.02285
G1 X87.564 Y111.358 E0.02352
G1 X88.139 Y112.020 E0.02750
G1 X89.320 Y112.822 E0.04475
G1 X90.157 Y113.114 E0.02781
G1 X91.020 Y113.231 E0.02729
G1 X102.275 Y113.232 E0.35290
G1 X103.467 Y113.024 E0.03795
G1 X104.392 Y112.604 E0.03185
G1 X104.440 Y112.567 E0.00189
M204 S1000
G1 X104.923 Y112.196 F10800.000
M204 S500
G1 F1200.000
G1 X105.169 Y112.008 E0.00972
G1 X105.930 Y111.077 E0.03769
G1 X106.375 Y110.186 E0.03124
G1 X106.645 Y109.215 E0.03159
G1 X106.729 Y108.393 E0.02592
G1 X106.702 Y100.785 E0.23853
G1 X106.393 Y99.349 E0.04604
G1 X106.041 Y98.610 E0.02567
G1 X105.668 Y98.051 E0.02109
G1 X105.187 Y97.513 E0.02261
M204 S1000
G1 X104.695 Y97.132 F10800.000
M204 S500
G1 F1200.000
G1 X104.463 Y96.953 E0.00918
G1 X103.585 Y96.523 E0.03066
G1 X102.349 Y96.272 E0.03955
M204 S1000
G1 X102.330 Y96.649 F10800.000
M204 S500
G1 F1200.000
G1 X90.998 Y96.648 E0.35532
G1 X90.205 Y96.763 E0.02513
G1 X89.450 Y97.032 E0.02512
G1 X88.436 Y97.723 E0.03849
G1 X87.815 Y98.436 E0.02964
G1 X87.356 Y99.258 E0.02951
G1 X87.053 Y100.217 E0.03152
G1 X86.945 Y101.193 E0.03080
G1 X86.969 Y108.622 E0.23294
G1 X87.240 Y109.958 E0.04275
G1 X87.506 Y110.556 E0.02051
G1 X87.860 Y111.124 E0.02100
G1 X88.373 Y111.724 E0.02476
G1 X89.469 Y112.475 E0.04165
G1 X90.228 Y112.742 E0.02521
G1 X91.058 Y112.855 E0.02627
G1 X102.259 Y112.855 E0.35121
G1 X103.335 Y112.670 E0.03423
G1 X103.589 Y112.556 E0.00873
M204 S1000
G1 X104.316 Y112.188 F10800.000
M204 S500
G1 F1200.000
G1 X104.892 Y111.750 E0.02271
G1 X105.603 Y110.889 E0.03499
G1 X106.030 Y110.034 E0.02998
G1 X106.272 Y109.161 E0.02841
G1 X106.352 Y108.384 E0.02450
G1 X106.329 Y100.844 E0.23641
G1 X106.043 Y99.491 E0.04337
G1 X105.719 Y98.808 E0.02369
G1 X105.362 Y98.270 E0.02024
G1 X104.943 Y97.797 E0.01982
G1 X104.567 Y97.508 E0.01486
M204 S1000
G1 X103.964 Y97.125 F10800.000
M204 S500
G1 F1200.000
G1 X103.443 Y96.873 E0.01817
G1 X102.330 Y96.649 E0.03557
M204 S1000
G1 X102.276 Y97.023 F10800.000
M204 S500
G1 F1200.000
G1 X102.746 Y97.115 E0.01501
M204 S1000
G1 X102.276 Y97.023 F10800.000
M204 S500
G1 F1200.000
G1 X91.037 Y97.024 E0.35242
G1 X90.313 Y97.125 E0.02291
G1 X89.600 Y97.379 E0.02374
G1 X88.703 Y97.990 E0.03403
G1 X88.134 Y98.638 E0.02702
G1 X87.695 Y99.424 E0.02825
G1 X87.419 Y100.311 E0.02912
G1 X87.322 Y101.202 E0.02811
G1 X87.342 Y108.565 E0.23087
G1 X87.605 Y109.862 E0.04148
G1 X87.844 Y110.388 E0.01813
G1 X88.156 Y110.890 E0.01852
G1 X88.644 Y111.460 E0.02353
G1 X89.618 Y112.128 E0.03703
G1 X90.334 Y112.380 E0.02382
G1 X91.070 Y112.478 E0.02327
G1 X97.732 Y112.478 E0.20888
M204 S1000
;WIPE_START
G1 F8640.000
G1 X94.441 Y112.478 E-0.76000
;WIPE_END
G1 E-0.04000 F2100.000
G1 Z0.600 F10800.000
G1 X103.516 Y112.178
G1 Z0.200
G1 E0.80000 F2100.000
M204 S500
G1 F1200.000
G1 X103.973 Y111.975 E0.01569
G1 X104.617 Y111.491 E0.02525
G1 X105.276 Y110.700 E0.03228
G1 X105.672 Y109.914 E0.02759
G1 X105.898 Y109.106 E0.02633
G1 X105.975 Y108.375 E0.02304
G1 X105.956 Y100.901 E0.23431
G1 X105.692 Y99.631 E0.04070
G1 X105.397 Y99.004 E0.02171
G1 X105.070 Y98.510 E0.01857
G1 X104.673 Y98.061 E0.01881
G1 X104.037 Y97.575 E0.02508
G1 X103.883 Y97.502 E0.00535
M204 S1000
;WIPE_START
G1 F8640.000
G1 X104.037 Y97.575 E-0.03940
G1 X104.673 Y98.061 E-0.18470
G1 X105.070 Y98.510 E-0.13853
G1 X105.397 Y99.004 E-0.13673
G1 X105.692 Y99.631 E-0.15992
G1 X105.781 Y100.058 E-0.10072
;WIPE_END
G1 E-0.04000 F2100.000
G1 Z0.600 F10800.000
G1 X97.734 Y112.101
G1 Z0.200
G1 E0.80000 F2100.000
M204 S500
G1 F1200.000
G1 X102.228 Y112.101 E0.14090
G1 X103.076 Y111.960 E0.02695
G1 X103.767 Y111.659 E0.02362
G1 X104.343 Y111.231 E0.02251
G1 X104.950 Y110.509 E0.02957
G1 X105.314 Y109.793 E0.02520
G1 X105.525 Y109.049 E0.02423
G1 X105.598 Y108.365 E0.02158
G1 X105.582 Y100.958 E0.23225
G1 X105.341 Y99.769 E0.03802
G1 X105.074 Y99.200 E0.01970
G1 X104.763 Y98.729 E0.01769
G1 X104.404 Y98.326 E0.01695
G1 X103.825 Y97.888 E0.02273
G1 X103.163 Y97.574 E0.02299
G1 X102.734 Y97.492 E0.01369
M204 S1000
G1 X103.023 Y97.926 F10800.000
M204 S500
G1 F1200.000
G1 X103.647 Y98.221 E0.02162
G1 X104.134 Y98.590 E0.01918
G1 X104.472 Y98.970 E0.01593
G1 X104.751 Y99.395 E0.01595
G1 X104.989 Y99.907 E0.01770
G1 X105.209 Y101.013 E0.03535
G1 X105.220 Y108.355 E0.23021
G1 X105.152 Y108.992 E0.02010
G1 X104.957 Y109.670 E0.02212
G1 X104.625 Y110.317 E0.02279
G1 X104.071 Y110.969 E0.02683
G1 X103.563 Y111.341 E0.01976
G1 X102.950 Y111.604 E0.02091
G1 X102.214 Y111.724 E0.02339
G1 X91.096 Y111.724 E0.34858
G1 X90.477 Y111.639 E0.01959
G1 X89.920 Y111.435 E0.01859
G1 X89.182 Y110.930 E0.02805
G1 X88.779 Y110.465 E0.01929
G1 X88.509 Y110.032 E0.01602
G1 X88.310 Y109.591 E0.01514
G1 X88.089 Y108.456 E0.03628
G1 X88.076 Y101.221 E0.22684
G1 X88.157 Y100.465 E0.02386
G1 X88.388 Y99.723 E0.02436
G1 X88.748 Y99.075 E0.02323
G1 X89.236 Y98.526 E0.02303
G1 X89.902 Y98.071 E0.02527
G1 X90.494 Y97.857 E0.01976
G1 X91.088 Y97.776 E0.01879
G1 X102.241 Y97.777 E0.34970
G1 X102.964 Y97.914 E0.02308
M204 S1000
G1 X102.884 Y98.277 F10800.000
M204 S500
G1 F1200.000
G1 X103.467 Y98.553 E0.02024
G1 X103.866 Y98.855 E0.01568
G1 X104.165 Y99.189 E0.01404
G1 X104.428 Y99.590 E0.01504
G1 X104.637 Y100.043 E0.01565
G1 X104.835 Y101.067 E0.03269
G1 X104.843 Y108.345 E0.22821
G1 X104.779 Y108.935 E0.01860
M73 Q0 S103
G1 X104.601 Y109.546 E0.01998
G1 X104.301 Y110.123 E0.02037
G1 X103.801 Y110.706 E0.02409
G1 X103.361 Y111.022 E0.01699
G1 X102.825 Y111.248 E0.01821
G1 X102.199 Y111.347 E0.01988
G1 X91.108 Y111.347 E0.34775
G1 X90.587 Y111.277 E0.01649
G1 X90.072 Y111.089 E0.01719
G1 X89.450 Y110.664 E0.02361
G1 X89.090 Y110.251 E0.01717
G1 X88.847 Y109.865 E0.01432
G1 X88.663 Y109.457 E0.01402
G1 X88.462 Y108.403 E0.03365
G1 X88.453 Y101.230 E0.22489
G1 X88.523 Y100.557 E0.02124
G1 X88.727 Y99.888 E0.02191
G1 X89.067 Y99.278 E0.02191
G1 X89.501 Y98.795 E0.02034
G1 X90.055 Y98.417 E0.02103
G1 X90.567 Y98.227 E0.01713
G1 X91.101 Y98.153 E0.01691
G1 X102.224 Y98.154 E0.34874
G1 X102.825 Y98.266 E0.01917
M204 S1000
G1 X102.746 Y98.629 F10800.000
M204 S500
G1 F1200.000
G1 X103.288 Y98.886 E0.01883
G1 X103.597 Y99.120 E0.01217
G1 X103.874 Y99.429 E0.01301
G1 X104.104 Y99.783 E0.01322
G1 X104.284 Y100.178 E0.01362
G1 X104.462 Y101.119 E0.03002
G1 X104.466 Y108.335 E0.22624
G1 X104.406 Y108.876 E0.01707
G1 X104.245 Y109.421 E0.01782
G1 X103.978 Y109.927 E0.01795
G1 X103.532 Y110.440 E0.02132
G1 X103.162 Y110.701 E0.01419
G1 X102.704 Y110.890 E0.01554
G1 X102.185 Y110.970 E0.01645
G1 X91.121 Y110.970 E0.34690
G1 X90.660 Y110.907 E0.01461
G1 X90.226 Y110.745 E0.01452
G1 X89.718 Y110.397 E0.01930
G1 X89.400 Y110.036 E0.01507
G1 X89.185 Y109.697 E0.01258
G1 X89.017 Y109.323 E0.01286
G1 X88.836 Y108.352 E0.03099
G1 X88.830 Y101.239 E0.22301
G1 X88.890 Y100.647 E0.01868
G1 X89.067 Y100.053 E0.01941
G1 X89.386 Y99.481 E0.02054
G1 X89.764 Y99.066 E0.01761
G1 X90.210 Y98.761 E0.01692
G1 X90.642 Y98.597 E0.01449
G1 X91.115 Y98.530 E0.01498
G1 X102.208 Y98.531 E0.34780
G1 X102.687 Y98.618 E0.01527
M204 S1000
G1 X102.617 Y98.988 F10800.000
M204 S500
G1 F1200.000
G1 X103.104 Y99.215 E0.01684
G1 X103.351 Y99.406 E0.00979
G1 X103.581 Y99.667 E0.01091
G1 X103.779 Y99.974 E0.01144
G1 X103.930 Y100.311 E0.01158
G1 X104.088 Y101.170 E0.02737
G1 X104.090 Y108.305 E0.22373
G1 X104.039 Y108.788 E0.01521
G1 X103.901 Y109.265 E0.01559
G1 X103.678 Y109.697 E0.01524
G1 X103.264 Y110.174 E0.01980
G1 X102.967 Y110.378 E0.01128
G1 X102.585 Y110.532 E0.01292
G1 X102.172 Y110.593 E0.01309
G1 X91.133 Y110.593 E0.34612
G1 X90.771 Y110.546 E0.01144
G1 X90.379 Y110.399 E0.01311
G1 X89.984 Y110.129 E0.01501
G1 X89.709 Y109.819 E0.01299
G1 X89.523 Y109.529 E0.01080
G1 X89.370 Y109.190 E0.01167
G1 X89.210 Y108.302 E0.02829
G1 X89.207 Y101.248 E0.22118
G1 X89.257 Y100.734 E0.01619
G1 X89.407 Y100.218 E0.01686
G1 X89.704 Y99.685 E0.01912
G1 X90.026 Y99.338 E0.01484
G1 X90.364 Y99.106 E0.01288
G1 X90.755 Y98.958 E0.01308
G1 X91.127 Y98.907 E0.01178
G1 X102.190 Y98.908 E0.34686
G1 X102.558 Y98.977 E0.01176
M204 S1000
G1 X102.493 Y99.342 F10800.000
M204 S500
G1 F1200.000
G1 X102.921 Y99.546 E0.01486
G1 X103.080 Y99.669 E0.00631
G1 X103.289 Y99.905 E0.00988
G1 X103.452 Y100.163 E0.00958
G1 X103.576 Y100.442 E0.00956
G1 X103.713 Y101.219 E0.02473
G1 X103.714 Y108.278 E0.22133
G1 X103.672 Y108.702 E0.01338
G1 X103.555 Y109.114 E0.01342
G1 X103.377 Y109.469 E0.01244
G1 X102.997 Y109.906 E0.01817
G1 X102.778 Y110.051 E0.00824
G1 X102.470 Y110.172 E0.01038
G1 X102.159 Y110.216 E0.00982
G1 X91.143 Y110.216 E0.34541
G1 X90.881 Y110.184 E0.00828
G1 X90.533 Y110.054 E0.01166
G1 X90.249 Y109.860 E0.01076
G1 X90.017 Y109.601 E0.01093
G1 X89.861 Y109.361 E0.00897
G1 X89.724 Y109.057 E0.01043
G1 X89.585 Y108.254 E0.02556
G1 X89.584 Y101.256 E0.21942
G1 X89.625 Y100.818 E0.01379
G1 X89.748 Y100.381 E0.01425
G1 X90.021 Y99.890 E0.01762
G1 X90.285 Y99.612 E0.01200
G1 X90.523 Y99.448 E0.00908
G1 X90.830 Y99.328 E0.01035
G1 X91.141 Y99.284 E0.00982
G1 X102.174 Y99.285 E0.34593
G1 X102.434 Y99.332 E0.00829
M204 S1000
G1 X102.808 Y99.931 F10800.000
M204 S500
G1 F1200.000
G1 X102.996 Y100.144 E0.00889
G1 X103.113 Y100.329 E0.00687
G1 X103.222 Y100.573 E0.00839
G1 X103.336 Y101.234 E0.02104
G1 X103.338 Y108.252 E0.22003
G1 X103.304 Y108.619 E0.01156
G1 X103.207 Y108.967 E0.01132
G1 X103.073 Y109.245 E0.00967
G1 X102.761 Y109.611 E0.01509
