; generated by PrusaSlicer 2.3.0+win64 on 2021-04-18 at 05:46:31 UTC

; 

; external perimeters extrusion width = 0.45mm
; perimeters extrusion width = 0.45mm
; infill extrusion width = 0.45mm
; solid infill extrusion width = 0.45mm
; top infill extrusion width = 0.40mm
; first layer extrusion width = 0.42mm

M73 P0 R126
M73 Q0 S126
M201 X1000 Y1000 Z200 E5000 ; sets maximum accelerations, mm/sec^2
M203 X200 Y200 Z12 E120 ; sets maximum feedrates, mm/sec
M204 P1250 R1250 T1250 ; sets acceleration (P, T) and retract acceleration (R), mm/sec^2
M205 X8.00 Y8.00 Z0.40 E4.50 ; sets the jerk limits, mm/sec
M205 S0 T0 ; sets the minimum extruding and travel feed rate, mm/sec
M107
;TYPE:Custom
M862.3 P "MK3S" ; printer model check
M862.1 P0.4 ; nozzle diameter check
M115 U3.9.2 ; tell printer latest fw version
G90 ; use absolute coordinates
M83 ; extruder relative mode
M104 S215 ; set extruder temp
M140 S60 ; set bed temp
M190 S60 ; wait for bed temp
M109 S215 ; wait for extruder temp
G28 W ; home all without mesh bed level
G80 ; mesh bed leveling
G1 Y-3.0 F1000.0 ; go outside print area
G92 E0.0
G1 X60.0 E9.0 F1000.0 ; intro line
G1 X100.0 E12.5 F1000.0 ; intro line
G92 E0.0
M221 S100

; Don't change E values below. Excessive value can damage the printer.
M907 E430 ; set extruder motor current
G21 ; set units to millimeters
G90 ; use absolute coordinates
M83 ; use relative distances for extrusion
M900 K0.05 ; Filament gcode LA 1.5
M900 K30 ; Filament gcode LA 1.0
;LAYER_CHANGE
;Z:0.2
;HEIGHT:0.2
;BEFORE_LAYER_CHANGE
G92 E0.0
;0.2


G1 E-0.80000 F2100.000
G1 Z0.400 F10800.000
;AFTER_LAYER_CHANGE
;0.2
G1 X79.412 Y99.650
G1 Z0.200
G1 E0.80000 F2100.000
M204 S500
;TYPE:Skirt
;WIDTH:0.42
G1 F1200.000
G1 X80.033 Y99.246 E0.02319
G1 X80.747 Y99.053 E0.02319
G1 X169.001 Y99.040 E2.76716
G1 X169.900 Y99.218 E0.02872
G1 X170.662 Y99.719 E0.02860
G1 X171.178 Y100.471 E0.02860
G1 X171.374 Y101.366 E0.02872
G1 X171.374 Y108.602 E0.22689
G1 X171.318 Y109.097 E0.01562
G1 X171.048 Y109.786 E0.02319
G1 X170.582 Y110.355 E0.02308
G1 X169.964 Y110.755 E0.02308
G1 X169.253 Y110.947 E0.02308
G1 X80.945 Y110.960 E2.76883
G1 X80.111 Y110.787 E0.02673
G1 X79.394 Y110.333 E0.02661
G1 X78.881 Y109.656 E0.02661
G1 X78.639 Y108.839 E0.02673
G1 X78.625 Y101.405 E0.23308
G1 X78.679 Y100.914 E0.01550
G1 X78.946 Y100.224 E0.02319
G1 X79.375 Y99.696 E0.02131
M204 S1000
;WIPE_START
G1 F8640.000
G1 X80.033 Y99.246 E-0.18404
G1 X80.747 Y99.053 E-0.17081
G1 X82.501 Y99.053 E-0.40515
;WIPE_END
G1 E-0.04000 F2100.000
G1 Z0.600 F10800.000
G1 X90.416 Y97.107
G1 Z0.200
G1 E0.80000 F2100.000
M204 S500
G1 F1200.000
G1 X91.284 Y96.883 E0.02812
G1 X103.142 Y96.883 E0.37181
G1 X104.150 Y97.082 E0.03219
G1 X105.157 Y96.883 E0.03219
G1 X128.936 Y96.883 E0.74559
M73 P0 R125
G1 X129.797 Y97.046 E0.02747
G1 X130.659 Y96.883 E0.02750
G1 X169.815 Y96.925 E1.22771
G1 X170.596 Y97.125 E0.02527
G1 X171.357 Y97.471 E0.02621
G1 X172.550 Y98.477 E0.04893
G1 X173.210 Y99.407 E0.03575
G1 X173.615 Y100.480 E0.03597
G1 X173.686 Y109.103 E0.27036
G1 X173.411 Y110.142 E0.03372
G1 X173.003 Y110.953 E0.02845
G1 X172.026 Y112.047 E0.04599
G1 X170.814 Y112.789 E0.04457
G1 X169.454 Y113.117 E0.04385
G1 X130.579 Y113.117 E1.21892
G1 X129.869 Y112.942 E0.02292
G1 X128.935 Y113.117 E0.02978
G1 X105.083 Y113.117 E0.74786
G1 X104.150 Y112.878 E0.03021
G1 X103.216 Y113.117 E0.03022
G1 X91.285 Y113.117 E0.37407
G1 X90.351 Y112.878 E0.03023
G1 X89.417 Y113.117 E0.03023
G1 X80.493 Y113.117 E0.27981
G1 X79.230 Y112.807 E0.04075
G1 X78.138 Y112.173 E0.03960
G1 X77.393 Y111.460 E0.03232
G1 X76.932 Y110.864 E0.02364
G1 X76.289 Y108.950 E0.06331
G1 X76.289 Y101.087 E0.24653
G1 X76.598 Y99.825 E0.04075
G1 X77.233 Y98.733 E0.03960
G1 X77.946 Y97.988 E0.03232
G1 X78.542 Y97.527 E0.02364
G1 X80.457 Y96.883 E0.06334
G1 X89.392 Y96.887 E0.28015
G1 X90.357 Y97.095 E0.03095
M204 S1000
G1 X90.424 Y97.495 F10800.000
M204 S500
G1 F1200.000
G1 X91.309 Y97.261 E0.02871
G1 X103.123 Y97.261 E0.37042
G1 X104.150 Y97.466 E0.03282
G1 X105.176 Y97.261 E0.03282
G1 X128.918 Y97.261 E0.74442
G1 X129.797 Y97.430 E0.02807
G1 X130.677 Y97.261 E0.02810
G1 X169.744 Y97.296 E1.22493
G1 X170.485 Y97.486 E0.02399
G1 X171.175 Y97.802 E0.02380
G1 X172.286 Y98.748 E0.04575
G1 X172.887 Y99.603 E0.03275
G1 X173.250 Y100.580 E0.03268
G1 X173.316 Y109.030 E0.26495
G1 X173.051 Y110.026 E0.03230
G1 X172.679 Y110.759 E0.02579
G1 X171.764 Y111.774 E0.04283
G1 X170.695 Y112.429 E0.03933
G1 X169.431 Y112.739 E0.04080
G1 X130.603 Y112.739 E1.21744
G1 X129.881 Y112.556 E0.02336
G1 X128.917 Y112.739 E0.03076
G1 X105.108 Y112.739 E0.74651
G1 X104.150 Y112.488 E0.03107
G1 X103.191 Y112.739 E0.03107
G1 X91.310 Y112.739 E0.37252
G1 X90.351 Y112.488 E0.03109
G1 X89.392 Y112.739 E0.03109
G1 X80.516 Y112.739 E0.27830
G1 X79.349 Y112.448 E0.03772
G1 X78.349 Y111.860 E0.03636
G1 X77.666 Y111.199 E0.02981
G1 X77.250 Y110.659 E0.02137
G1 X76.666 Y108.919 E0.05754
G1 X76.666 Y101.111 E0.24483
G1 X76.957 Y99.943 E0.03772
G1 X77.546 Y98.944 E0.03636
G1 X78.207 Y98.260 E0.02981
G1 X78.747 Y97.845 E0.02137
G1 X80.487 Y97.260 E0.05757
G1 X89.371 Y97.264 E0.27854
G1 X90.366 Y97.483 E0.03193
M204 S1000
G1 X90.381 Y97.899 F10800.000
M204 S500
G1 F1200.000
G1 X91.335 Y97.638 E0.03102
G1 X103.104 Y97.638 E0.36902
G1 X103.973 Y97.813 E0.02777
G1 X104.150 Y97.885 E0.00599
G1 X104.326 Y97.813 E0.00599
G1 X105.195 Y97.638 E0.02777
G1 X128.899 Y97.638 E0.74324
G1 X129.797 Y97.814 E0.02869
G1 X130.695 Y97.638 E0.02871
G1 X169.675 Y97.668 E1.22218
G1 X170.344 Y97.836 E0.02164
G1 X170.994 Y98.134 E0.02240
G1 X172.023 Y99.018 E0.04255
G1 X172.542 Y99.757 E0.02830
G1 X172.885 Y100.680 E0.03089
G1 X172.945 Y108.958 E0.25954
G1 X172.692 Y109.909 E0.03086
G1 X172.355 Y110.564 E0.02309
G1 X171.505 Y111.499 E0.03965
G1 X170.525 Y112.092 E0.03588
G1 X169.409 Y112.362 E0.03602
G1 X130.628 Y112.362 E1.21595
G1 X129.846 Y112.157 E0.02534
G1 X129.683 Y112.217 E0.00546
G1 X128.900 Y112.362 E0.02497
G1 X105.134 Y112.362 E0.74518
G1 X104.150 Y112.097 E0.03196
G1 X103.165 Y112.362 E0.03196
G1 X91.336 Y112.362 E0.37092
G1 X90.351 Y112.097 E0.03197
G1 X89.366 Y112.362 E0.03197
G1 X80.540 Y112.362 E0.27675
G1 X79.469 Y112.090 E0.03464
G1 X78.563 Y111.548 E0.03311
G1 X77.940 Y110.939 E0.02732
G1 X77.569 Y110.455 E0.01914
G1 X77.043 Y108.889 E0.05179
G1 X77.043 Y101.135 E0.24312
G1 X77.316 Y100.064 E0.03464
G1 X77.857 Y99.157 E0.03311
G1 X78.466 Y98.534 E0.02732
G1 X78.951 Y98.163 E0.01914
G1 X80.518 Y97.638 E0.05182
G1 X89.352 Y97.641 E0.27699
G1 X90.190 Y97.818 E0.02686
G1 X90.325 Y97.875 E0.00460
M204 S1000
G1 X90.349 Y98.300 F10800.000
M204 S500
G1 F1200.000
G1 X91.362 Y98.015 E0.03300
G1 X103.085 Y98.015 E0.36757
G1 X103.873 Y98.177 E0.02523
G1 X104.150 Y98.301 E0.00950
G1 X104.426 Y98.177 E0.00950
G1 X105.214 Y98.015 E0.02523
G1 X128.882 Y98.015 E0.74209
G1 X129.592 Y98.150 E0.02267
G1 X129.797 Y98.230 E0.00690
G1 X130.002 Y98.150 E0.00690
G1 X130.712 Y98.015 E0.02268
G1 X169.605 Y98.039 E1.21947
G1 X170.235 Y98.197 E0.02034
G1 X170.810 Y98.464 E0.01989
G1 X171.757 Y99.287 E0.03932
G1 X172.218 Y99.951 E0.02534
G1 X172.519 Y100.778 E0.02762
G1 X172.574 Y108.885 E0.25419
G1 X172.333 Y109.792 E0.02940
G1 X172.033 Y110.367 E0.02034
G1 X171.246 Y111.223 E0.03647
G1 X170.358 Y111.753 E0.03243
G1 X169.387 Y111.985 E0.03129
G1 X130.654 Y111.985 E1.21445
M73 Q0 S125
G1 X129.822 Y111.758 E0.02704
G1 X129.592 Y111.850 E0.00776
G1 X128.882 Y111.985 E0.02266
G1 X105.160 Y111.985 E0.74379
G1 X104.150 Y111.705 E0.03287
G1 X103.139 Y111.985 E0.03287
G1 X91.362 Y111.985 E0.36927
G1 X90.351 Y111.705 E0.03288
G1 X89.340 Y111.985 E0.03288
G1 X80.565 Y111.985 E0.27516
G1 X79.592 Y111.732 E0.03151
G1 X78.778 Y111.238 E0.02985
G1 X78.215 Y110.681 E0.02485
G1 X77.888 Y110.251 E0.01693
G1 X77.420 Y108.858 E0.04607
G1 X77.420 Y101.159 E0.24139
G1 X77.673 Y100.186 E0.03151
G1 X78.168 Y99.373 E0.02985
G1 X78.725 Y98.809 E0.02485
G1 X79.154 Y98.482 E0.01694
G1 X80.548 Y98.015 E0.04609
G1 X89.331 Y98.018 E0.27538
G1 X90.088 Y98.182 E0.02427
G1 X90.294 Y98.275 E0.00709
M204 S1000
G1 X90.314 Y98.703 F10800.000
M204 S500
G1 F1200.000
G1 X91.389 Y98.392 E0.03509
G1 X103.065 Y98.392 E0.36609
G1 X103.771 Y98.541 E0.02263
G1 X104.150 Y98.720 E0.01313
G1 X104.528 Y98.541 E0.01313
G1 X105.234 Y98.392 E0.02263
G1 X128.863 Y98.392 E0.74088
G1 X129.498 Y98.515 E0.02028
G1 X129.797 Y98.642 E0.01017
G1 X130.096 Y98.515 E0.01017
G1 X130.731 Y98.392 E0.02029
G1 X169.538 Y98.410 E1.21677
G1 X170.093 Y98.547 E0.01792
G1 X170.626 Y98.795 E0.01844
G1 X171.489 Y99.554 E0.03603
G1 X171.892 Y100.143 E0.02237
G1 X172.153 Y100.875 E0.02437
G1 X172.203 Y108.813 E0.24890
G1 X171.975 Y109.673 E0.02792
G1 X171.712 Y110.167 E0.01753
G1 X170.990 Y110.946 E0.03331
G1 X170.192 Y111.413 E0.02898
G1 X169.366 Y111.608 E0.02664
G1 X130.681 Y111.608 E1.21294
G1 X129.795 Y111.359 E0.02884
G1 X129.498 Y111.485 E0.01012
G1 X128.863 Y111.608 E0.02028
G1 X105.187 Y111.608 E0.74237
G1 X104.150 Y111.313 E0.03381
G1 X103.112 Y111.608 E0.03381
G1 X91.389 Y111.608 E0.36759
G1 X90.351 Y111.313 E0.03383
G1 X89.313 Y111.608 E0.03383
G1 X80.590 Y111.608 E0.27352
G1 X79.717 Y111.376 E0.02831
G1 X78.996 Y110.930 E0.02658
G1 X78.491 Y110.424 E0.02241
G1 X78.207 Y110.048 E0.01477
G1 X77.797 Y108.827 E0.04038
G1 X77.797 Y101.184 E0.23965
G1 X78.030 Y100.312 E0.02831
G1 X78.476 Y99.591 E0.02658
G1 X78.981 Y99.085 E0.02241
G1 X79.357 Y98.801 E0.01477
G1 X80.579 Y98.392 E0.04040
G1 X89.310 Y98.395 E0.27376
G1 X89.983 Y98.545 E0.02161
G1 X90.260 Y98.677 E0.00963
M204 S1000
G1 X89.685 Y98.863 F10800.000
M204 S500
G1 F1200.000
G1 X89.288 Y98.773 E0.01278
G1 X80.609 Y98.769 E0.27212
M204 S1000
M204 S500
G1 X79.559 Y99.121 E0.03474
G1 X79.238 Y99.362 E0.01257
G1 X78.758 Y99.842 E0.02132
G1 X78.386 Y100.439 E0.02203
G1 X78.174 Y101.210 E0.02508
G1 X78.174 Y108.797 E0.23787
G1 X78.527 Y109.847 E0.03472
G1 X78.767 Y110.167 E0.01257
G1 X79.248 Y110.648 E0.02132
G1 X79.844 Y111.020 E0.02203
G1 X80.616 Y111.231 E0.02508
G1 X89.287 Y111.231 E0.27187
G1 X89.579 Y111.147 E0.00955
M204 S1000
;WIPE_START
G1 F8640.000
G1 X89.287 Y111.231 E-0.07034
G1 X86.300 Y111.231 E-0.68966
;WIPE_END
G1 E-0.04000 F2100.000
G1 Z0.600 F10800.000
G1 X91.122 Y111.147
G1 Z0.200
G1 E0.80000 F2100.000
M204 S500
G1 F1200.000
G1 X91.415 Y111.231 E0.00958
G1 X103.086 Y111.231 E0.36592
G1 X103.386 Y111.145 E0.00978
M204 S1000
;WIPE_START
G1 F8640.000
G1 X103.086 Y111.231 E-0.07205
G1 X100.106 Y111.231 E-0.68795
;WIPE_END
G1 E-0.04000 F2100.000
G1 Z0.600 F10800.000
G1 X104.913 Y111.145
G1 Z0.200
G1 E0.80000 F2100.000
M204 S500
G1 F1200.000
G1 X105.213 Y111.231 E0.00981
G1 X128.844 Y111.231 E0.74093
M73 P1 R125
M73 Q1 S125
G1 X129.294 Y111.141 E0.01438
M204 S1000
;WIPE_START
G1 F8640.000
G1 X128.844 Y111.231 E-0.10586
G1 X126.011 Y111.231 E-0.65414
;WIPE_END
G1 E-0.04000 F2100.000
G1 Z0.600 F10800.000
G1 X130.398 Y111.141
G1 Z0.200
G1 E0.80000 F2100.000
M204 S500
G1 F1200.000
G1 X130.708 Y111.231 E0.01012
G1 X169.344 Y111.231 E1.21141
G1 X170.029 Y111.072 E0.02206
G1 X170.735 Y110.666 E0.02551
G1 X171.393 Y109.965 E0.03015
G1 X171.617 Y109.552 E0.01474
G1 X171.826 Y108.788 E0.02482
G1 X171.787 Y100.968 E0.24519
G1 X171.565 Y100.332 E0.02115
G1 X171.220 Y99.818 E0.01939
G1 X170.442 Y99.125 E0.03267
G1 X169.952 Y98.897 E0.01694
G1 X169.472 Y98.782 E0.01547
G1 X130.750 Y98.769 E1.21411
M73 P1 R124
G1 X130.309 Y98.857 E0.01409
M204 S1000
;WIPE_START
G1 F8640.000
G1 X130.750 Y98.769 E-0.10376
G1 X133.592 Y98.770 E-0.65624
;WIPE_END
G1 E-0.04000 F2100.000
G1 Z0.600 F10800.000
G1 X129.286 Y98.857
G1 Z0.200
G1 E0.80000 F2100.000
M204 S500
G1 F1200.000
G1 X128.844 Y98.769 E0.01411
G1 X105.255 Y98.769 E0.73963
G1 X104.829 Y98.861 E0.01365
M204 S1000
;WIPE_START
G1 F8640.000
G1 X105.255 Y98.769 E-0.10052
G1 X108.111 Y98.769 E-0.65948
;WIPE_END
G1 E-0.04000 F2100.000
G1 Z0.600 F10800.000
G1 X103.471 Y98.861
G1 Z0.200
G1 E0.80000 F2100.000
M204 S500
G1 F1200.000
G1 X103.044 Y98.769 E0.01368
G1 X91.415 Y98.769 E0.36461
G1 X91.087 Y98.863 E0.01071
M204 S1000
G1 X91.125 Y99.240 F10800.000
M204 S500
G1 F1200.000
G1 X90.722 Y99.360 E0.01319
G1 X90.368 Y99.578 E0.01303
G1 X89.764 Y99.268 E0.02131
G1 X89.649 Y99.241 E0.00371
M204 S1000
;WIPE_START
G1 F8640.000
G1 X89.764 Y99.268 E-0.02735
G1 X90.368 Y99.578 E-0.15693
G1 X90.722 Y99.360 E-0.09599
G1 X91.125 Y99.240 E-0.09710
;WIPE_END
G1 E-0.42264 F2100.000
G1 Z0.600 F10800.000
G1 X89.542 Y110.770
G1 Z0.200
G1 E0.80000 F2100.000
M204 S500
G1 F1200.000
G1 X89.980 Y110.640 E0.01431
G1 X90.351 Y110.411 E0.01369
G1 X90.722 Y110.640 E0.01369
G1 X91.159 Y110.770 E0.01428
M204 S1000
;WIPE_START
G1 F8640.000
G1 X90.722 Y110.640 E-0.10518
G1 X90.351 Y110.411 E-0.10078
G1 X89.980 Y110.640 E-0.10078
G1 X89.542 Y110.770 E-0.10538
;WIPE_END
G1 E-0.38787 F2100.000
G1 Z0.600 F10800.000
G1 X103.348 Y110.768
G1 Z0.200
G1 E0.80000 F2100.000
M204 S500
G1 F1200.000
G1 X103.779 Y110.640 E0.01408
G1 X104.149 Y110.411 E0.01366
G1 X104.520 Y110.640 E0.01367
G1 X104.950 Y110.768 E0.01405
M204 S1000
;WIPE_START
G1 F8640.000
G1 X104.520 Y110.640 E-0.10350
G1 X104.149 Y110.411 E-0.10069
G1 X103.779 Y110.640 E-0.10058
G1 X103.348 Y110.768 E-0.10372
;WIPE_END
G1 E-0.39151 F2100.000
G1 Z0.600 F10800.000
G1 X104.864 Y99.238
G1 Z0.200
G1 E0.80000 F2100.000
M204 S500
G1 F1200.000
G1 X104.740 Y99.266 E0.00400
G1 X104.150 Y99.567 E0.02077
G1 X103.559 Y99.266 E0.02077
G1 X103.436 Y99.238 E0.00397
M204 S1000
;WIPE_START
G1 F8640.000
G1 X103.559 Y99.266 E-0.02922
G1 X104.150 Y99.567 E-0.15298
G1 X104.740 Y99.266 E-0.15298
G1 X104.864 Y99.238 E-0.02945
;WIPE_END
G1 E-0.43536 F2100.000
G1 Z0.600 F10800.000
G1 X130.343 Y99.234
G1 Z0.200
G1 E0.80000 F2100.000
M204 S500
G1 F1200.000
G1 X129.797 Y99.472 E0.01869
G1 X129.251 Y99.234 E0.01866
M204 S1000
;WIPE_START
G1 F8640.000
G1 X129.797 Y99.472 E-0.13745
G1 X130.343 Y99.234 E-0.13764
;WIPE_END
G1 E-0.52491 F2100.000
G1 Z0.600 F10800.000
G1 X129.259 Y110.764
G1 Z0.200
G1 E0.80000 F2100.000
M204 S500
G1 F1200.000
G1 X129.809 Y110.522 E0.01882
G1 X130.022 Y110.644 E0.00769
G1 X130.429 Y110.764 E0.01332
M204 S1000
;WIPE_START
G1 F8640.000
G1 X130.022 Y110.644 E-0.09811
G1 X129.809 Y110.522 E-0.05662
G1 X129.259 Y110.764 E-0.13858
;WIPE_END
G1 E-0.50669 F2100.000
G1 Z0.600 F10800.000
G1 X90.350 Y100.115
G1 Z0.200
G1 E0.80000 F2100.000
M204 S500
G1 F1200.000
G1 X90.578 Y99.895 E0.00995
G1 X90.861 Y99.712 E0.01056
G1 X91.473 Y99.523 E0.02007
G1 X103.002 Y99.523 E0.36151
G1 X103.411 Y99.613 E0.01311
G1 X103.835 Y99.828 E0.01491
G1 X104.150 Y100.116 E0.01337
G1 X104.464 Y99.828 E0.01337
G1 X104.888 Y99.613 E0.01491
G1 X105.297 Y99.523 E0.01311
G1 X128.804 Y99.523 E0.73705
G1 X129.200 Y99.608 E0.01273
G1 X129.573 Y99.785 E0.01294
G1 X129.797 Y99.971 E0.00913
G1 X130.021 Y99.785 E0.00913
G1 X130.394 Y99.608 E0.01294
G1 X130.790 Y99.523 E0.01273
G1 X169.385 Y99.532 E1.21010
G1 X169.702 Y99.609 E0.01023
G1 X170.068 Y99.782 E0.01272
G1 X170.674 Y100.340 E0.02581
G1 X170.905 Y100.700 E0.01341
G1 X171.053 Y101.148 E0.01480
G1 X171.071 Y108.735 E0.23788
G1 X170.906 Y109.297 E0.01838
G1 X170.761 Y109.552 E0.00919
G1 X170.232 Y110.102 E0.02393
G1 X169.713 Y110.385 E0.01852
G1 X169.303 Y110.477 E0.01318
G1 X130.765 Y110.477 E1.20835
G1 X130.160 Y110.292 E0.01984
G1 X129.772 Y110.051 E0.01430
G1 X129.574 Y110.215 E0.00806
G1 X129.200 Y110.392 E0.01295
G1 X128.804 Y110.477 E0.01273
G1 X105.271 Y110.477 E0.73786
G1 X104.659 Y110.288 E0.02007
G1 X104.377 Y110.107 E0.01051
G1 X104.149 Y109.888 E0.00992
G1 X103.923 Y110.105 E0.00982
G1 X103.640 Y110.288 E0.01057
G1 X103.028 Y110.477 E0.02007
G1 X91.473 Y110.477 E0.36232
G1 X90.861 Y110.288 E0.02007
G1 X90.578 Y110.105 E0.01057
G1 X90.351 Y109.887 E0.00988
G1 X90.124 Y110.105 E0.00988
G1 X89.841 Y110.288 E0.01057
G1 X89.229 Y110.477 E0.02007
G1 X80.671 Y110.477 E0.26836
G1 X80.107 Y110.311 E0.01842
G1 X79.752 Y110.086 E0.01318
G1 X79.321 Y109.655 E0.01911
G1 X79.169 Y109.447 E0.00808
G1 X78.929 Y108.735 E0.02354
G1 X78.929 Y101.265 E0.23422
G1 X79.095 Y100.701 E0.01842
G1 X79.320 Y100.347 E0.01318
G1 X79.751 Y99.916 E0.01911
