; generated by PrusaSlicer 2.3.0+win64 on 2021-04-23 at 17:28:00 UTC

; 

; external perimeters extrusion width = 0.45mm
; perimeters extrusion width = 0.45mm
; infill extrusion width = 0.45mm
; solid infill extrusion width = 0.45mm
; top infill extrusion width = 0.40mm
; support material extrusion width = 0.35mm
; first layer extrusion width = 0.42mm

M73 P0 R65
M73 Q0 S65
M201 X1000 Y1000 Z200 E5000 ; sets maximum accelerations, mm/sec^2
M203 X200 Y200 Z12 E120 ; sets maximum feedrates, mm/sec
M204 P1250 R1250 T1250 ; sets acceleration (P, T) and retract acceleration (R), mm/sec^2
M205 X8.00 Y8.00 Z0.40 E4.50 ; sets the jerk limits, mm/sec
M205 S0 T0 ; sets the minimum extruding and travel feed rate, mm/sec
M107
;TYPE:Custom
M862.3 P "MK3S" ; printer model check
M862.1 P0.4 ; nozzle diameter check
M115 U3.9.2 ; tell printer latest fw version
G90 ; use absolute coordinates
M83 ; extruder relative mode
M104 S215 ; set extruder temp
M140 S60 ; set bed temp
M190 S60 ; wait for bed temp
M109 S215 ; wait for extruder temp
G28 W ; home all without mesh bed level
G80 ; mesh bed leveling
G1 Y-3.0 F1000.0 ; go outside print area
G92 E0.0
G1 X60.0 E9.0 F1000.0 ; intro line
G1 X100.0 E12.5 F1000.0 ; intro line
G92 E0.0
M221 S95

; Don't change E values below. Excessive value can damage the printer.

G21 ; set units to millimeters
G90 ; use absolute coordinates
M83 ; use relative distances for extrusion
M900 K0.05 ; Filament gcode LA 1.5
M900 K30 ; Filament gcode LA 1.0
;LAYER_CHANGE
;Z:0.2
;HEIGHT:0.2
;BEFORE_LAYER_CHANGE
G92 E0.0
;0.2


G1 E-0.80000 F2100.000
G1 Z0.400 F10800.000
;AFTER_LAYER_CHANGE
;0.2
G1 X105.603 Y98.239
G1 Z0.200
G1 E0.80000 F2100.000
M204 S1000
;TYPE:Skirt
;WIDTH:0.42
G1 F1200.000
G1 X105.874 Y97.608 E0.02154
G1 X106.205 Y97.155 E0.01758
G1 X106.624 Y96.777 E0.01771
G1 X107.108 Y96.494 E0.01758
G1 X107.643 Y96.313 E0.01771
G1 X117.461 Y94.987 E0.31063
G1 X132.724 Y95.163 E0.47859
G1 X142.147 Y96.275 E0.29749
G1 X142.733 Y96.427 E0.01899
G1 X143.268 Y96.702 E0.01886
G1 X143.762 Y97.119 E0.02026
G1 X144.143 Y97.636 E0.02014
G1 X144.395 Y98.231 E0.02026
G1 X144.501 Y98.864 E0.02014
G1 X144.503 Y111.090 E0.38333
G1 X144.374 Y111.835 E0.02371
G1 X144.048 Y112.518 E0.02371
G1 X143.714 Y112.931 E0.01669
G1 X143.306 Y113.273 E0.01669
G1 X142.839 Y113.530 E0.01669
G1 X142.337 Y113.691 E0.01656
G1 X132.600 Y115.012 E0.30808
G1 X117.276 Y114.836 E0.48050
G1 X107.854 Y113.725 E0.29748
G1 X107.271 Y113.574 E0.01886
G1 X106.732 Y113.298 E0.01899
G1 X106.244 Y112.887 E0.02001
G1 X105.862 Y112.371 E0.02014
G1 X105.609 Y111.781 E0.02014
G1 X105.500 Y111.152 E0.02001
G1 X105.497 Y98.922 E0.38347
G1 X105.594 Y98.299 E0.01979
G1 X106.207 Y97.784 F10800.000
G1 F1200.000
G1 X106.862 Y97.071 E0.03036
G1 X107.284 Y96.828 E0.01526
G1 X107.750 Y96.676 E0.01538
G1 X117.463 Y95.364 E0.30731
G1 X132.694 Y95.538 E0.47759
G1 X142.082 Y96.646 E0.29640
G1 X142.580 Y96.772 E0.01609
G1 X143.038 Y97.002 E0.01609
G1 X143.472 Y97.361 E0.01763
G1 X143.810 Y97.815 E0.01775
G1 X144.032 Y98.336 E0.01775
G1 X144.125 Y98.890 E0.01763
G1 X144.126 Y111.069 E0.38184
G1 X144.020 Y111.705 E0.02024
G1 X143.749 Y112.287 E0.02012
G1 X143.098 Y112.958 E0.02931
G1 X142.239 Y113.326 E0.02931
G1 X132.586 Y114.635 E0.30542
G1 X117.306 Y114.461 E0.47913
G1 X107.918 Y113.354 E0.29639
G1 X107.421 Y113.228 E0.01609
G1 X106.962 Y112.998 E0.01609
G1 X106.529 Y112.639 E0.01763
G1 X106.192 Y112.189 E0.01763
G1 X105.970 Y111.672 E0.01763
G1 X105.876 Y111.118 E0.01763
G1 X105.874 Y98.943 E0.38173
G1 X105.966 Y98.342 E0.01906
G1 X106.183 Y97.839 E0.01718
;WIPE_START
G1 F8640.000
G1 X106.862 Y97.071 E-0.23671
G1 X107.284 Y96.828 E-0.11238
G1 X107.750 Y96.676 E-0.11326
G1 X109.027 Y96.504 E-0.29765
;WIPE_END
G1 E-0.04000 F2100.000
G1 Z0.600 F10800.000
G1 X114.097 Y94.287
G1 Z0.200
G1 E0.80000 F2100.000
G1 F1200.000
G1 X114.741 Y93.725 E0.02680
G1 X115.680 Y93.266 E0.03277
G1 X116.875 Y93.025 E0.03823
G1 X117.613 Y93.035 E0.02313
G1 X117.866 Y93.008 E0.00799
G1 X133.057 Y93.015 E0.47629
G1 X134.680 Y93.476 E0.05291
G1 X135.483 Y93.973 E0.02961
G1 X135.825 Y94.291 E0.01464
G1 X142.728 Y94.355 E0.21646
G1 X143.549 Y94.608 E0.02695
G1 X144.325 Y95.009 E0.02738
G1 X145.746 Y96.432 E0.06304
G1 X146.165 Y97.267 E0.02931
G1 X146.463 Y98.490 E0.03948
G1 X146.463 Y111.510 E0.40821
G1 X146.165 Y112.733 E0.03948
G1 X145.746 Y113.568 E0.02931
G1 X144.318 Y114.996 E0.06329
G1 X143.483 Y115.415 E0.02931
G1 X142.260 Y115.713 E0.03948
G1 X135.902 Y115.713 E0.19934
G1 X135.259 Y116.274 E0.02675
G1 X134.320 Y116.733 E0.03277
G1 X133.125 Y116.974 E0.03823
G1 X132.387 Y116.964 E0.02313
G1 X132.134 Y116.990 E0.00797
G1 X117.001 Y116.990 E0.47449
G1 X115.433 Y116.574 E0.05087
G1 X114.618 Y116.108 E0.02943
G1 X114.189 Y115.711 E0.01833
G1 X107.354 Y115.659 E0.21434
G1 X106.444 Y115.388 E0.02977
G1 X105.659 Y114.978 E0.02777
G1 X104.690 Y114.108 E0.04083
G1 X104.185 Y113.470 E0.02550
G1 X103.537 Y111.547 E0.06363
G1 X103.537 Y98.490 E0.40938
M73 P0 R64
G1 X103.835 Y97.267 E0.03947
G1 X104.244 Y96.451 E0.02862
G1 X105.142 Y95.439 E0.04242
G1 X105.780 Y94.935 E0.02550
G1 X107.703 Y94.287 E0.06363
G1 X114.037 Y94.287 E0.19859
G1 X114.241 Y94.664 F10800.000
G1 F1200.000
G1 X114.930 Y94.052 E0.02889
G1 X115.824 Y93.615 E0.03118
G1 X116.890 Y93.402 E0.03408
G1 X117.631 Y93.413 E0.02326
G1 X117.877 Y93.386 E0.00775
G1 X133.031 Y93.392 E0.47513
G1 X134.504 Y93.810 E0.04802
G1 X135.267 Y94.283 E0.02815
G1 X135.672 Y94.667 E0.01749
G1 X142.643 Y94.723 E0.21859
G1 X143.421 Y94.963 E0.02554
G1 X144.125 Y95.330 E0.02488
G1 X145.423 Y96.629 E0.05760
G1 X145.805 Y97.380 E0.02639
G1 X146.086 Y98.514 E0.03664
G1 X146.086 Y111.486 E0.40674
G1 X145.805 Y112.620 E0.03664
G1 X145.423 Y113.371 E0.02639
G1 X144.121 Y114.673 E0.05777
G1 X143.370 Y115.055 E0.02639
G1 X142.236 Y115.336 E0.03664
G1 X135.758 Y115.336 E0.20312
G1 X135.070 Y115.947 E0.02885
G1 X134.176 Y116.384 E0.03118
G1 X133.110 Y116.597 E0.03408
G1 X132.369 Y116.586 E0.02326
G1 X132.124 Y116.613 E0.00773
G1 X117.026 Y116.613 E0.47339
G1 X115.599 Y116.234 E0.04629
G1 X114.826 Y115.792 E0.02792
G1 X114.342 Y115.334 E0.02089
G1 X107.434 Y115.290 E0.21658
G1 X106.599 Y115.044 E0.02728
G1 X105.892 Y114.680 E0.02494
G1 X104.954 Y113.839 E0.03953
G1 X104.502 Y113.263 E0.02295
G1 X103.914 Y111.516 E0.05778
G1 X103.914 Y98.514 E0.40768
G1 X104.195 Y97.380 E0.03664
G1 X104.568 Y96.644 E0.02585
G1 X105.411 Y95.704 E0.03960
G1 X105.987 Y95.252 E0.02295
G1 X107.734 Y94.664 E0.05778
G1 X114.181 Y94.664 E0.20215
G1 X114.387 Y95.041 F10800.000
G1 F1200.000
G1 X115.120 Y94.379 E0.03097
G1 X115.967 Y93.965 E0.02955
G1 X116.904 Y93.779 E0.02994
G1 X117.651 Y93.790 E0.02343
G1 X117.888 Y93.763 E0.00749
G1 X133.004 Y93.770 E0.47396
G1 X134.328 Y94.145 E0.04313
G1 X135.051 Y94.592 E0.02667
G1 X135.517 Y95.043 E0.02034
G1 X142.558 Y95.092 E0.22077
G1 X143.293 Y95.318 E0.02411
G1 X143.925 Y95.650 E0.02236
G1 X145.102 Y96.828 E0.05223
G1 X145.445 Y97.494 E0.02348
G1 X145.709 Y98.538 E0.03376
G1 X145.709 Y111.462 E0.40524
G1 X145.445 Y112.506 E0.03376
G1 X145.102 Y113.172 E0.02348
G1 X143.922 Y114.352 E0.05234
G1 X143.256 Y114.695 E0.02348
G1 X142.212 Y114.959 E0.03376
G1 X135.612 Y114.959 E0.20695
G1 X134.880 Y115.620 E0.03093
G1 X134.033 Y116.034 E0.02955
G1 X133.096 Y116.220 E0.02994
G1 X132.349 Y116.209 E0.02343
G1 X132.112 Y116.236 E0.00748
G1 X117.050 Y116.236 E0.47226
G1 X115.765 Y115.895 E0.04170
G1 X115.034 Y115.477 E0.02640
M73 Q0 S64
G1 X114.495 Y114.958 E0.02345
G1 X107.515 Y114.921 E0.21887
G1 X106.724 Y114.688 E0.02586
G1 X106.088 Y114.358 E0.02245
G1 X105.220 Y113.571 E0.03675
G1 X104.819 Y113.057 E0.02043
G1 X104.291 Y111.486 E0.05197
G1 X104.291 Y98.538 E0.40597
G1 X104.555 Y97.494 E0.03376
G1 X104.892 Y96.840 E0.02308
G1 X105.679 Y95.970 E0.03679
G1 X106.193 Y95.569 E0.02043
G1 X107.764 Y95.041 E0.05197
G1 X114.327 Y95.041 E0.20576
;WIPE_START
G1 F8640.000
G1 X115.120 Y94.379 E-0.23856
G1 X115.967 Y93.965 E-0.21764
G1 X116.904 Y93.779 E-0.22050
G1 X117.264 Y93.785 E-0.08330
;WIPE_END
G1 E-0.04000 F2100.000
G1 Z0.600 F10800.000
G1 X135.205 Y95.265
G1 Z0.200
G1 E0.80000 F2100.000
G1 F1200.000
G1 X134.834 Y94.902 E0.01629
G1 X134.152 Y94.479 E0.02517
G1 X132.978 Y94.147 E0.03825
G1 X117.900 Y94.140 E0.47276
G1 X117.672 Y94.168 E0.00722
G1 X116.918 Y94.157 E0.02364
G1 X116.110 Y94.315 E0.02580
G1 X115.311 Y94.705 E0.02789
G1 X114.823 Y95.153 E0.02076
;WIPE_START
G1 F8640.000
G1 X115.311 Y94.705 E-0.15291
G1 X116.110 Y94.315 E-0.20542
G1 X116.918 Y94.157 E-0.19000
G1 X117.672 Y94.168 E-0.17407
G1 X117.833 Y94.148 E-0.03759
;WIPE_END
G1 E-0.04000 F2100.000
G1 Z0.600 F10800.000
G1 X112.864 Y95.418
G1 Z0.200
G1 E0.80000 F2100.000
G1 F1200.000
G1 X107.795 Y95.418 E0.15894
M73 Q1 S64
G1 X106.399 Y95.887 E0.04619
G1 X105.946 Y96.237 E0.01793
G1 X105.214 Y97.037 E0.03399
G1 X104.915 Y97.611 E0.02030
G1 X104.668 Y98.562 E0.03082
M73 P1 R64
G1 X104.668 Y111.455 E0.40425
G1 X105.137 Y112.851 E0.04619
G1 X105.487 Y113.304 E0.01793
G1 X106.286 Y114.036 E0.03398
G1 X106.849 Y114.332 E0.01992
G1 X107.596 Y114.551 E0.02442
G1 X113.461 Y114.576 E0.18389
;WIPE_START
G1 F8640.000
G1 X110.169 Y114.562 E-0.76000
;WIPE_END
G1 E-0.04000 F2100.000
G1 Z0.600 F10800.000
G1 X114.808 Y114.735
G1 Z0.200
G1 E0.80000 F2100.000
G1 F1200.000
G1 X115.243 Y115.162 E0.01911
G1 X115.931 Y115.555 E0.02484
G1 X117.075 Y115.859 E0.03711
G1 X132.100 Y115.859 E0.47112
G1 X132.328 Y115.831 E0.00721
G1 X133.082 Y115.842 E0.02364
G1 X133.890 Y115.684 E0.02580
G1 X134.689 Y115.294 E0.02789
G1 X135.169 Y114.853 E0.02042
;WIPE_START
G1 F8640.000
G1 X134.689 Y115.294 E-0.15037
G1 X133.890 Y115.684 E-0.20542
G1 X133.082 Y115.842 E-0.19000
G1 X132.328 Y115.831 E-0.17407
G1 X132.156 Y115.852 E-0.04014
;WIPE_END
G1 E-0.04000 F2100.000
G1 Z0.600 F10800.000
G1 X137.168 Y114.582
G1 Z0.200
G1 E0.80000 F2100.000
G1 F1200.000
G1 X142.188 Y114.582 E0.15739
G1 X143.139 Y114.335 E0.03083
G1 X143.721 Y114.031 E0.02058
G1 X144.781 Y112.971 E0.04702
G1 X145.085 Y112.389 E0.02058
G1 X145.332 Y111.438 E0.03083
G1 X145.332 Y98.562 E0.40371
G1 X145.085 Y97.611 E0.03083
G1 X144.781 Y97.029 E0.02058
G1 X143.723 Y95.969 E0.04696
G1 X143.165 Y95.673 E0.01981
G1 X142.474 Y95.460 E0.02267
G1 X136.567 Y95.426 E0.18521
;WIPE_START
G1 F8640.000
G1 X139.858 Y95.445 E-0.76000
;WIPE_END
G1 E-0.04000 F2100.000
G1 Z0.600 F10800.000
G1 X134.588 Y95.193
G1 Z0.200
G1 E0.80000 F2100.000
G1 F1200.000
G1 X133.976 Y94.814 E0.02259
G1 X132.952 Y94.524 E0.03336
G1 X117.913 Y94.517 E0.47155
G1 X117.694 Y94.545 E0.00692
G1 X116.933 Y94.534 E0.02386
G1 X116.210 Y94.679 E0.02312
G1 X115.504 Y95.030 E0.02471
G1 X115.465 Y95.066 E0.00167
;WIPE_START
G1 F8640.000
G1 X115.504 Y95.030 E-0.01229
G1 X116.210 Y94.679 E-0.18194
G1 X116.933 Y94.534 E-0.17027
G1 X117.694 Y94.545 E-0.17568
G1 X117.913 Y94.517 E-0.05097
G1 X118.644 Y94.517 E-0.16885
;WIPE_END
G1 E-0.04000 F2100.000
G1 Z0.600 F10800.000
G1 X110.074 Y95.795
G1 Z0.200
G1 E0.80000 F2100.000
G1 F1200.000
G1 X107.826 Y95.795 E0.07048
G1 X106.603 Y96.206 E0.04045
G1 X106.211 Y96.505 E0.01546
G1 X105.535 Y97.236 E0.03121
G1 X105.273 Y97.729 E0.01752
G1 X105.045 Y98.587 E0.02783
G1 X105.045 Y111.424 E0.40250
G1 X105.456 Y112.647 E0.04045
G1 X105.755 Y113.039 E0.01546
G1 X106.486 Y113.715 E0.03121
G1 X106.974 Y113.975 E0.01734
G1 X107.677 Y114.182 E0.02296
G1 X110.184 Y114.190 E0.07861
;WIPE_START
G1 F8640.000
G1 X107.677 Y114.182 E-0.57894
G1 X106.974 Y113.975 E-0.16911
G1 X106.928 Y113.951 E-0.01195
;WIPE_END
G1 E-0.04000 F2100.000
G1 Z0.600 F10800.000
G1 X115.411 Y114.806
G1 Z0.200
G1 E0.80000 F2100.000
G1 F1200.000
G1 X115.452 Y114.847 E0.00182
G1 X116.096 Y115.216 E0.02326
G1 X117.099 Y115.482 E0.03253
G1 X132.088 Y115.482 E0.46995
G1 X132.306 Y115.454 E0.00692
G1 X133.067 Y115.465 E0.02386
G1 X133.790 Y115.320 E0.02312
G1 X134.526 Y114.941 E0.02596
;WIPE_START
G1 F8640.000
G1 X133.790 Y115.320 E-0.19120
G1 X133.067 Y115.465 E-0.17027
G1 X132.306 Y115.454 E-0.17568
G1 X132.088 Y115.482 E-0.05095
G1 X131.343 Y115.482 E-0.17190
;WIPE_END
G1 E-0.04000 F2100.000
G1 Z0.600 F10800.000
G1 X139.948 Y114.205
G1 Z0.200
G1 E0.80000 F2100.000
G1 F1200.000
G1 X142.163 Y114.205 E0.06943
G1 X143.021 Y113.977 E0.02783
G1 X143.519 Y113.712 E0.01770
G1 X144.462 Y112.769 E0.04182
G1 X144.727 Y112.271 E0.01770
G1 X144.955 Y111.413 E0.02783
G1 X144.955 Y98.587 E0.40213
G1 X144.727 Y97.729 E0.02783
G1 X144.462 Y97.231 E0.01770
G1 X143.520 Y96.288 E0.04180
G1 X143.036 Y96.028 E0.01723
G1 X142.389 Y95.829 E0.02120
G1 X139.879 Y95.817 E0.07870
;WIPE_START
G1 F8640.000
G1 X142.389 Y95.829 E-0.57956
G1 X143.036 Y96.028 E-0.15615
G1 X143.128 Y96.078 E-0.02429
;WIPE_END
G1 E-0.04000 F2100.000
G1 Z0.600 F10800.000
G1 X136.499 Y96.177
G1 Z0.200
G1 E0.80000 F2100.000
G1 F1200.000
G1 X135.048 Y96.172 E0.04550
G1 X134.859 Y95.984 E0.00838
;WIPE_START
G1 F8640.000
G1 X135.048 Y96.172 E-0.06172
G1 X136.499 Y96.177 E-0.33508
;WIPE_END
G1 E-0.40320 F2100.000
G1 Z0.600 F10800.000
G1 X133.505 Y95.065
G1 Z0.200
G1 E0.80000 F2100.000
G1 F1200.000
G1 X132.926 Y94.901 E0.01887
G1 X126.091 Y94.898 E0.21429
;WIPE_START
G1 F8640.000
G1 X129.383 Y94.899 E-0.76000
;WIPE_END
G1 E-0.04000 F2100.000
G1 Z0.600 F10800.000
G1 X115.159 Y95.865
G1 Z0.200
G1 E0.80000 F2100.000
G1 F1200.000
G1 X115.004 Y96.012 E0.00667
G1 X114.890 Y96.172 E0.00618
G1 X112.890 Y96.172 E0.06270
;WIPE_START
G1 F8640.000
G1 X114.890 Y96.172 E-0.46171
G1 X115.004 Y96.012 E-0.04549
G1 X115.159 Y95.865 E-0.04910
;WIPE_END
G1 E-0.24370 F2100.000
G1 Z0.600 F10800.000
G1 X113.525 Y113.825
G1 Z0.200
G1 E0.80000 F2100.000
G1 F1200.000
G1 X114.965 Y113.828 E0.04513
G1 X115.154 Y114.017 E0.00839
;WIPE_START
G1 F8640.000
G1 X114.965 Y113.828 E-0.06176
G1 X113.525 Y113.825 E-0.33232
;WIPE_END
G1 E-0.40591 F2100.000
G1 Z0.600 F10800.000
G1 X116.472 Y114.931
G1 Z0.200
G1 E0.80000 F2100.000
G1 F1200.000
G1 X117.124 Y115.105 E0.02116
G1 X124.283 Y115.105 E0.22447
;WIPE_START
G1 F8640.000
G1 X120.991 Y115.105 E-0.76000
;WIPE_END
G1 E-0.04000 F2100.000
G1 Z0.600 F10800.000
G1 X134.835 Y114.140
G1 Z0.200
G1 E0.80000 F2100.000
G1 F1200.000
G1 X134.996 Y113.987 E0.00694
G1 X135.110 Y113.828 E0.00614
G1 X137.133 Y113.828 E0.06345
;WIPE_START
G1 F8640.000
G1 X135.110 Y113.828 E-0.46725
G1 X134.996 Y113.987 E-0.04524
G1 X134.835 Y114.140 E-0.05114
;WIPE_END
G1 E-0.23637 F2100.000
G1 Z0.600 F10800.000
G1 X139.915 Y113.451
G1 Z0.200
G1 E0.80000 F2100.000
G1 F1200.000
G1 X134.901 Y113.451 E0.15721
G1 X134.716 Y113.734 E0.01059
G1 X134.204 Y114.225 E0.02224
;WIPE_START
G1 F8640.000
G1 X134.716 Y113.734 E-0.16382
G1 X134.901 Y113.451 E-0.07800
G1 X137.145 Y113.451 E-0.51818
;WIPE_END
G1 E-0.04000 F2100.000
G1 Z0.600 F10800.000
G1 X134.256 Y95.913
G1 Z0.200
G1 E0.80000 F2100.000
G1 F1200.000
G1 X134.665 Y96.314 E0.01798
G1 X134.808 Y96.549 E0.00862
G1 X139.744 Y96.560 E0.15478
;WIPE_START
G1 F8640.000
G1 X136.453 Y96.553 E-0.76000
;WIPE_END
G1 E-0.04000 F2100.000
G1 Z0.600 F10800.000
G1 X115.789 Y95.780
G1 Z0.200
G1 E0.80000 F2100.000
G1 F1200.000
G1 X115.284 Y96.265 E0.02196
G1 X115.099 Y96.549 E0.01063
G1 X110.099 Y96.549 E0.15675
;WIPE_START
G1 F8640.000
G1 X113.391 Y96.549 E-0.76000
;WIPE_END
G1 E-0.04000 F2100.000
G1 Z0.600 F10800.000
G1 X110.310 Y113.446
G1 Z0.200
G1 E0.80000 F2100.000
G1 F1200.000
G1 X115.175 Y113.451 E0.15254
G1 X115.289 Y113.619 E0.00638
G1 X115.752 Y114.087 E0.02063
G1 X116.598 Y114.187 F10800.000
G1 F1200.000
G1 X116.511 Y114.162 E0.00285
G1 X116.124 Y113.936 E0.01404
G1 X115.576 Y113.374 E0.02463
G1 X115.388 Y113.074 E0.01110
G1 X107.918 Y113.074 E0.23420
G1 X107.356 Y112.909 E0.01838
G1 X107.101 Y112.763 E0.00919
G1 X106.571 Y112.254 E0.02305
G1 X106.416 Y112.044 E0.00819
G1 X106.176 Y111.332 E0.02355
G1 X106.176 Y98.668 E0.39708
G1 X106.341 Y98.106 E0.01838
G1 X106.487 Y97.851 E0.00919
G1 X106.996 Y97.321 E0.02305
G1 X107.206 Y97.166 E0.00819
G1 X107.918 Y96.926 E0.02355
G1 X115.310 Y96.926 E0.23178
G1 X115.566 Y96.517 E0.01512
G1 X116.098 Y95.996 E0.02337
G1 X116.568 Y95.753 E0.01657
G1 X116.980 Y95.666 E0.01322
G1 X117.771 Y95.677 E0.02480
