; generated by PrusaSlicer 2.3.0+win64 on 2021-04-23 at 17:46:49 UTC

; 

; external perimeters extrusion width = 0.45mm
; perimeters extrusion width = 0.45mm
; infill extrusion width = 0.45mm
; solid infill extrusion width = 0.45mm
; top infill extrusion width = 0.40mm
; support material extrusion width = 0.35mm
; first layer extrusion width = 0.42mm

M73 P0 R63
M73 Q0 S63
M201 X1000 Y1000 Z200 E5000 ; sets maximum accelerations, mm/sec^2
M203 X200 Y200 Z12 E120 ; sets maximum feedrates, mm/sec
M204 P1250 R1250 T1250 ; sets acceleration (P, T) and retract acceleration (R), mm/sec^2
M205 X8.00 Y8.00 Z0.40 E4.50 ; sets the jerk limits, mm/sec
M205 S0 T0 ; sets the minimum extruding and travel feed rate, mm/sec
M107
;TYPE:Custom
M862.3 P "MK3S" ; printer model check
M862.1 P0.4 ; nozzle diameter check
M115 U3.9.2 ; tell printer latest fw version
G90 ; use absolute coordinates
M83 ; extruder relative mode
M104 S215 ; set extruder temp
M140 S60 ; set bed temp
M190 S60 ; wait for bed temp
M109 S215 ; wait for extruder temp
G28 W ; home all without mesh bed level
G80 ; mesh bed leveling
G1 Y-3.0 F1000.0 ; go outside print area
G92 E0.0
G1 X60.0 E9.0 F1000.0 ; intro line
G1 X100.0 E12.5 F1000.0 ; intro line
G92 E0.0
M221 S95

; Don't change E values below. Excessive value can damage the printer.

G21 ; set units to millimeters
G90 ; use absolute coordinates
M83 ; use relative distances for extrusion
M900 K0.05 ; Filament gcode LA 1.5
M900 K30 ; Filament gcode LA 1.0
;LAYER_CHANGE
;Z:0.2
;HEIGHT:0.2
;BEFORE_LAYER_CHANGE
G92 E0.0
;0.2


G1 E-0.80000 F2100.000
G1 Z0.400 F10800.000
;AFTER_LAYER_CHANGE
;0.2
G1 X106.014 Y97.391
M73 P0 R62
G1 Z0.200
G1 E0.80000 F2100.000
M204 S1000
;TYPE:Skirt
;WIDTH:0.42
G1 F1200.000
G1 X106.517 Y96.859 E0.02294
G1 X107.142 Y96.479 E0.02294
G1 X107.675 Y96.306 E0.01758
G1 X108.233 Y96.246 E0.01758
G1 X141.754 Y96.246 E1.05103
G1 X142.763 Y96.439 E0.03221
G1 X143.634 Y96.991 E0.03233
G1 X144.241 Y97.825 E0.03233
G1 X144.498 Y98.823 E0.03233
G1 X144.487 Y111.307 E0.39142
G1 X144.314 Y112.005 E0.02256
G1 X143.969 Y112.632 E0.02243
G1 X143.470 Y113.151 E0.02256
G1 X142.858 Y113.521 E0.02243
G1 X142.325 Y113.694 E0.01758
G1 X141.767 Y113.754 E0.01758
G1 X108.148 Y113.752 E1.05412
G1 X107.391 Y113.617 E0.02409
G1 X106.702 Y113.278 E0.02409
G1 X106.133 Y112.762 E0.02409
G1 X105.729 Y112.108 E0.02409
G1 X105.560 Y111.591 E0.01707
G1 X105.496 Y111.046 E0.01720
G1 X105.507 Y98.750 E0.38552
G1 X105.670 Y98.037 E0.02294
G1 X105.986 Y97.444 E0.02106
;WIPE_START
G1 F8640.000
G1 X106.517 Y96.859 E-0.18236
G1 X107.142 Y96.479 E-0.16896
G1 X107.675 Y96.306 E-0.12947
G1 X108.233 Y96.246 E-0.12947
G1 X108.881 Y96.246 E-0.14973
;WIPE_END
G1 E-0.04000 F2100.000
G1 Z0.600 F10800.000
G1 X107.312 Y96.816
G1 Z0.200
G1 E0.80000 F2100.000
G1 F1200.000
G1 X108.237 Y96.623 E0.02966
G1 X141.754 Y96.623 E1.05088
G1 X142.631 Y96.792 E0.02802
G1 X143.384 Y97.274 E0.02802
G1 X143.906 Y97.999 E0.02802
G1 X144.123 Y98.866 E0.02802
G1 X144.115 Y111.236 E0.38786
G1 X143.970 Y111.849 E0.01977
G1 X143.669 Y112.403 E0.01977
G1 X143.233 Y112.858 E0.01977
G1 X142.688 Y113.184 E0.01989
G1 X141.763 Y113.377 E0.02966
G1 X108.170 Y113.376 E1.05327
G1 X107.512 Y113.260 E0.02095
G1 X106.909 Y112.963 E0.02107
G1 X106.416 Y112.512 E0.02095
G1 X106.066 Y111.938 E0.02107
G1 X105.873 Y111.032 E0.02907
G1 X105.881 Y98.806 E0.38332
G1 X106.019 Y98.179 E0.02012
G1 X106.320 Y97.612 E0.02012
G1 X106.761 Y97.147 E0.02012
G1 X107.260 Y96.847 E0.01824
;WIPE_START
G1 F8640.000
G1 X108.237 Y96.623 E-0.23154
G1 X110.526 Y96.623 E-0.52846
;WIPE_END
G1 E-0.04000 F2100.000
G1 Z0.600 F10800.000
G1 X106.391 Y94.632
G1 Z0.200
G1 E0.80000 F2100.000
G1 F1200.000
G1 X107.794 Y94.286 E0.04531
G1 X142.236 Y94.290 E1.07991
M73 Q0 S62
G1 X143.185 Y94.474 E0.03029
G1 X144.093 Y94.865 E0.03101
G1 X145.312 Y95.888 E0.04990
G1 X146.103 Y97.106 E0.04551
G1 X146.464 Y98.490 E0.04485
G1 X146.429 Y111.768 E0.41633
G1 X146.108 Y112.883 E0.03639
G1 X145.491 Y113.903 E0.03738
G1 X144.643 Y114.755 E0.03767
G1 X143.603 Y115.371 E0.03791
G1 X142.206 Y115.713 E0.04511
G1 X107.740 Y115.713 E1.08065
G1 X106.482 Y115.405 E0.04061
G1 X105.468 Y114.834 E0.03649
G1 X104.539 Y113.949 E0.04024
G1 X103.883 Y112.861 E0.03981
G1 X103.537 Y111.456 E0.04540
G1 X103.555 Y98.348 E0.41100
G1 X103.865 Y97.183 E0.03779
G1 X104.472 Y96.144 E0.03774
G1 X105.345 Y95.254 E0.03907
G1 X106.339 Y94.662 E0.03629
G1 X106.532 Y94.986 F10800.000
G1 F1200.000
G1 X107.817 Y94.664 E0.04152
G1 X142.218 Y94.667 E1.07862
G1 X143.091 Y94.840 E0.02791
G1 X143.916 Y95.199 E0.02823
G1 X145.047 Y96.158 E0.04647
G1 X145.746 Y97.232 E0.04018
G1 X146.086 Y98.514 E0.04160
G1 X146.059 Y111.689 E0.41309
G1 X145.753 Y112.754 E0.03475
G1 X145.182 Y113.686 E0.03428
G1 X144.395 Y114.470 E0.03482
G1 X143.437 Y115.032 E0.03481
G1 X142.184 Y115.336 E0.04044
G1 X107.764 Y115.336 E1.07921
G1 X106.599 Y115.046 E0.03762
G1 X105.676 Y114.518 E0.03336
G1 X104.848 Y113.732 E0.03577
G1 X104.221 Y112.691 E0.03811
G1 X103.914 Y111.434 E0.04060
G1 X103.926 Y98.419 E0.40807
G1 X104.204 Y97.349 E0.03467
G1 X104.760 Y96.389 E0.03476
G1 X105.560 Y95.565 E0.03600
G1 X106.481 Y95.017 E0.03362
G1 X106.672 Y95.341 F10800.000
G1 F1200.000
G1 X106.726 Y95.309 E0.00198
G1 X107.839 Y95.041 E0.03589
G1 X142.198 Y95.044 E1.07732
G1 X142.996 Y95.205 E0.02550
G1 X143.738 Y95.533 E0.02545
G1 X144.780 Y96.426 E0.04302
G1 X145.413 Y97.410 E0.03669
G1 X145.709 Y98.538 E0.03656
G1 X145.689 Y111.612 E0.40994
G1 X145.417 Y112.581 E0.03157
G1 X144.898 Y113.437 E0.03139
G1 X144.182 Y114.157 E0.03182
G1 X143.270 Y114.692 E0.03315
G1 X142.161 Y114.959 E0.03576
G1 X107.788 Y114.959 E1.07777
G1 X106.719 Y114.687 E0.03458
G1 X105.885 Y114.204 E0.03022
G1 X105.128 Y113.478 E0.03287
G1 X104.559 Y112.523 E0.03485
G1 X104.291 Y111.411 E0.03587
G1 X104.297 Y98.490 E0.40513
G1 X104.562 Y97.470 E0.03307
G1 X105.073 Y96.601 E0.03159
G1 X105.811 Y95.848 E0.03307
G1 X106.620 Y95.372 E0.02944
G1 X106.893 Y95.649 F10800.000
G1 F1200.000
G1 X107.861 Y95.418 E0.03120
G1 X142.179 Y95.421 E1.07602
M73 P1 R62
M73 Q1 S62
G1 X142.898 Y95.570 E0.02304
G1 X143.558 Y95.865 E0.02266
G1 X144.512 Y96.692 E0.03960
G1 X145.056 Y97.537 E0.03149
G1 X145.332 Y98.563 E0.03331
G1 X145.319 Y111.537 E0.40681
G1 X145.079 Y112.411 E0.02839
G1 X144.614 Y113.188 E0.02842
G1 X143.933 Y113.874 E0.03029
G1 X143.106 Y114.352 E0.02995
G1 X142.140 Y114.582 E0.03115
G1 X107.812 Y114.582 E1.07632
G1 X106.840 Y114.329 E0.03149
G1 X106.097 Y113.891 E0.02706
G1 X105.410 Y113.226 E0.02999
G1 X104.899 Y112.357 E0.03159
G1 X104.668 Y111.390 E0.03119
G1 X104.668 Y98.562 E0.40220
G1 X104.921 Y97.590 E0.03149
G1 X105.359 Y96.847 E0.02706
G1 X106.024 Y96.160 E0.02999
G1 X106.841 Y95.679 E0.02971
G1 X107.030 Y96.005 F10800.000
G1 F1200.000
G1 X107.882 Y95.795 E0.02752
G1 X142.160 Y95.798 E1.07475
G1 X142.763 Y95.923 E0.01932
G1 X143.378 Y96.197 E0.02110
G1 X144.242 Y96.957 E0.03609
G1 X144.722 Y97.714 E0.02809
G1 X144.955 Y98.587 E0.02835
G1 X144.948 Y111.462 E0.40368
G1 X144.723 Y112.285 E0.02674
G1 X144.304 Y112.972 E0.02522
G1 X143.685 Y113.588 E0.02738
G1 X142.944 Y114.011 E0.02677
G1 X142.118 Y114.205 E0.02660
G1 X107.837 Y114.205 E1.07485
G1 X106.964 Y113.972 E0.02833
G1 X106.311 Y113.580 E0.02390
G1 X105.692 Y112.975 E0.02713
G1 X105.239 Y112.193 E0.02833
G1 X105.045 Y111.368 E0.02658
G1 X105.045 Y98.587 E0.40073
G1 X105.278 Y97.714 E0.02833
G1 X105.670 Y97.061 E0.02390
G1 X106.275 Y96.442 E0.02713
G1 X106.978 Y96.035 E0.02547
;WIPE_START
G1 F8640.000
G1 X107.882 Y95.795 E-0.21602
G1 X110.238 Y95.795 E-0.54398
;WIPE_END
G1 E-0.04000 F2100.000
G1 Z0.600 F10800.000
G1 X107.018 Y97.299
G1 Z0.200
G1 E0.80000 F2100.000
G1 F1200.000
G1 X107.534 Y97.018 E0.01842
G1 X107.944 Y96.926 E0.01318
G1 X142.096 Y96.930 E1.07079
G1 X142.455 Y97.013 E0.01157
G1 X142.821 Y97.185 E0.01268
G1 X143.426 Y97.743 E0.02580
G1 X143.658 Y98.105 E0.01347
G1 X143.824 Y98.668 E0.01841
G1 X143.824 Y111.332 E0.39707
G1 X143.658 Y111.896 E0.01842
G1 X143.433 Y112.250 E0.01318
G1 X142.982 Y112.701 E0.01999
G1 X142.466 Y112.982 E0.01842
G1 X142.056 Y113.074 E0.01318
G1 X107.918 Y113.074 E1.07036
G1 X107.354 Y112.908 E0.01842
G1 X107.000 Y112.683 E0.01318
G1 X106.549 Y112.232 E0.01999
G1 X106.268 Y111.716 E0.01842
G1 X106.176 Y111.306 E0.01318
G1 X106.176 Y98.668 E0.39625
G1 X106.342 Y98.104 E0.01842
G1 X106.567 Y97.750 E0.01318
G1 X106.976 Y97.341 E0.01811
G1 X107.264 Y97.586 F10800.000
G1 F1200.000
G1 X107.686 Y97.364 E0.01496
G1 X107.964 Y97.303 E0.00892
G1 X142.074 Y97.307 E1.06950
G1 X142.312 Y97.362 E0.00767
G1 X142.632 Y97.513 E0.01109
G1 X143.151 Y98.001 E0.02233
G1 X143.306 Y98.242 E0.00898
G1 X143.447 Y98.698 E0.01495
G1 X143.447 Y111.302 E0.39521
G1 X143.306 Y111.758 E0.01496
G1 X143.152 Y111.998 E0.00892
G1 X142.736 Y112.414 E0.01845
G1 X142.314 Y112.636 E0.01496
G1 X142.036 Y112.697 E0.00892
G1 X107.948 Y112.697 E1.06882
G1 X107.492 Y112.556 E0.01496
G1 X107.252 Y112.402 E0.00892
G1 X106.836 Y111.986 E0.01845
G1 X106.614 Y111.564 E0.01496
G1 X106.553 Y111.286 E0.00892
G1 X106.553 Y98.698 E0.39470
G1 X106.694 Y98.242 E0.01496
G1 X106.848 Y98.002 E0.00892
G1 X107.222 Y97.629 E0.01657
G1 X107.832 Y97.712 F10800.000
G1 F1200.000
G1 X107.983 Y97.680 E0.00484
G1 X142.052 Y97.684 E1.06821
G1 X142.169 Y97.711 E0.00377
G1 X142.442 Y97.840 E0.00947
G1 X142.873 Y98.257 E0.01880
G1 X142.957 Y98.385 E0.00479
G1 X143.070 Y98.729 E0.01136
G1 X143.070 Y111.271 E0.39323
G1 X142.957 Y111.615 E0.01136
G1 X142.872 Y111.744 E0.00484
G1 X142.492 Y112.125 E0.01687
G1 X142.168 Y112.288 E0.01136
G1 X142.017 Y112.320 E0.00484
G1 X107.979 Y112.320 E1.06724
G1 X107.635 Y112.207 E0.01136
G1 X107.506 Y112.122 E0.00484
G1 X107.125 Y111.742 E0.01687
G1 X106.962 Y111.418 E0.01136
G1 X106.930 Y111.267 E0.00484
G1 X106.930 Y98.729 E0.39312
G1 X107.043 Y98.385 E0.01136
G1 X107.128 Y98.256 E0.00484
G1 X107.508 Y97.875 E0.01687
G1 X107.778 Y97.739 E0.00948
G1 X107.938 Y98.078 F10800.000
G1 F1200.000
G1 X108.000 Y98.057 E0.00205
G1 X142.032 Y98.064 E1.06703
G1 X142.250 Y98.167 E0.00757
G1 X142.593 Y98.510 E0.01522
G1 X142.693 Y98.764 E0.00856
G1 X142.693 Y111.236 E0.39102
G1 X142.611 Y111.463 E0.00757
G1 X142.250 Y111.833 E0.01622
G1 X142.000 Y111.943 E0.00856
G1 X108.014 Y111.943 E1.06559
M73 P1 R61
G1 X107.787 Y111.861 E0.00757
G1 X107.417 Y111.500 E0.01622
G1 X107.307 Y111.250 E0.00856
G1 X107.307 Y98.764 E0.39147
G1 X107.407 Y98.510 E0.00856
G1 X107.750 Y98.167 E0.01522
G1 X107.884 Y98.104 E0.00464
G1 X107.987 Y98.463 F10800.000
G1 F1200.000
G1 X108.056 Y98.434 E0.00235
G1 X141.944 Y98.434 E1.06252
G1 X142.013 Y98.463 E0.00235
G1 X142.287 Y98.737 E0.01215
G1 X142.316 Y98.806 E0.00235
G1 X142.316 Y111.194 E0.38840
G1 X142.287 Y111.263 E0.00235
G1 X142.013 Y111.537 E0.01215
G1 X141.944 Y111.566 E0.00235
G1 X108.056 Y111.566 E1.06252
G1 X107.987 Y111.537 E0.00235
G1 X107.713 Y111.263 E0.01215
G1 X107.684 Y111.194 E0.00235
G1 X107.684 Y98.806 E0.38840
G1 X107.713 Y98.737 E0.00235
G1 X107.945 Y98.506 E0.01027
G1 X108.172 Y98.811 F10800.000
G1 F1200.000
G1 X141.828 Y98.811 E1.05527
G1 X141.939 Y98.922 E0.00490
G1 X141.939 Y111.078 E0.38115
M73 P2 R61
M73 Q2 S62
G1 X141.828 Y111.189 E0.00490
G1 X108.172 Y111.189 E1.05527
G1 X108.061 Y111.078 E0.00490
G1 X108.061 Y98.922 E0.38115
G1 X108.129 Y98.854 E0.00302
; printing object clip-buckle-v1.stl id:0 copy 0
G1 X108.642 Y99.409 F10800.000
;TYPE:External perimeter
G1 F1200.000
G1 X141.352 Y99.409 E1.02562
M73 Q2 S61
G1 X141.440 Y100.509 E0.03461
G1 X141.440 Y109.489 E0.28158
G1 X141.390 Y109.984 E0.01558
G1 X141.358 Y110.591 E0.01908
G1 X108.642 Y110.591 E1.02579
G1 X108.610 Y109.984 E0.01908
G1 X108.560 Y109.489 E0.01558
G1 X108.560 Y100.511 E0.28152
G1 X108.610 Y100.016 E0.01558
G1 X108.639 Y99.468 E0.01719
G1 X108.983 Y99.617 F10800.000
;WIPE_START
G1 F8640.000
G1 X111.930 Y99.462 E-0.76000
;WIPE_END
G1 E-0.04000 F2100.000
G1 Z0.600 F10800.000
G1 X140.670 Y99.786
G1 Z0.200
G1 E0.80000 F2100.000
;TYPE:Perimeter
G1 F1200.000
G1 X141.000 Y99.786 E0.01034
G1 X141.003 Y99.823 E0.00118
G1 X140.730 Y99.792 E0.00862
;WIPE_START
G1 F8640.000
G1 X141.000 Y99.786 E-0.06239
G1 X141.003 Y99.823 E-0.00871
G1 X140.730 Y99.792 E-0.06351
;WIPE_END
G1 E-0.66538 F2100.000
G1 Z0.600 F10800.000
G1 X141.002 Y110.176
G1 Z0.200
G1 E0.80000 F2100.000
G1 F1200.000
G1 X141.000 Y110.214 E0.00121
G1 X140.661 Y110.214 E0.01062
G1 X140.943 Y110.183 E0.00887
;WIPE_START
G1 F8640.000
G1 X141.000 Y110.214 E-0.01519
G1 X140.661 Y110.214 E-0.07822
G1 X140.943 Y110.183 E-0.06533
;WIPE_END
G1 E-0.64126 F2100.000
G1 Z0.600 F10800.000
G1 X109.339 Y110.214
G1 Z0.200
G1 E0.80000 F2100.000
G1 F1200.000
G1 X109.000 Y110.214 E0.01062
G1 X108.998 Y110.176 E0.00121
G1 X109.279 Y110.208 E0.00887
;WIPE_START
G1 F8640.000
G1 X109.000 Y110.214 E-0.06447
G1 X108.998 Y110.176 E-0.00889
G1 X109.279 Y110.208 E-0.06533
;WIPE_END
G1 E-0.66130 F2100.000
G1 Z0.600 F10800.000
G1 X108.998 Y99.823
G1 Z0.200
G1 E0.80000 F2100.000
G1 F1200.000
G1 X109.000 Y99.786 E0.00118
G1 X109.330 Y99.786 E0.01035
G1 X109.057 Y99.816 E0.00859
G1 X109.100 Y100.191 F10800.000
;TYPE:External perimeter
G1 F1200.000
G1 X109.722 Y100.121 E0.01962
G1 X110.225 Y100.092 E0.01581
G1 X111.216 Y100.087 E0.03106
G1 X139.280 Y100.087 E0.87993
G1 X140.276 Y100.121 E0.03126
G1 X141.063 Y100.209 E0.02483
G1 X141.063 Y109.790 E0.30038
G1 X140.276 Y109.878 E0.02483
G1 X139.280 Y109.912 E0.03126
G1 X111.216 Y109.912 E0.87993
G1 X110.225 Y109.907 E0.03106
G1 X109.722 Y109.878 E0.01581
G1 X108.937 Y109.790 E0.02475
G1 X108.937 Y100.209 E0.30038
G1 X109.040 Y100.198 E0.00325
G1 X109.072 Y99.792 F10800.000
G1 X109.518 Y99.775
;TYPE:Gap fill
;WIDTH:0.344734
G1 F1200.000
G1 X110.211 Y99.751 E0.01739
G1 X111.215 Y99.748 E0.02521
G1 X139.288 Y99.748 E0.70451
;WIDTH:0.379896
G1 X140.482 Y99.775 E0.03347
;WIPE_START
G1 F8640.000
G1 X139.288 Y99.748 E-0.27580
;WIPE_END
G1 E-0.52420 F2100.000
G1 Z0.600 F10800.000
G1 X140.463 Y110.049
G1 Z0.200
G1 E0.80000 F2100.000
;WIDTH:0.379935
G1 F1200.000
G1 X140.305 Y110.234 E0.00683
G1 X139.288 Y110.252 E0.02851
;WIDTH:0.345726
G1 X110.218 Y110.249 E0.73192
G1 X109.695 Y110.234 E0.01318
G1 X109.537 Y110.051 E0.00610
; stop printing object clip-buckle-v1.stl id:0 copy 0
M106 S84.15
;LAYER_CHANGE
;Z:0.35
;HEIGHT:0.15
;BEFORE_LAYER_CHANGE
G92 E0.0
;0.35


;WIPE_START
G1 F8640.000
G1 X109.695 Y110.234 E-0.05592
G1 X110.218 Y110.249 E-0.12086
G1 X112.744 Y110.249 E-0.58322
;WIPE_END
G1 E-0.04000 F2100.000
G1 Z0.600 F10800.000
;AFTER_LAYER_CHANGE
;0.35
G1 X143.634 Y96.991
G1 Z0.350
G1 E0.80000 F2100.000
;TYPE:Skirt
;WIDTH:0.42
G1 F3000.000
G1 X144.241 Y97.825 E0.02494
G1 X144.498 Y98.823 E0.02494
G1 X144.487 Y111.307 E0.30192
G1 X144.314 Y112.005 E0.01740
G1 X143.969 Y112.632 E0.01730
G1 X143.470 Y113.151 E0.01740
G1 X142.858 Y113.521 E0.01730
G1 X142.325 Y113.694 E0.01356
G1 X141.767 Y113.754 E0.01356
G1 X108.148 Y113.752 E0.81309
G1 X107.391 Y113.617 E0.01858
G1 X106.702 Y113.278 E0.01858
G1 X106.133 Y112.762 E0.01858
G1 X105.729 Y112.108 E0.01858
G1 X105.560 Y111.591 E0.01317
G1 X105.496 Y111.046 E0.01327
G1 X105.507 Y98.750 E0.29737
G1 X105.670 Y98.037 E0.01770
G1 X106.014 Y97.391 E0.01770
G1 X106.517 Y96.859 E0.01770
G1 X107.142 Y96.479 E0.01770
G1 X107.675 Y96.306 E0.01356
G1 X108.233 Y96.246 E0.01356
G1 X141.754 Y96.246 E0.81071
G1 X142.763 Y96.439 E0.02484
G1 X143.583 Y96.959 E0.02349
G1 X143.383 Y97.273 F10800.000
G1 F3000.000
G1 X143.906 Y97.999 E0.02165
G1 X144.123 Y98.866 E0.02161
G1 X144.115 Y111.236 E0.29917
G1 X143.970 Y111.849 E0.01525
G1 X143.669 Y112.403 E0.01525
G1 X143.233 Y112.858 E0.01525
G1 X142.688 Y113.184 E0.01534
G1 X141.763 Y113.377 E0.02288
G1 X108.170 Y113.376 E0.81243
G1 X107.512 Y113.260 E0.01616
G1 X106.909 Y112.963 E0.01625
G1 X106.416 Y112.512 E0.01616
G1 X106.066 Y111.938 E0.01625
G1 X105.873 Y111.032 E0.02242
G1 X105.881 Y98.806 E0.29567
G1 X106.019 Y98.179 E0.01552
G1 X106.320 Y97.612 E0.01552
G1 X106.761 Y97.147 E0.01552
G1 X107.312 Y96.816 E0.01552
G1 X108.237 Y96.623 E0.02288
G1 X141.754 Y96.623 E0.81059
G1 X142.631 Y96.792 E0.02161
